(Generated by PartKam Version 0.05)

G21 G90 G40

(inside ring and bolts)
G0 Z5
T0 M6
G17
M3
G0 X117.6502538071066 Y111.1258883248731
G1 Z-0.3 F100
G1 X113.09137055837564 Y115.84517766497463 F100
G1 X107.92131979695432 Y119.88578680203047
G1 X102.23857868020305 Y123.16751269035534
G1 X96.15482233502539 Y125.62436548223351
G1 X89.78680203045685 Y127.21319796954316
G1 X83.26142131979695 Y127.89847715736042
G1 X76.70304568527919 Y127.67005076142132
G1 X70.24111675126903 Y126.53045685279189
G1 X64 Y124.50253807106598
G1 X58.10406091370559 Y121.62436548223351
G1 X52.662436548223354 Y117.95685279187816
G1 X47.786802030456855 Y113.56598984771574
G1 X43.568527918781726 Y108.54060913705584
G1 X40.09137055837564 Y102.97461928934011
G1 X37.423857868020306 Y96.97969543147208
G1 X35.61421319796955 Y90.67258883248732
G1 X34.7005076142132 Y84.1751269035533
G1 X34.7005076142132 Y77.61167512690355
G1 X35.61421319796955 Y71.11421319796955
G1 X37.423857868020306 Y64.80710659898477
G1 X40.09137055837564 Y58.81218274111675
G1 X43.568527918781726 Y53.24873096446701
G1 X47.786802030456855 Y48.22081218274111
G1 X52.662436548223354 Y43.82994923857868
G1 X58.10406091370559 Y40.162436548223354
G1 X64 Y37.28426395939086
G1 X70.24111675126903 Y35.256345177664976
G1 X76.70304568527919 Y34.11675126903553
G1 X83.26142131979695 Y33.888324873096444
G1 X89.78680203045685 Y34.57360406091371
G1 X96.15482233502539 Y36.16243654822335
G1 X102.23857868020305 Y38.619289340101524
G1 X107.92131979695432 Y41.901015228426395
G1 X113.09137055837564 Y45.941624365482234
G1 X117.6497461928934 Y50.659898477157356
G1 X121.50761421319797 Y55.96954314720812
G1 X124.58629441624366 Y61.763959390862944
G1 X126.83248730964466 Y67.92893401015229
G1 X128.19543147208122 Y74.34771573604061
G1 X128.6548223350254 Y80.89340101522843
G1 X128.19543147208122 Y87.43908629441623
G1 X126.83248730964466 Y93.85786802030458
G1 X124.58629441624366 Y100.0228426395939
G1 X121.50761421319797 Y105.81725888324874
G1 X117.6497461928934 Y111.12690355329948
G1 Z-0.6 F100
G1 X113.09137055837564 Y115.84517766497463 F100
G1 X107.92131979695432 Y119.88578680203047
G1 X102.23857868020305 Y123.16751269035534
G1 X96.15482233502539 Y125.62436548223351
G1 X89.78680203045685 Y127.21319796954316
G1 X83.26142131979695 Y127.89847715736042
G1 X76.70304568527919 Y127.67005076142132
G1 X70.24111675126903 Y126.53045685279189
G1 X64 Y124.50253807106598
G1 X58.10406091370559 Y121.62436548223351
G1 X52.662436548223354 Y117.95685279187816
G1 X47.786802030456855 Y113.56598984771574
G1 X43.568527918781726 Y108.54060913705584
G1 X40.09137055837564 Y102.97461928934011
G1 X37.423857868020306 Y96.97969543147208
G1 X35.61421319796955 Y90.67258883248732
G1 X34.7005076142132 Y84.1751269035533
G1 X34.7005076142132 Y77.61167512690355
G1 X35.61421319796955 Y71.11421319796955
G1 X37.423857868020306 Y64.80710659898477
G1 X40.09137055837564 Y58.81218274111675
G1 X43.568527918781726 Y53.24873096446701
G1 X47.786802030456855 Y48.22081218274111
G1 X52.662436548223354 Y43.82994923857868
G1 X58.10406091370559 Y40.162436548223354
G1 X64 Y37.28426395939086
G1 X70.24111675126903 Y35.256345177664976
G1 X76.70304568527919 Y34.11675126903553
G1 X83.26142131979695 Y33.888324873096444
G1 X89.78680203045685 Y34.57360406091371
G1 X96.15482233502539 Y36.16243654822335
G1 X102.23857868020305 Y38.619289340101524
G1 X107.92131979695432 Y41.901015228426395
G1 X113.09137055837564 Y45.941624365482234
G1 X117.6497461928934 Y50.659898477157356
G1 X121.50761421319797 Y55.96954314720812
G1 X124.58629441624366 Y61.763959390862944
G1 X126.83248730964466 Y67.92893401015229
G1 X128.19543147208122 Y74.34771573604061
G1 X128.6548223350254 Y80.89340101522843
G1 X128.19543147208122 Y87.43908629441623
G1 X126.83248730964466 Y93.85786802030458
G1 X124.58629441624366 Y100.0228426395939
G1 X121.50761421319797 Y105.81725888324874
G1 X117.6497461928934 Y111.12690355329948
G1 Z-0.9 F100
G1 X113.09137055837564 Y115.84517766497463 F100
G1 X107.92131979695432 Y119.88578680203047
G1 X102.23857868020305 Y123.16751269035534
G1 X96.15482233502539 Y125.62436548223351
G1 X89.78680203045685 Y127.21319796954316
G1 X83.26142131979695 Y127.89847715736042
G1 X76.70304568527919 Y127.67005076142132
G1 X70.24111675126903 Y126.53045685279189
G1 X64 Y124.50253807106598
G1 X58.10406091370559 Y121.62436548223351
G1 X52.662436548223354 Y117.95685279187816
G1 X47.786802030456855 Y113.56598984771574
G1 X43.568527918781726 Y108.54060913705584
G1 X40.09137055837564 Y102.97461928934011
G1 X37.423857868020306 Y96.97969543147208
G1 X35.61421319796955 Y90.67258883248732
G1 X34.7005076142132 Y84.1751269035533
G1 X34.7005076142132 Y77.61167512690355
G1 X35.61421319796955 Y71.11421319796955
G1 X37.423857868020306 Y64.80710659898477
G1 X40.09137055837564 Y58.81218274111675
G1 X43.568527918781726 Y53.24873096446701
G1 X47.786802030456855 Y48.22081218274111
G1 X52.662436548223354 Y43.82994923857868
G1 X58.10406091370559 Y40.162436548223354
G1 X64 Y37.28426395939086
G1 X70.24111675126903 Y35.256345177664976
G1 X76.70304568527919 Y34.11675126903553
G1 X83.26142131979695 Y33.888324873096444
G1 X89.78680203045685 Y34.57360406091371
G1 X96.15482233502539 Y36.16243654822335
G1 X102.23857868020305 Y38.619289340101524
G1 X107.92131979695432 Y41.901015228426395
G1 X113.09137055837564 Y45.941624365482234
G1 X117.6497461928934 Y50.659898477157356
G1 X121.50761421319797 Y55.96954314720812
G1 X124.58629441624366 Y61.763959390862944
G1 X126.83248730964466 Y67.92893401015229
G1 X128.19543147208122 Y74.34771573604061
G1 X128.6548223350254 Y80.89340101522843
G1 X128.19543147208122 Y87.43908629441623
G1 X126.83248730964466 Y93.85786802030458
G1 X124.58629441624366 Y100.0228426395939
G1 X121.50761421319797 Y105.81725888324874
G1 X117.6497461928934 Y111.12690355329948
G1 Z-1.2 F100
G1 X113.09137055837564 Y115.84517766497463 F100
G1 X107.92131979695432 Y119.88578680203047
G1 X102.23857868020305 Y123.16751269035534
G1 X96.15482233502539 Y125.62436548223351
G1 X89.78680203045685 Y127.21319796954316
G1 X83.26142131979695 Y127.89847715736042
G1 X76.70304568527919 Y127.67005076142132
G1 X70.24111675126903 Y126.53045685279189
G1 X64 Y124.50253807106598
G1 X58.10406091370559 Y121.62436548223351
G1 X52.662436548223354 Y117.95685279187816
G1 X47.786802030456855 Y113.56598984771574
G1 X43.568527918781726 Y108.54060913705584
G1 X40.09137055837564 Y102.97461928934011
G1 X37.423857868020306 Y96.97969543147208
G1 X35.61421319796955 Y90.67258883248732
G1 X34.7005076142132 Y84.1751269035533
G1 X34.7005076142132 Y77.61167512690355
G1 X35.61421319796955 Y71.11421319796955
G1 X37.423857868020306 Y64.80710659898477
G1 X40.09137055837564 Y58.81218274111675
G1 X43.568527918781726 Y53.24873096446701
G1 X47.786802030456855 Y48.22081218274111
G1 X52.662436548223354 Y43.82994923857868
G1 X58.10406091370559 Y40.162436548223354
G1 X64 Y37.28426395939086
G1 X70.24111675126903 Y35.256345177664976
G1 X76.70304568527919 Y34.11675126903553
G1 X83.26142131979695 Y33.888324873096444
G1 X89.78680203045685 Y34.57360406091371
G1 X96.15482233502539 Y36.16243654822335
G1 X102.23857868020305 Y38.619289340101524
G1 X107.92131979695432 Y41.901015228426395
G1 X113.09137055837564 Y45.941624365482234
G1 X117.6497461928934 Y50.659898477157356
G1 X121.50761421319797 Y55.96954314720812
G1 X124.58629441624366 Y61.763959390862944
G1 X126.83248730964466 Y67.92893401015229
G1 X128.19543147208122 Y74.34771573604061
G1 X128.6548223350254 Y80.89340101522843
G1 X128.19543147208122 Y87.43908629441623
G1 X126.83248730964466 Y93.85786802030458
G1 X124.58629441624366 Y100.0228426395939
G1 X121.50761421319797 Y105.81725888324874
G1 X117.6497461928934 Y111.12690355329948
G1 Z-1.5 F100
G1 X113.09137055837564 Y115.84517766497463 F100
G1 X107.92131979695432 Y119.88578680203047
G1 X102.23857868020305 Y123.16751269035534
G1 X96.15482233502539 Y125.62436548223351
G1 X89.78680203045685 Y127.21319796954316
G1 X83.26142131979695 Y127.89847715736042
G1 X76.70304568527919 Y127.67005076142132
G1 X70.24111675126903 Y126.53045685279189
G1 X64 Y124.50253807106598
G1 X58.10406091370559 Y121.62436548223351
G1 X52.662436548223354 Y117.95685279187816
G1 X47.786802030456855 Y113.56598984771574
G1 X43.568527918781726 Y108.54060913705584
G1 X40.09137055837564 Y102.97461928934011
G1 X37.423857868020306 Y96.97969543147208
G1 X35.61421319796955 Y90.67258883248732
G1 X34.7005076142132 Y84.1751269035533
G1 X34.7005076142132 Y77.61167512690355
G1 X35.61421319796955 Y71.11421319796955
G1 X37.423857868020306 Y64.80710659898477
G1 X40.09137055837564 Y58.81218274111675
G1 X43.568527918781726 Y53.24873096446701
G1 X47.786802030456855 Y48.22081218274111
G1 X52.662436548223354 Y43.82994923857868
G1 X58.10406091370559 Y40.162436548223354
G1 X64 Y37.28426395939086
G1 X70.24111675126903 Y35.256345177664976
G1 X76.70304568527919 Y34.11675126903553
G1 X83.26142131979695 Y33.888324873096444
G1 X89.78680203045685 Y34.57360406091371
G1 X96.15482233502539 Y36.16243654822335
G1 X102.23857868020305 Y38.619289340101524
G1 X107.92131979695432 Y41.901015228426395
G1 X113.09137055837564 Y45.941624365482234
G1 X117.6497461928934 Y50.659898477157356
G1 X121.50761421319797 Y55.96954314720812
G1 X124.58629441624366 Y61.763959390862944
G1 X126.83248730964466 Y67.92893401015229
G1 X128.19543147208122 Y74.34771573604061
G1 X128.6548223350254 Y80.89340101522843
G1 X128.19543147208122 Y87.43908629441623
G1 X126.83248730964466 Y93.85786802030458
G1 X124.58629441624366 Y100.0228426395939
G1 X121.50761421319797 Y105.81725888324874
G1 X117.6497461928934 Y111.12690355329948
G1 Z-1.8 F100
G1 X113.09137055837564 Y115.84517766497463 F100
G1 X107.92131979695432 Y119.88578680203047
G1 X102.23857868020305 Y123.16751269035534
G1 X96.15482233502539 Y125.62436548223351
G1 X89.78680203045685 Y127.21319796954316
G1 X83.26142131979695 Y127.89847715736042
G1 X76.70304568527919 Y127.67005076142132
G1 X70.24111675126903 Y126.53045685279189
G1 X64 Y124.50253807106598
G1 X58.10406091370559 Y121.62436548223351
G1 X52.662436548223354 Y117.95685279187816
G1 X47.786802030456855 Y113.56598984771574
G1 X43.568527918781726 Y108.54060913705584
G1 X40.09137055837564 Y102.97461928934011
G1 X37.423857868020306 Y96.97969543147208
G1 X35.61421319796955 Y90.67258883248732
G1 X34.7005076142132 Y84.1751269035533
G1 X34.7005076142132 Y77.61167512690355
G1 X35.61421319796955 Y71.11421319796955
G1 X37.423857868020306 Y64.80710659898477
G1 X40.09137055837564 Y58.81218274111675
G1 X43.568527918781726 Y53.24873096446701
G1 X47.786802030456855 Y48.22081218274111
G1 X52.662436548223354 Y43.82994923857868
G1 X58.10406091370559 Y40.162436548223354
G1 X64 Y37.28426395939086
G1 X70.24111675126903 Y35.256345177664976
G1 X76.70304568527919 Y34.11675126903553
G1 X83.26142131979695 Y33.888324873096444
G1 X89.78680203045685 Y34.57360406091371
G1 X96.15482233502539 Y36.16243654822335
G1 X102.23857868020305 Y38.619289340101524
G1 X107.92131979695432 Y41.901015228426395
G1 X113.09137055837564 Y45.941624365482234
G1 X117.6497461928934 Y50.659898477157356
G1 X121.50761421319797 Y55.96954314720812
G1 X124.58629441624366 Y61.763959390862944
G1 X126.83248730964466 Y67.92893401015229
G1 X128.19543147208122 Y74.34771573604061
G1 X128.6548223350254 Y80.89340101522843
G1 X128.19543147208122 Y87.43908629441623
G1 X126.83248730964466 Y93.85786802030458
G1 X124.58629441624366 Y100.0228426395939
G1 X121.50761421319797 Y105.81725888324874
G1 X117.6497461928934 Y111.12690355329948
G1 Z-2.1 F100
G1 X113.09137055837564 Y115.84517766497463 F100
G1 X107.92131979695432 Y119.88578680203047
G1 X102.23857868020305 Y123.16751269035534
G1 X96.15482233502539 Y125.62436548223351
G1 X89.78680203045685 Y127.21319796954316
G1 X83.26142131979695 Y127.89847715736042
G1 X76.70304568527919 Y127.67005076142132
G1 X70.24111675126903 Y126.53045685279189
G1 X64 Y124.50253807106598
G1 X58.10406091370559 Y121.62436548223351
G1 X52.662436548223354 Y117.95685279187816
G1 X47.786802030456855 Y113.56598984771574
G1 X43.568527918781726 Y108.54060913705584
G1 X40.09137055837564 Y102.97461928934011
G1 X37.423857868020306 Y96.97969543147208
G1 X35.61421319796955 Y90.67258883248732
G1 X34.7005076142132 Y84.1751269035533
G1 X34.7005076142132 Y77.61167512690355
G1 X35.61421319796955 Y71.11421319796955
G1 X37.423857868020306 Y64.80710659898477
G1 X40.09137055837564 Y58.81218274111675
G1 X43.568527918781726 Y53.24873096446701
G1 X47.786802030456855 Y48.22081218274111
G1 X52.662436548223354 Y43.82994923857868
G1 X58.10406091370559 Y40.162436548223354
G1 X64 Y37.28426395939086
G1 X70.24111675126903 Y35.256345177664976
G1 X76.70304568527919 Y34.11675126903553
G1 X83.26142131979695 Y33.888324873096444
G1 X89.78680203045685 Y34.57360406091371
G1 X96.15482233502539 Y36.16243654822335
G1 X102.23857868020305 Y38.619289340101524
G1 X107.92131979695432 Y41.901015228426395
G1 X113.09137055837564 Y45.941624365482234
G1 X117.6497461928934 Y50.659898477157356
G1 X121.50761421319797 Y55.96954314720812
G1 X124.58629441624366 Y61.763959390862944
G1 X126.83248730964466 Y67.92893401015229
G1 X128.19543147208122 Y74.34771573604061
G1 X128.6548223350254 Y80.89340101522843
G1 X128.19543147208122 Y87.43908629441623
G1 X126.83248730964466 Y93.85786802030458
G1 X124.58629441624366 Y100.0228426395939
G1 X121.50761421319797 Y105.81725888324874
G1 X117.6497461928934 Y111.12690355329948
G1 Z-2.4 F100
G1 X113.09137055837564 Y115.84517766497463 F100
G1 X107.92131979695432 Y119.88578680203047
G1 X102.23857868020305 Y123.16751269035534
G1 X96.15482233502539 Y125.62436548223351
G1 X89.78680203045685 Y127.21319796954316
G1 X83.26142131979695 Y127.89847715736042
G1 X76.70304568527919 Y127.67005076142132
G1 X70.24111675126903 Y126.53045685279189
G1 X64 Y124.50253807106598
G1 X58.10406091370559 Y121.62436548223351
G1 X52.662436548223354 Y117.95685279187816
G1 X47.786802030456855 Y113.56598984771574
G1 X43.568527918781726 Y108.54060913705584
G1 X40.09137055837564 Y102.97461928934011
G1 X37.423857868020306 Y96.97969543147208
G1 X35.61421319796955 Y90.67258883248732
G1 X34.7005076142132 Y84.1751269035533
G1 X34.7005076142132 Y77.61167512690355
G1 X35.61421319796955 Y71.11421319796955
G1 X37.423857868020306 Y64.80710659898477
G1 X40.09137055837564 Y58.81218274111675
G1 X43.568527918781726 Y53.24873096446701
G1 X47.786802030456855 Y48.22081218274111
G1 X52.662436548223354 Y43.82994923857868
G1 X58.10406091370559 Y40.162436548223354
G1 X64 Y37.28426395939086
G1 X70.24111675126903 Y35.256345177664976
G1 X76.70304568527919 Y34.11675126903553
G1 X83.26142131979695 Y33.888324873096444
G1 X89.78680203045685 Y34.57360406091371
G1 X96.15482233502539 Y36.16243654822335
G1 X102.23857868020305 Y38.619289340101524
G1 X107.92131979695432 Y41.901015228426395
G1 X113.09137055837564 Y45.941624365482234
G1 X117.6497461928934 Y50.659898477157356
G1 X121.50761421319797 Y55.96954314720812
G1 X124.58629441624366 Y61.763959390862944
G1 X126.83248730964466 Y67.92893401015229
G1 X128.19543147208122 Y74.34771573604061
G1 X128.6548223350254 Y80.89340101522843
G1 X128.19543147208122 Y87.43908629441623
G1 X126.83248730964466 Y93.85786802030458
G1 X124.58629441624366 Y100.0228426395939
G1 X121.50761421319797 Y105.81725888324874
G1 X117.6497461928934 Y111.12690355329948
G1 Z-2.7 F100
G1 X113.09137055837564 Y115.84517766497463 F100
G1 X107.92131979695432 Y119.88578680203047
G1 X102.23857868020305 Y123.16751269035534
G1 X96.15482233502539 Y125.62436548223351
G1 X89.78680203045685 Y127.21319796954316
G1 X83.26142131979695 Y127.89847715736042
G1 X76.70304568527919 Y127.67005076142132
G1 X70.24111675126903 Y126.53045685279189
G1 X64 Y124.50253807106598
G1 X58.10406091370559 Y121.62436548223351
G1 X52.662436548223354 Y117.95685279187816
G1 X47.786802030456855 Y113.56598984771574
G1 X43.568527918781726 Y108.54060913705584
G1 X40.09137055837564 Y102.97461928934011
G1 X37.423857868020306 Y96.97969543147208
G1 X35.61421319796955 Y90.67258883248732
G1 X34.7005076142132 Y84.1751269035533
G1 X34.7005076142132 Y77.61167512690355
G1 X35.61421319796955 Y71.11421319796955
G1 X37.423857868020306 Y64.80710659898477
G1 X40.09137055837564 Y58.81218274111675
G1 X43.568527918781726 Y53.24873096446701
G1 X47.786802030456855 Y48.22081218274111
G1 X52.662436548223354 Y43.82994923857868
G1 X58.10406091370559 Y40.162436548223354
G1 X64 Y37.28426395939086
G1 X70.24111675126903 Y35.256345177664976
G1 X76.70304568527919 Y34.11675126903553
G1 X83.26142131979695 Y33.888324873096444
G1 X89.78680203045685 Y34.57360406091371
G1 X96.15482233502539 Y36.16243654822335
G1 X102.23857868020305 Y38.619289340101524
G1 X107.92131979695432 Y41.901015228426395
G1 X113.09137055837564 Y45.941624365482234
G1 X117.6497461928934 Y50.659898477157356
G1 X121.50761421319797 Y55.96954314720812
G1 X124.58629441624366 Y61.763959390862944
G1 X126.83248730964466 Y67.92893401015229
G1 X128.19543147208122 Y74.34771573604061
G1 X128.6548223350254 Y80.89340101522843
G1 X128.19543147208122 Y87.43908629441623
G1 X126.83248730964466 Y93.85786802030458
G1 X124.58629441624366 Y100.0228426395939
G1 X121.50761421319797 Y105.81725888324874
G1 X117.6497461928934 Y111.12690355329948
G0 Z5
G0 X97.56319796954315 Y129.96395939086295
G1 Z-0.3 F100
G1 X98.21573604060914 Y129.8197969543147 F100
G1 X98.88324873096448 Y129.80710659898477
G1 X99.54060913705584 Y129.9238578680203
G1 X100.16243654822334 Y130.16751269035532
G1 X100.7233502538071 Y130.52791878172587
G1 X101.20558375634518 Y130.98984771573606
G1 X101.58629441624365 Y131.53807106598984
G1 X101.85532994923858 Y132.1497461928934
G1 X101.99746192893402 Y132.8020304568528
G1 X102.01015228426397 Y133.46954314720813
G1 X101.89340101522843 Y134.12690355329948
G1 X101.6497461928934 Y134.746192893401
G1 X101.28934010152284 Y135.30964467005074
G1 X100.82741116751268 Y135.79187817258884
G1 X100.27918781725889 Y136.1725888324873
G1 X99.66751269035534 Y136.43908629441623
G1 X99.01522842639594 Y136.58375634517765
G1 X98.3477157360406 Y136.5964467005076
G1 X97.69035532994923 Y136.4771573604061
G1 X97.07106598984772 Y136.23604060913706
G1 X96.50761421319797 Y135.87563451776649
G1 X96.02791878172589 Y135.41370558375635
G1 X95.64467005076142 Y134.86548223350252
G1 X95.3781725888325 Y134.25380710659897
G1 X95.23350253807106 Y133.60152284263958
G1 X95.22081218274111 Y132.93401015228426
G1 X95.34010152284264 Y132.2766497461929
G1 X95.58121827411168 Y131.65482233502536
G1 X95.94162436548224 Y131.09390862944161
G1 X96.40355329949239 Y130.61167512690355
G1 X96.9517766497462 Y130.2309644670051
G1 X97.56345177664974 Y129.96446700507613
G1 Z-0.6 F100
G1 X98.21573604060914 Y129.8197969543147 F100
G1 X98.88324873096448 Y129.80710659898477
G1 X99.54060913705584 Y129.9238578680203
G1 X100.16243654822334 Y130.16751269035532
G1 X100.7233502538071 Y130.52791878172587
G1 X101.20558375634518 Y130.98984771573606
G1 X101.58629441624365 Y131.53807106598984
G1 X101.85532994923858 Y132.1497461928934
G1 X101.99746192893402 Y132.8020304568528
G1 X102.01015228426397 Y133.46954314720813
G1 X101.89340101522843 Y134.12690355329948
G1 X101.6497461928934 Y134.746192893401
G1 X101.28934010152284 Y135.30964467005074
G1 X100.82741116751268 Y135.79187817258884
G1 X100.27918781725889 Y136.1725888324873
G1 X99.66751269035534 Y136.43908629441623
G1 X99.01522842639594 Y136.58375634517765
G1 X98.3477157360406 Y136.5964467005076
G1 X97.69035532994923 Y136.4771573604061
G1 X97.07106598984772 Y136.23604060913706
G1 X96.50761421319797 Y135.87563451776649
G1 X96.02791878172589 Y135.41370558375635
G1 X95.64467005076142 Y134.86548223350252
G1 X95.3781725888325 Y134.25380710659897
G1 X95.23350253807106 Y133.60152284263958
G1 X95.22081218274111 Y132.93401015228426
G1 X95.34010152284264 Y132.2766497461929
G1 X95.58121827411168 Y131.65482233502536
G1 X95.94162436548224 Y131.09390862944161
G1 X96.40355329949239 Y130.61167512690355
G1 X96.9517766497462 Y130.2309644670051
G1 X97.56345177664974 Y129.96446700507613
G1 Z-0.9 F100
G1 X98.21573604060914 Y129.8197969543147 F100
G1 X98.88324873096448 Y129.80710659898477
G1 X99.54060913705584 Y129.9238578680203
G1 X100.16243654822334 Y130.16751269035532
G1 X100.7233502538071 Y130.52791878172587
G1 X101.20558375634518 Y130.98984771573606
G1 X101.58629441624365 Y131.53807106598984
G1 X101.85532994923858 Y132.1497461928934
G1 X101.99746192893402 Y132.8020304568528
G1 X102.01015228426397 Y133.46954314720813
G1 X101.89340101522843 Y134.12690355329948
G1 X101.6497461928934 Y134.746192893401
G1 X101.28934010152284 Y135.30964467005074
G1 X100.82741116751268 Y135.79187817258884
G1 X100.27918781725889 Y136.1725888324873
G1 X99.66751269035534 Y136.43908629441623
G1 X99.01522842639594 Y136.58375634517765
G1 X98.3477157360406 Y136.5964467005076
G1 X97.69035532994923 Y136.4771573604061
G1 X97.07106598984772 Y136.23604060913706
G1 X96.50761421319797 Y135.87563451776649
G1 X96.02791878172589 Y135.41370558375635
G1 X95.64467005076142 Y134.86548223350252
G1 X95.3781725888325 Y134.25380710659897
G1 X95.23350253807106 Y133.60152284263958
G1 X95.22081218274111 Y132.93401015228426
G1 X95.34010152284264 Y132.2766497461929
G1 X95.58121827411168 Y131.65482233502536
G1 X95.94162436548224 Y131.09390862944161
G1 X96.40355329949239 Y130.61167512690355
G1 X96.9517766497462 Y130.2309644670051
G1 X97.56345177664974 Y129.96446700507613
G1 Z-1.2 F100
G1 X98.21573604060914 Y129.8197969543147 F100
G1 X98.88324873096448 Y129.80710659898477
G1 X99.54060913705584 Y129.9238578680203
G1 X100.16243654822334 Y130.16751269035532
G1 X100.7233502538071 Y130.52791878172587
G1 X101.20558375634518 Y130.98984771573606
G1 X101.58629441624365 Y131.53807106598984
G1 X101.85532994923858 Y132.1497461928934
G1 X101.99746192893402 Y132.8020304568528
G1 X102.01015228426397 Y133.46954314720813
G1 X101.89340101522843 Y134.12690355329948
G1 X101.6497461928934 Y134.746192893401
G1 X101.28934010152284 Y135.30964467005074
G1 X100.82741116751268 Y135.79187817258884
G1 X100.27918781725889 Y136.1725888324873
G1 X99.66751269035534 Y136.43908629441623
G1 X99.01522842639594 Y136.58375634517765
G1 X98.3477157360406 Y136.5964467005076
G1 X97.69035532994923 Y136.4771573604061
G1 X97.07106598984772 Y136.23604060913706
G1 X96.50761421319797 Y135.87563451776649
G1 X96.02791878172589 Y135.41370558375635
G1 X95.64467005076142 Y134.86548223350252
G1 X95.3781725888325 Y134.25380710659897
G1 X95.23350253807106 Y133.60152284263958
G1 X95.22081218274111 Y132.93401015228426
G1 X95.34010152284264 Y132.2766497461929
G1 X95.58121827411168 Y131.65482233502536
G1 X95.94162436548224 Y131.09390862944161
G1 X96.40355329949239 Y130.61167512690355
G1 X96.9517766497462 Y130.2309644670051
G1 X97.56345177664974 Y129.96446700507613
G1 Z-1.5 F100
G1 X98.21573604060914 Y129.8197969543147 F100
G1 X98.88324873096448 Y129.80710659898477
G1 X99.54060913705584 Y129.9238578680203
G1 X100.16243654822334 Y130.16751269035532
G1 X100.7233502538071 Y130.52791878172587
G1 X101.20558375634518 Y130.98984771573606
G1 X101.58629441624365 Y131.53807106598984
G1 X101.85532994923858 Y132.1497461928934
G1 X101.99746192893402 Y132.8020304568528
G1 X102.01015228426397 Y133.46954314720813
G1 X101.89340101522843 Y134.12690355329948
G1 X101.6497461928934 Y134.746192893401
G1 X101.28934010152284 Y135.30964467005074
G1 X100.82741116751268 Y135.79187817258884
G1 X100.27918781725889 Y136.1725888324873
G1 X99.66751269035534 Y136.43908629441623
G1 X99.01522842639594 Y136.58375634517765
G1 X98.3477157360406 Y136.5964467005076
G1 X97.69035532994923 Y136.4771573604061
G1 X97.07106598984772 Y136.23604060913706
G1 X96.50761421319797 Y135.87563451776649
G1 X96.02791878172589 Y135.41370558375635
G1 X95.64467005076142 Y134.86548223350252
G1 X95.3781725888325 Y134.25380710659897
G1 X95.23350253807106 Y133.60152284263958
G1 X95.22081218274111 Y132.93401015228426
G1 X95.34010152284264 Y132.2766497461929
G1 X95.58121827411168 Y131.65482233502536
G1 X95.94162436548224 Y131.09390862944161
G1 X96.40355329949239 Y130.61167512690355
G1 X96.9517766497462 Y130.2309644670051
G1 X97.56345177664974 Y129.96446700507613
G1 Z-1.8 F100
G1 X98.21573604060914 Y129.8197969543147 F100
G1 X98.88324873096448 Y129.80710659898477
G1 X99.54060913705584 Y129.9238578680203
G1 X100.16243654822334 Y130.16751269035532
G1 X100.7233502538071 Y130.52791878172587
G1 X101.20558375634518 Y130.98984771573606
G1 X101.58629441624365 Y131.53807106598984
G1 X101.85532994923858 Y132.1497461928934
G1 X101.99746192893402 Y132.8020304568528
G1 X102.01015228426397 Y133.46954314720813
G1 X101.89340101522843 Y134.12690355329948
G1 X101.6497461928934 Y134.746192893401
G1 X101.28934010152284 Y135.30964467005074
G1 X100.82741116751268 Y135.79187817258884
G1 X100.27918781725889 Y136.1725888324873
G1 X99.66751269035534 Y136.43908629441623
G1 X99.01522842639594 Y136.58375634517765
G1 X98.3477157360406 Y136.5964467005076
G1 X97.69035532994923 Y136.4771573604061
G1 X97.07106598984772 Y136.23604060913706
G1 X96.50761421319797 Y135.87563451776649
G1 X96.02791878172589 Y135.41370558375635
G1 X95.64467005076142 Y134.86548223350252
G1 X95.3781725888325 Y134.25380710659897
G1 X95.23350253807106 Y133.60152284263958
G1 X95.22081218274111 Y132.93401015228426
G1 X95.34010152284264 Y132.2766497461929
G1 X95.58121827411168 Y131.65482233502536
G1 X95.94162436548224 Y131.09390862944161
G1 X96.40355329949239 Y130.61167512690355
G1 X96.9517766497462 Y130.2309644670051
G1 X97.56345177664974 Y129.96446700507613
G1 Z-2.1 F100
G1 X98.21573604060914 Y129.8197969543147 F100
G1 X98.88324873096448 Y129.80710659898477
G1 X99.54060913705584 Y129.9238578680203
G1 X100.16243654822334 Y130.16751269035532
G1 X100.7233502538071 Y130.52791878172587
G1 X101.20558375634518 Y130.98984771573606
G1 X101.58629441624365 Y131.53807106598984
G1 X101.85532994923858 Y132.1497461928934
G1 X101.99746192893402 Y132.8020304568528
G1 X102.01015228426397 Y133.46954314720813
G1 X101.89340101522843 Y134.12690355329948
G1 X101.6497461928934 Y134.746192893401
G1 X101.28934010152284 Y135.30964467005074
G1 X100.82741116751268 Y135.79187817258884
G1 X100.27918781725889 Y136.1725888324873
G1 X99.66751269035534 Y136.43908629441623
G1 X99.01522842639594 Y136.58375634517765
G1 X98.3477157360406 Y136.5964467005076
G1 X97.69035532994923 Y136.4771573604061
G1 X97.07106598984772 Y136.23604060913706
G1 X96.50761421319797 Y135.87563451776649
G1 X96.02791878172589 Y135.41370558375635
G1 X95.64467005076142 Y134.86548223350252
G1 X95.3781725888325 Y134.25380710659897
G1 X95.23350253807106 Y133.60152284263958
G1 X95.22081218274111 Y132.93401015228426
G1 X95.34010152284264 Y132.2766497461929
G1 X95.58121827411168 Y131.65482233502536
G1 X95.94162436548224 Y131.09390862944161
G1 X96.40355329949239 Y130.61167512690355
G1 X96.9517766497462 Y130.2309644670051
G1 X97.56345177664974 Y129.96446700507613
G1 Z-2.4 F100
G1 X98.21573604060914 Y129.8197969543147 F100
G1 X98.88324873096448 Y129.80710659898477
G1 X99.54060913705584 Y129.9238578680203
G1 X100.16243654822334 Y130.16751269035532
G1 X100.7233502538071 Y130.52791878172587
G1 X101.20558375634518 Y130.98984771573606
G1 X101.58629441624365 Y131.53807106598984
G1 X101.85532994923858 Y132.1497461928934
G1 X101.99746192893402 Y132.8020304568528
G1 X102.01015228426397 Y133.46954314720813
G1 X101.89340101522843 Y134.12690355329948
G1 X101.6497461928934 Y134.746192893401
G1 X101.28934010152284 Y135.30964467005074
G1 X100.82741116751268 Y135.79187817258884
G1 X100.27918781725889 Y136.1725888324873
G1 X99.66751269035534 Y136.43908629441623
G1 X99.01522842639594 Y136.58375634517765
G1 X98.3477157360406 Y136.5964467005076
G1 X97.69035532994923 Y136.4771573604061
G1 X97.07106598984772 Y136.23604060913706
G1 X96.50761421319797 Y135.87563451776649
G1 X96.02791878172589 Y135.41370558375635
G1 X95.64467005076142 Y134.86548223350252
G1 X95.3781725888325 Y134.25380710659897
G1 X95.23350253807106 Y133.60152284263958
G1 X95.22081218274111 Y132.93401015228426
G1 X95.34010152284264 Y132.2766497461929
G1 X95.58121827411168 Y131.65482233502536
G1 X95.94162436548224 Y131.09390862944161
G1 X96.40355329949239 Y130.61167512690355
G1 X96.9517766497462 Y130.2309644670051
G1 X97.56345177664974 Y129.96446700507613
G1 Z-2.7 F100
G1 X98.21573604060914 Y129.8197969543147 F100
G1 X98.88324873096448 Y129.80710659898477
G1 X99.54060913705584 Y129.9238578680203
G1 X100.16243654822334 Y130.16751269035532
G1 X100.7233502538071 Y130.52791878172587
G1 X101.20558375634518 Y130.98984771573606
G1 X101.58629441624365 Y131.53807106598984
G1 X101.85532994923858 Y132.1497461928934
G1 X101.99746192893402 Y132.8020304568528
G1 X102.01015228426397 Y133.46954314720813
G1 X101.89340101522843 Y134.12690355329948
G1 X101.6497461928934 Y134.746192893401
G1 X101.28934010152284 Y135.30964467005074
G1 X100.82741116751268 Y135.79187817258884
G1 X100.27918781725889 Y136.1725888324873
G1 X99.66751269035534 Y136.43908629441623
G1 X99.01522842639594 Y136.58375634517765
G1 X98.3477157360406 Y136.5964467005076
G1 X97.69035532994923 Y136.4771573604061
G1 X97.07106598984772 Y136.23604060913706
G1 X96.50761421319797 Y135.87563451776649
G1 X96.02791878172589 Y135.41370558375635
G1 X95.64467005076142 Y134.86548223350252
G1 X95.3781725888325 Y134.25380710659897
G1 X95.23350253807106 Y133.60152284263958
G1 X95.22081218274111 Y132.93401015228426
G1 X95.34010152284264 Y132.2766497461929
G1 X95.58121827411168 Y131.65482233502536
G1 X95.94162436548224 Y131.09390862944161
G1 X96.40355329949239 Y130.61167512690355
G1 X96.9517766497462 Y130.2309644670051
G1 X97.56345177664974 Y129.96446700507613
G0 Z5
G0 X33.761167512690356 Y112.68908629441624
G1 Z-0.3 F100
G1 X33.92893401015228 Y112.04314720812184 F100
G1 X34.22081218274111 Y111.44162436548223
G1 X34.6243654822335 Y110.91116751269035
G1 X35.121827411167516 Y110.46700507614213
G1 X35.69796954314721 Y110.12944162436548
G1 X36.32994923857868 Y109.91116751269035
G1 X36.98984771573604 Y109.81979695431471
G1 X37.65736040609137 Y109.86040609137056
G1 X38.30203045685279 Y110.02791878172589
G1 X38.90355329949239 Y110.31979695431473
G1 X39.43654822335026 Y110.72081218274113
G1 X39.878172588832484 Y111.22081218274111
G1 X40.21573604060913 Y111.79695431472082
G1 X40.434010152284266 Y112.42639593908629
G1 X40.525380710659896 Y113.08883248730965
G1 X40.48730964467005 Y113.75380710659898
G1 X40.319796954314725 Y114.40101522842639
G1 X40.02791878172589 Y115
G1 X39.6243654822335 Y115.53299492385787
G1 X39.1243654822335 Y115.9771573604061
G1 X38.54822335025381 Y116.31472081218274
G1 X37.91878172588832 Y116.53299492385786
G1 X37.25888324873096 Y116.62436548223351
G1 X36.59137055837563 Y116.58375634517766
G1 X35.94670050761421 Y116.41624365482232
G1 X35.34517766497462 Y116.1243654822335
G1 X34.81218274111675 Y115.7233502538071
G1 X34.370558375634516 Y115.22335025380711
G1 X34.03299492385787 Y114.6472081218274
G1 X33.81218274111675 Y114.01522842639594
G1 X33.72081218274112 Y113.35532994923858
G1 X33.76142131979695 Y112.69035532994923
G1 Z-0.6 F100
G1 X33.92893401015228 Y112.04314720812184 F100
G1 X34.22081218274111 Y111.44162436548223
G1 X34.6243654822335 Y110.91116751269035
G1 X35.121827411167516 Y110.46700507614213
G1 X35.69796954314721 Y110.12944162436548
G1 X36.32994923857868 Y109.91116751269035
G1 X36.98984771573604 Y109.81979695431471
G1 X37.65736040609137 Y109.86040609137056
G1 X38.30203045685279 Y110.02791878172589
G1 X38.90355329949239 Y110.31979695431473
G1 X39.43654822335026 Y110.72081218274113
G1 X39.878172588832484 Y111.22081218274111
G1 X40.21573604060913 Y111.79695431472082
G1 X40.434010152284266 Y112.42639593908629
G1 X40.525380710659896 Y113.08883248730965
G1 X40.48730964467005 Y113.75380710659898
G1 X40.319796954314725 Y114.40101522842639
G1 X40.02791878172589 Y115
G1 X39.6243654822335 Y115.53299492385787
G1 X39.1243654822335 Y115.9771573604061
G1 X38.54822335025381 Y116.31472081218274
G1 X37.91878172588832 Y116.53299492385786
G1 X37.25888324873096 Y116.62436548223351
G1 X36.59137055837563 Y116.58375634517766
G1 X35.94670050761421 Y116.41624365482232
G1 X35.34517766497462 Y116.1243654822335
G1 X34.81218274111675 Y115.7233502538071
G1 X34.370558375634516 Y115.22335025380711
G1 X34.03299492385787 Y114.6472081218274
G1 X33.81218274111675 Y114.01522842639594
G1 X33.72081218274112 Y113.35532994923858
G1 X33.76142131979695 Y112.69035532994923
G1 Z-0.9 F100
G1 X33.92893401015228 Y112.04314720812184 F100
G1 X34.22081218274111 Y111.44162436548223
G1 X34.6243654822335 Y110.91116751269035
G1 X35.121827411167516 Y110.46700507614213
G1 X35.69796954314721 Y110.12944162436548
G1 X36.32994923857868 Y109.91116751269035
G1 X36.98984771573604 Y109.81979695431471
G1 X37.65736040609137 Y109.86040609137056
G1 X38.30203045685279 Y110.02791878172589
G1 X38.90355329949239 Y110.31979695431473
G1 X39.43654822335026 Y110.72081218274113
G1 X39.878172588832484 Y111.22081218274111
G1 X40.21573604060913 Y111.79695431472082
G1 X40.434010152284266 Y112.42639593908629
G1 X40.525380710659896 Y113.08883248730965
G1 X40.48730964467005 Y113.75380710659898
G1 X40.319796954314725 Y114.40101522842639
G1 X40.02791878172589 Y115
G1 X39.6243654822335 Y115.53299492385787
G1 X39.1243654822335 Y115.9771573604061
G1 X38.54822335025381 Y116.31472081218274
G1 X37.91878172588832 Y116.53299492385786
G1 X37.25888324873096 Y116.62436548223351
G1 X36.59137055837563 Y116.58375634517766
G1 X35.94670050761421 Y116.41624365482232
G1 X35.34517766497462 Y116.1243654822335
G1 X34.81218274111675 Y115.7233502538071
G1 X34.370558375634516 Y115.22335025380711
G1 X34.03299492385787 Y114.6472081218274
G1 X33.81218274111675 Y114.01522842639594
G1 X33.72081218274112 Y113.35532994923858
G1 X33.76142131979695 Y112.69035532994923
G1 Z-1.2 F100
G1 X33.92893401015228 Y112.04314720812184 F100
G1 X34.22081218274111 Y111.44162436548223
G1 X34.6243654822335 Y110.91116751269035
G1 X35.121827411167516 Y110.46700507614213
G1 X35.69796954314721 Y110.12944162436548
G1 X36.32994923857868 Y109.91116751269035
G1 X36.98984771573604 Y109.81979695431471
G1 X37.65736040609137 Y109.86040609137056
G1 X38.30203045685279 Y110.02791878172589
G1 X38.90355329949239 Y110.31979695431473
G1 X39.43654822335026 Y110.72081218274113
G1 X39.878172588832484 Y111.22081218274111
G1 X40.21573604060913 Y111.79695431472082
G1 X40.434010152284266 Y112.42639593908629
G1 X40.525380710659896 Y113.08883248730965
G1 X40.48730964467005 Y113.75380710659898
G1 X40.319796954314725 Y114.40101522842639
G1 X40.02791878172589 Y115
G1 X39.6243654822335 Y115.53299492385787
G1 X39.1243654822335 Y115.9771573604061
G1 X38.54822335025381 Y116.31472081218274
G1 X37.91878172588832 Y116.53299492385786
G1 X37.25888324873096 Y116.62436548223351
G1 X36.59137055837563 Y116.58375634517766
G1 X35.94670050761421 Y116.41624365482232
G1 X35.34517766497462 Y116.1243654822335
G1 X34.81218274111675 Y115.7233502538071
G1 X34.370558375634516 Y115.22335025380711
G1 X34.03299492385787 Y114.6472081218274
G1 X33.81218274111675 Y114.01522842639594
G1 X33.72081218274112 Y113.35532994923858
G1 X33.76142131979695 Y112.69035532994923
G1 Z-1.5 F100
G1 X33.92893401015228 Y112.04314720812184 F100
G1 X34.22081218274111 Y111.44162436548223
G1 X34.6243654822335 Y110.91116751269035
G1 X35.121827411167516 Y110.46700507614213
G1 X35.69796954314721 Y110.12944162436548
G1 X36.32994923857868 Y109.91116751269035
G1 X36.98984771573604 Y109.81979695431471
G1 X37.65736040609137 Y109.86040609137056
G1 X38.30203045685279 Y110.02791878172589
G1 X38.90355329949239 Y110.31979695431473
G1 X39.43654822335026 Y110.72081218274113
G1 X39.878172588832484 Y111.22081218274111
G1 X40.21573604060913 Y111.79695431472082
G1 X40.434010152284266 Y112.42639593908629
G1 X40.525380710659896 Y113.08883248730965
G1 X40.48730964467005 Y113.75380710659898
G1 X40.319796954314725 Y114.40101522842639
G1 X40.02791878172589 Y115
G1 X39.6243654822335 Y115.53299492385787
G1 X39.1243654822335 Y115.9771573604061
G1 X38.54822335025381 Y116.31472081218274
G1 X37.91878172588832 Y116.53299492385786
G1 X37.25888324873096 Y116.62436548223351
G1 X36.59137055837563 Y116.58375634517766
G1 X35.94670050761421 Y116.41624365482232
G1 X35.34517766497462 Y116.1243654822335
G1 X34.81218274111675 Y115.7233502538071
G1 X34.370558375634516 Y115.22335025380711
G1 X34.03299492385787 Y114.6472081218274
G1 X33.81218274111675 Y114.01522842639594
G1 X33.72081218274112 Y113.35532994923858
G1 X33.76142131979695 Y112.69035532994923
G1 Z-1.8 F100
G1 X33.92893401015228 Y112.04314720812184 F100
G1 X34.22081218274111 Y111.44162436548223
G1 X34.6243654822335 Y110.91116751269035
G1 X35.121827411167516 Y110.46700507614213
G1 X35.69796954314721 Y110.12944162436548
G1 X36.32994923857868 Y109.91116751269035
G1 X36.98984771573604 Y109.81979695431471
G1 X37.65736040609137 Y109.86040609137056
G1 X38.30203045685279 Y110.02791878172589
G1 X38.90355329949239 Y110.31979695431473
G1 X39.43654822335026 Y110.72081218274113
G1 X39.878172588832484 Y111.22081218274111
G1 X40.21573604060913 Y111.79695431472082
G1 X40.434010152284266 Y112.42639593908629
G1 X40.525380710659896 Y113.08883248730965
G1 X40.48730964467005 Y113.75380710659898
G1 X40.319796954314725 Y114.40101522842639
G1 X40.02791878172589 Y115
G1 X39.6243654822335 Y115.53299492385787
G1 X39.1243654822335 Y115.9771573604061
G1 X38.54822335025381 Y116.31472081218274
G1 X37.91878172588832 Y116.53299492385786
G1 X37.25888324873096 Y116.62436548223351
G1 X36.59137055837563 Y116.58375634517766
G1 X35.94670050761421 Y116.41624365482232
G1 X35.34517766497462 Y116.1243654822335
G1 X34.81218274111675 Y115.7233502538071
G1 X34.370558375634516 Y115.22335025380711
G1 X34.03299492385787 Y114.6472081218274
G1 X33.81218274111675 Y114.01522842639594
G1 X33.72081218274112 Y113.35532994923858
G1 X33.76142131979695 Y112.69035532994923
G1 Z-2.1 F100
G1 X33.92893401015228 Y112.04314720812184 F100
G1 X34.22081218274111 Y111.44162436548223
G1 X34.6243654822335 Y110.91116751269035
G1 X35.121827411167516 Y110.46700507614213
G1 X35.69796954314721 Y110.12944162436548
G1 X36.32994923857868 Y109.91116751269035
G1 X36.98984771573604 Y109.81979695431471
G1 X37.65736040609137 Y109.86040609137056
G1 X38.30203045685279 Y110.02791878172589
G1 X38.90355329949239 Y110.31979695431473
G1 X39.43654822335026 Y110.72081218274113
G1 X39.878172588832484 Y111.22081218274111
G1 X40.21573604060913 Y111.79695431472082
G1 X40.434010152284266 Y112.42639593908629
G1 X40.525380710659896 Y113.08883248730965
G1 X40.48730964467005 Y113.75380710659898
G1 X40.319796954314725 Y114.40101522842639
G1 X40.02791878172589 Y115
G1 X39.6243654822335 Y115.53299492385787
G1 X39.1243654822335 Y115.9771573604061
G1 X38.54822335025381 Y116.31472081218274
G1 X37.91878172588832 Y116.53299492385786
G1 X37.25888324873096 Y116.62436548223351
G1 X36.59137055837563 Y116.58375634517766
G1 X35.94670050761421 Y116.41624365482232
G1 X35.34517766497462 Y116.1243654822335
G1 X34.81218274111675 Y115.7233502538071
G1 X34.370558375634516 Y115.22335025380711
G1 X34.03299492385787 Y114.6472081218274
G1 X33.81218274111675 Y114.01522842639594
G1 X33.72081218274112 Y113.35532994923858
G1 X33.76142131979695 Y112.69035532994923
G1 Z-2.4 F100
G1 X33.92893401015228 Y112.04314720812184 F100
G1 X34.22081218274111 Y111.44162436548223
G1 X34.6243654822335 Y110.91116751269035
G1 X35.121827411167516 Y110.46700507614213
G1 X35.69796954314721 Y110.12944162436548
G1 X36.32994923857868 Y109.91116751269035
G1 X36.98984771573604 Y109.81979695431471
G1 X37.65736040609137 Y109.86040609137056
G1 X38.30203045685279 Y110.02791878172589
G1 X38.90355329949239 Y110.31979695431473
G1 X39.43654822335026 Y110.72081218274113
G1 X39.878172588832484 Y111.22081218274111
G1 X40.21573604060913 Y111.79695431472082
G1 X40.434010152284266 Y112.42639593908629
G1 X40.525380710659896 Y113.08883248730965
G1 X40.48730964467005 Y113.75380710659898
G1 X40.319796954314725 Y114.40101522842639
G1 X40.02791878172589 Y115
G1 X39.6243654822335 Y115.53299492385787
G1 X39.1243654822335 Y115.9771573604061
G1 X38.54822335025381 Y116.31472081218274
G1 X37.91878172588832 Y116.53299492385786
G1 X37.25888324873096 Y116.62436548223351
G1 X36.59137055837563 Y116.58375634517766
G1 X35.94670050761421 Y116.41624365482232
G1 X35.34517766497462 Y116.1243654822335
G1 X34.81218274111675 Y115.7233502538071
G1 X34.370558375634516 Y115.22335025380711
G1 X34.03299492385787 Y114.6472081218274
G1 X33.81218274111675 Y114.01522842639594
G1 X33.72081218274112 Y113.35532994923858
G1 X33.76142131979695 Y112.69035532994923
G1 Z-2.7 F100
G1 X33.92893401015228 Y112.04314720812184 F100
G1 X34.22081218274111 Y111.44162436548223
G1 X34.6243654822335 Y110.91116751269035
G1 X35.121827411167516 Y110.46700507614213
G1 X35.69796954314721 Y110.12944162436548
G1 X36.32994923857868 Y109.91116751269035
G1 X36.98984771573604 Y109.81979695431471
G1 X37.65736040609137 Y109.86040609137056
G1 X38.30203045685279 Y110.02791878172589
G1 X38.90355329949239 Y110.31979695431473
G1 X39.43654822335026 Y110.72081218274113
G1 X39.878172588832484 Y111.22081218274111
G1 X40.21573604060913 Y111.79695431472082
G1 X40.434010152284266 Y112.42639593908629
G1 X40.525380710659896 Y113.08883248730965
G1 X40.48730964467005 Y113.75380710659898
G1 X40.319796954314725 Y114.40101522842639
G1 X40.02791878172589 Y115
G1 X39.6243654822335 Y115.53299492385787
G1 X39.1243654822335 Y115.9771573604061
G1 X38.54822335025381 Y116.31472081218274
G1 X37.91878172588832 Y116.53299492385786
G1 X37.25888324873096 Y116.62436548223351
G1 X36.59137055837563 Y116.58375634517766
G1 X35.94670050761421 Y116.41624365482232
G1 X35.34517766497462 Y116.1243654822335
G1 X34.81218274111675 Y115.7233502538071
G1 X34.370558375634516 Y115.22335025380711
G1 X34.03299492385787 Y114.6472081218274
G1 X33.81218274111675 Y114.01522842639594
G1 X33.72081218274112 Y113.35532994923858
G1 X33.76142131979695 Y112.69035532994923
G0 Z5
G0 X134.7284263959391 Y83.7246192893401
G1 Z-0.3 F100
G1 X134.21319796954316 Y83.30203045685279 F100
G1 X133.78934010152284 Y82.78426395939086
G1 X133.4746192893401 Y82.1979695431472
G1 X133.28172588832487 Y81.55837563451776
G1 X133.21573604060913 Y80.89340101522843
G1 X133.28172588832487 Y80.2284263959391
G1 X133.4746192893401 Y79.59137055837563
G1 X133.78934010152284 Y79.00253807106598
G1 X134.21319796954316 Y78.48730964467005
G1 X134.7284263959391 Y78.06345177664974
G1 X135.31725888324874 Y77.748730964467
G1 X135.9543147208122 Y77.55329949238579
G1 X136.61928934010152 Y77.48984771573605
G1 X137.28426395939087 Y77.55329949238579
G1 X137.92385786802032 Y77.748730964467
G1 X138.51269035532997 Y78.06345177664974
G1 X139.0279187817259 Y78.48477157360406
G1 X139.4517766497462 Y79.00253807106598
G1 X139.76649746192894 Y79.59137055837563
G1 X139.95939086294416 Y80.2284263959391
G1 X140.0253807106599 Y80.89340101522843
G1 X139.95939086294416 Y81.55837563451776
G1 X139.76649746192894 Y82.19543147208121
G1 X139.4517766497462 Y82.78426395939086
G1 X139.0279187817259 Y83.30203045685279
G1 X138.51269035532997 Y83.7233502538071
G1 X137.92385786802032 Y84.03807106598984
G1 X137.28426395939087 Y84.23350253807106
G1 X136.61928934010152 Y84.2994923857868
G1 X135.9543147208122 Y84.23350253807106
G1 X135.31725888324874 Y84.03807106598984
G1 X134.7284263959391 Y83.7233502538071
G1 Z-0.6 F100
G1 X134.21319796954316 Y83.30203045685279 F100
G1 X133.78934010152284 Y82.78426395939086
G1 X133.4746192893401 Y82.1979695431472
G1 X133.28172588832487 Y81.55837563451776
G1 X133.21573604060913 Y80.89340101522843
G1 X133.28172588832487 Y80.2284263959391
G1 X133.4746192893401 Y79.59137055837563
G1 X133.78934010152284 Y79.00253807106598
G1 X134.21319796954316 Y78.48730964467005
G1 X134.7284263959391 Y78.06345177664974
G1 X135.31725888324874 Y77.748730964467
G1 X135.9543147208122 Y77.55329949238579
G1 X136.61928934010152 Y77.48984771573605
G1 X137.28426395939087 Y77.55329949238579
G1 X137.92385786802032 Y77.748730964467
G1 X138.51269035532997 Y78.06345177664974
G1 X139.0279187817259 Y78.48477157360406
G1 X139.4517766497462 Y79.00253807106598
G1 X139.76649746192894 Y79.59137055837563
G1 X139.95939086294416 Y80.2284263959391
G1 X140.0253807106599 Y80.89340101522843
G1 X139.95939086294416 Y81.55837563451776
G1 X139.76649746192894 Y82.19543147208121
G1 X139.4517766497462 Y82.78426395939086
G1 X139.0279187817259 Y83.30203045685279
G1 X138.51269035532997 Y83.7233502538071
G1 X137.92385786802032 Y84.03807106598984
G1 X137.28426395939087 Y84.23350253807106
G1 X136.61928934010152 Y84.2994923857868
G1 X135.9543147208122 Y84.23350253807106
G1 X135.31725888324874 Y84.03807106598984
G1 X134.7284263959391 Y83.7233502538071
G1 Z-0.9 F100
G1 X134.21319796954316 Y83.30203045685279 F100
G1 X133.78934010152284 Y82.78426395939086
G1 X133.4746192893401 Y82.1979695431472
G1 X133.28172588832487 Y81.55837563451776
G1 X133.21573604060913 Y80.89340101522843
G1 X133.28172588832487 Y80.2284263959391
G1 X133.4746192893401 Y79.59137055837563
G1 X133.78934010152284 Y79.00253807106598
G1 X134.21319796954316 Y78.48730964467005
G1 X134.7284263959391 Y78.06345177664974
G1 X135.31725888324874 Y77.748730964467
G1 X135.9543147208122 Y77.55329949238579
G1 X136.61928934010152 Y77.48984771573605
G1 X137.28426395939087 Y77.55329949238579
G1 X137.92385786802032 Y77.748730964467
G1 X138.51269035532997 Y78.06345177664974
G1 X139.0279187817259 Y78.48477157360406
G1 X139.4517766497462 Y79.00253807106598
G1 X139.76649746192894 Y79.59137055837563
G1 X139.95939086294416 Y80.2284263959391
G1 X140.0253807106599 Y80.89340101522843
G1 X139.95939086294416 Y81.55837563451776
G1 X139.76649746192894 Y82.19543147208121
G1 X139.4517766497462 Y82.78426395939086
G1 X139.0279187817259 Y83.30203045685279
G1 X138.51269035532997 Y83.7233502538071
G1 X137.92385786802032 Y84.03807106598984
G1 X137.28426395939087 Y84.23350253807106
G1 X136.61928934010152 Y84.2994923857868
G1 X135.9543147208122 Y84.23350253807106
G1 X135.31725888324874 Y84.03807106598984
G1 X134.7284263959391 Y83.7233502538071
G1 Z-1.2 F100
G1 X134.21319796954316 Y83.30203045685279 F100
G1 X133.78934010152284 Y82.78426395939086
G1 X133.4746192893401 Y82.1979695431472
G1 X133.28172588832487 Y81.55837563451776
G1 X133.21573604060913 Y80.89340101522843
G1 X133.28172588832487 Y80.2284263959391
G1 X133.4746192893401 Y79.59137055837563
G1 X133.78934010152284 Y79.00253807106598
G1 X134.21319796954316 Y78.48730964467005
G1 X134.7284263959391 Y78.06345177664974
G1 X135.31725888324874 Y77.748730964467
G1 X135.9543147208122 Y77.55329949238579
G1 X136.61928934010152 Y77.48984771573605
G1 X137.28426395939087 Y77.55329949238579
G1 X137.92385786802032 Y77.748730964467
G1 X138.51269035532997 Y78.06345177664974
G1 X139.0279187817259 Y78.48477157360406
G1 X139.4517766497462 Y79.00253807106598
G1 X139.76649746192894 Y79.59137055837563
G1 X139.95939086294416 Y80.2284263959391
G1 X140.0253807106599 Y80.89340101522843
G1 X139.95939086294416 Y81.55837563451776
G1 X139.76649746192894 Y82.19543147208121
G1 X139.4517766497462 Y82.78426395939086
G1 X139.0279187817259 Y83.30203045685279
G1 X138.51269035532997 Y83.7233502538071
G1 X137.92385786802032 Y84.03807106598984
G1 X137.28426395939087 Y84.23350253807106
G1 X136.61928934010152 Y84.2994923857868
G1 X135.9543147208122 Y84.23350253807106
G1 X135.31725888324874 Y84.03807106598984
G1 X134.7284263959391 Y83.7233502538071
G1 Z-1.5 F100
G1 X134.21319796954316 Y83.30203045685279 F100
G1 X133.78934010152284 Y82.78426395939086
G1 X133.4746192893401 Y82.1979695431472
G1 X133.28172588832487 Y81.55837563451776
G1 X133.21573604060913 Y80.89340101522843
G1 X133.28172588832487 Y80.2284263959391
G1 X133.4746192893401 Y79.59137055837563
G1 X133.78934010152284 Y79.00253807106598
G1 X134.21319796954316 Y78.48730964467005
G1 X134.7284263959391 Y78.06345177664974
G1 X135.31725888324874 Y77.748730964467
G1 X135.9543147208122 Y77.55329949238579
G1 X136.61928934010152 Y77.48984771573605
G1 X137.28426395939087 Y77.55329949238579
G1 X137.92385786802032 Y77.748730964467
G1 X138.51269035532997 Y78.06345177664974
G1 X139.0279187817259 Y78.48477157360406
G1 X139.4517766497462 Y79.00253807106598
G1 X139.76649746192894 Y79.59137055837563
G1 X139.95939086294416 Y80.2284263959391
G1 X140.0253807106599 Y80.89340101522843
G1 X139.95939086294416 Y81.55837563451776
G1 X139.76649746192894 Y82.19543147208121
G1 X139.4517766497462 Y82.78426395939086
G1 X139.0279187817259 Y83.30203045685279
G1 X138.51269035532997 Y83.7233502538071
G1 X137.92385786802032 Y84.03807106598984
G1 X137.28426395939087 Y84.23350253807106
G1 X136.61928934010152 Y84.2994923857868
G1 X135.9543147208122 Y84.23350253807106
G1 X135.31725888324874 Y84.03807106598984
G1 X134.7284263959391 Y83.7233502538071
G1 Z-1.8 F100
G1 X134.21319796954316 Y83.30203045685279 F100
G1 X133.78934010152284 Y82.78426395939086
G1 X133.4746192893401 Y82.1979695431472
G1 X133.28172588832487 Y81.55837563451776
G1 X133.21573604060913 Y80.89340101522843
G1 X133.28172588832487 Y80.2284263959391
G1 X133.4746192893401 Y79.59137055837563
G1 X133.78934010152284 Y79.00253807106598
G1 X134.21319796954316 Y78.48730964467005
G1 X134.7284263959391 Y78.06345177664974
G1 X135.31725888324874 Y77.748730964467
G1 X135.9543147208122 Y77.55329949238579
G1 X136.61928934010152 Y77.48984771573605
G1 X137.28426395939087 Y77.55329949238579
G1 X137.92385786802032 Y77.748730964467
G1 X138.51269035532997 Y78.06345177664974
G1 X139.0279187817259 Y78.48477157360406
G1 X139.4517766497462 Y79.00253807106598
G1 X139.76649746192894 Y79.59137055837563
G1 X139.95939086294416 Y80.2284263959391
G1 X140.0253807106599 Y80.89340101522843
G1 X139.95939086294416 Y81.55837563451776
G1 X139.76649746192894 Y82.19543147208121
G1 X139.4517766497462 Y82.78426395939086
G1 X139.0279187817259 Y83.30203045685279
G1 X138.51269035532997 Y83.7233502538071
G1 X137.92385786802032 Y84.03807106598984
G1 X137.28426395939087 Y84.23350253807106
G1 X136.61928934010152 Y84.2994923857868
G1 X135.9543147208122 Y84.23350253807106
G1 X135.31725888324874 Y84.03807106598984
G1 X134.7284263959391 Y83.7233502538071
G1 Z-2.1 F100
G1 X134.21319796954316 Y83.30203045685279 F100
G1 X133.78934010152284 Y82.78426395939086
G1 X133.4746192893401 Y82.1979695431472
G1 X133.28172588832487 Y81.55837563451776
G1 X133.21573604060913 Y80.89340101522843
G1 X133.28172588832487 Y80.2284263959391
G1 X133.4746192893401 Y79.59137055837563
G1 X133.78934010152284 Y79.00253807106598
G1 X134.21319796954316 Y78.48730964467005
G1 X134.7284263959391 Y78.06345177664974
G1 X135.31725888324874 Y77.748730964467
G1 X135.9543147208122 Y77.55329949238579
G1 X136.61928934010152 Y77.48984771573605
G1 X137.28426395939087 Y77.55329949238579
G1 X137.92385786802032 Y77.748730964467
G1 X138.51269035532997 Y78.06345177664974
G1 X139.0279187817259 Y78.48477157360406
G1 X139.4517766497462 Y79.00253807106598
G1 X139.76649746192894 Y79.59137055837563
G1 X139.95939086294416 Y80.2284263959391
G1 X140.0253807106599 Y80.89340101522843
G1 X139.95939086294416 Y81.55837563451776
G1 X139.76649746192894 Y82.19543147208121
G1 X139.4517766497462 Y82.78426395939086
G1 X139.0279187817259 Y83.30203045685279
G1 X138.51269035532997 Y83.7233502538071
G1 X137.92385786802032 Y84.03807106598984
G1 X137.28426395939087 Y84.23350253807106
G1 X136.61928934010152 Y84.2994923857868
G1 X135.9543147208122 Y84.23350253807106
G1 X135.31725888324874 Y84.03807106598984
G1 X134.7284263959391 Y83.7233502538071
G1 Z-2.4 F100
G1 X134.21319796954316 Y83.30203045685279 F100
G1 X133.78934010152284 Y82.78426395939086
G1 X133.4746192893401 Y82.1979695431472
G1 X133.28172588832487 Y81.55837563451776
G1 X133.21573604060913 Y80.89340101522843
G1 X133.28172588832487 Y80.2284263959391
G1 X133.4746192893401 Y79.59137055837563
G1 X133.78934010152284 Y79.00253807106598
G1 X134.21319796954316 Y78.48730964467005
G1 X134.7284263959391 Y78.06345177664974
G1 X135.31725888324874 Y77.748730964467
G1 X135.9543147208122 Y77.55329949238579
G1 X136.61928934010152 Y77.48984771573605
G1 X137.28426395939087 Y77.55329949238579
G1 X137.92385786802032 Y77.748730964467
G1 X138.51269035532997 Y78.06345177664974
G1 X139.0279187817259 Y78.48477157360406
G1 X139.4517766497462 Y79.00253807106598
G1 X139.76649746192894 Y79.59137055837563
G1 X139.95939086294416 Y80.2284263959391
G1 X140.0253807106599 Y80.89340101522843
G1 X139.95939086294416 Y81.55837563451776
G1 X139.76649746192894 Y82.19543147208121
G1 X139.4517766497462 Y82.78426395939086
G1 X139.0279187817259 Y83.30203045685279
G1 X138.51269035532997 Y83.7233502538071
G1 X137.92385786802032 Y84.03807106598984
G1 X137.28426395939087 Y84.23350253807106
G1 X136.61928934010152 Y84.2994923857868
G1 X135.9543147208122 Y84.23350253807106
G1 X135.31725888324874 Y84.03807106598984
G1 X134.7284263959391 Y83.7233502538071
G1 Z-2.7 F100
G1 X134.21319796954316 Y83.30203045685279 F100
G1 X133.78934010152284 Y82.78426395939086
G1 X133.4746192893401 Y82.1979695431472
G1 X133.28172588832487 Y81.55837563451776
G1 X133.21573604060913 Y80.89340101522843
G1 X133.28172588832487 Y80.2284263959391
G1 X133.4746192893401 Y79.59137055837563
G1 X133.78934010152284 Y79.00253807106598
G1 X134.21319796954316 Y78.48730964467005
G1 X134.7284263959391 Y78.06345177664974
G1 X135.31725888324874 Y77.748730964467
G1 X135.9543147208122 Y77.55329949238579
G1 X136.61928934010152 Y77.48984771573605
G1 X137.28426395939087 Y77.55329949238579
G1 X137.92385786802032 Y77.748730964467
G1 X138.51269035532997 Y78.06345177664974
G1 X139.0279187817259 Y78.48477157360406
G1 X139.4517766497462 Y79.00253807106598
G1 X139.76649746192894 Y79.59137055837563
G1 X139.95939086294416 Y80.2284263959391
G1 X140.0253807106599 Y80.89340101522843
G1 X139.95939086294416 Y81.55837563451776
G1 X139.76649746192894 Y82.19543147208121
G1 X139.4517766497462 Y82.78426395939086
G1 X139.0279187817259 Y83.30203045685279
G1 X138.51269035532997 Y83.7233502538071
G1 X137.92385786802032 Y84.03807106598984
G1 X137.28426395939087 Y84.23350253807106
G1 X136.61928934010152 Y84.2994923857868
G1 X135.9543147208122 Y84.23350253807106
G1 X135.31725888324874 Y84.03807106598984
G1 X134.7284263959391 Y83.7233502538071
G0 Z5
G0 X101.89289340101523 Y27.660659898477157
G1 Z-0.3 F100
G1 X102.01015228426397 Y28.317258883248734 F100
G1 X101.99746192893402 Y28.984771573604064
G1 X101.85532994923858 Y29.63705583756345
G1 X101.58629441624365 Y30.248730964467004
G1 X101.20558375634518 Y30.796954314720814
G1 X100.7233502538071 Y31.258883248730967
G1 X100.16243654822334 Y31.619289340101524
G1 X99.54060913705584 Y31.86294416243655
G1 X98.88324873096448 Y31.97969543147208
G1 X98.21573604060914 Y31.967005076142133
G1 X97.56345177664974 Y31.822335025380713
G1 X96.9517766497462 Y31.555837563451774
G1 X96.40355329949239 Y31.1751269035533
G1 X95.94162436548224 Y30.69289340101523
G1 X95.58121827411168 Y30.13197969543147
G1 X95.34010152284264 Y29.51015228426396
G1 X95.22081218274111 Y28.85279187817259
G1 X95.23350253807106 Y28.185279187817258
G1 X95.3781725888325 Y27.53299492385787
G1 X95.64467005076142 Y26.921319796954315
G1 X96.02791878172589 Y26.373096446700508
G1 X96.50761421319797 Y25.911167512690355
G1 X97.07106598984772 Y25.550761421319798
G1 X97.69289340101523 Y25.30964467005076
G1 X98.3477157360406 Y25.190355329949238
G1 X99.01522842639594 Y25.20304568527919
G1 X99.66751269035534 Y25.34771573604061
G1 X100.27918781725889 Y25.614213197969544
G1 X100.82741116751268 Y25.99746192893401
G1 X101.28934010152284 Y26.477157360406093
G1 X101.6497461928934 Y27.04060913705584
G1 X101.89340101522843 Y27.659898477157363
G1 Z-0.6 F100
G1 X102.01015228426397 Y28.317258883248734 F100
G1 X101.99746192893402 Y28.984771573604064
G1 X101.85532994923858 Y29.63705583756345
G1 X101.58629441624365 Y30.248730964467004
G1 X101.20558375634518 Y30.796954314720814
G1 X100.7233502538071 Y31.258883248730967
G1 X100.16243654822334 Y31.619289340101524
G1 X99.54060913705584 Y31.86294416243655
G1 X98.88324873096448 Y31.97969543147208
G1 X98.21573604060914 Y31.967005076142133
G1 X97.56345177664974 Y31.822335025380713
G1 X96.9517766497462 Y31.555837563451774
G1 X96.40355329949239 Y31.1751269035533
G1 X95.94162436548224 Y30.69289340101523
G1 X95.58121827411168 Y30.13197969543147
G1 X95.34010152284264 Y29.51015228426396
G1 X95.22081218274111 Y28.85279187817259
G1 X95.23350253807106 Y28.185279187817258
G1 X95.3781725888325 Y27.53299492385787
G1 X95.64467005076142 Y26.921319796954315
G1 X96.02791878172589 Y26.373096446700508
G1 X96.50761421319797 Y25.911167512690355
G1 X97.07106598984772 Y25.550761421319798
G1 X97.69289340101523 Y25.30964467005076
G1 X98.3477157360406 Y25.190355329949238
G1 X99.01522842639594 Y25.20304568527919
G1 X99.66751269035534 Y25.34771573604061
G1 X100.27918781725889 Y25.614213197969544
G1 X100.82741116751268 Y25.99746192893401
G1 X101.28934010152284 Y26.477157360406093
G1 X101.6497461928934 Y27.04060913705584
G1 X101.89340101522843 Y27.659898477157363
G1 Z-0.9 F100
G1 X102.01015228426397 Y28.317258883248734 F100
G1 X101.99746192893402 Y28.984771573604064
G1 X101.85532994923858 Y29.63705583756345
G1 X101.58629441624365 Y30.248730964467004
G1 X101.20558375634518 Y30.796954314720814
G1 X100.7233502538071 Y31.258883248730967
G1 X100.16243654822334 Y31.619289340101524
G1 X99.54060913705584 Y31.86294416243655
G1 X98.88324873096448 Y31.97969543147208
G1 X98.21573604060914 Y31.967005076142133
G1 X97.56345177664974 Y31.822335025380713
G1 X96.9517766497462 Y31.555837563451774
G1 X96.40355329949239 Y31.1751269035533
G1 X95.94162436548224 Y30.69289340101523
G1 X95.58121827411168 Y30.13197969543147
G1 X95.34010152284264 Y29.51015228426396
G1 X95.22081218274111 Y28.85279187817259
G1 X95.23350253807106 Y28.185279187817258
G1 X95.3781725888325 Y27.53299492385787
G1 X95.64467005076142 Y26.921319796954315
G1 X96.02791878172589 Y26.373096446700508
G1 X96.50761421319797 Y25.911167512690355
G1 X97.07106598984772 Y25.550761421319798
G1 X97.69289340101523 Y25.30964467005076
G1 X98.3477157360406 Y25.190355329949238
G1 X99.01522842639594 Y25.20304568527919
G1 X99.66751269035534 Y25.34771573604061
G1 X100.27918781725889 Y25.614213197969544
G1 X100.82741116751268 Y25.99746192893401
G1 X101.28934010152284 Y26.477157360406093
G1 X101.6497461928934 Y27.04060913705584
G1 X101.89340101522843 Y27.659898477157363
G1 Z-1.2 F100
G1 X102.01015228426397 Y28.317258883248734 F100
G1 X101.99746192893402 Y28.984771573604064
G1 X101.85532994923858 Y29.63705583756345
G1 X101.58629441624365 Y30.248730964467004
G1 X101.20558375634518 Y30.796954314720814
G1 X100.7233502538071 Y31.258883248730967
G1 X100.16243654822334 Y31.619289340101524
G1 X99.54060913705584 Y31.86294416243655
G1 X98.88324873096448 Y31.97969543147208
G1 X98.21573604060914 Y31.967005076142133
G1 X97.56345177664974 Y31.822335025380713
G1 X96.9517766497462 Y31.555837563451774
G1 X96.40355329949239 Y31.1751269035533
G1 X95.94162436548224 Y30.69289340101523
G1 X95.58121827411168 Y30.13197969543147
G1 X95.34010152284264 Y29.51015228426396
G1 X95.22081218274111 Y28.85279187817259
G1 X95.23350253807106 Y28.185279187817258
G1 X95.3781725888325 Y27.53299492385787
G1 X95.64467005076142 Y26.921319796954315
G1 X96.02791878172589 Y26.373096446700508
G1 X96.50761421319797 Y25.911167512690355
G1 X97.07106598984772 Y25.550761421319798
G1 X97.69289340101523 Y25.30964467005076
G1 X98.3477157360406 Y25.190355329949238
G1 X99.01522842639594 Y25.20304568527919
G1 X99.66751269035534 Y25.34771573604061
G1 X100.27918781725889 Y25.614213197969544
G1 X100.82741116751268 Y25.99746192893401
G1 X101.28934010152284 Y26.477157360406093
G1 X101.6497461928934 Y27.04060913705584
G1 X101.89340101522843 Y27.659898477157363
G1 Z-1.5 F100
G1 X102.01015228426397 Y28.317258883248734 F100
G1 X101.99746192893402 Y28.984771573604064
G1 X101.85532994923858 Y29.63705583756345
G1 X101.58629441624365 Y30.248730964467004
G1 X101.20558375634518 Y30.796954314720814
G1 X100.7233502538071 Y31.258883248730967
G1 X100.16243654822334 Y31.619289340101524
G1 X99.54060913705584 Y31.86294416243655
G1 X98.88324873096448 Y31.97969543147208
G1 X98.21573604060914 Y31.967005076142133
G1 X97.56345177664974 Y31.822335025380713
G1 X96.9517766497462 Y31.555837563451774
G1 X96.40355329949239 Y31.1751269035533
G1 X95.94162436548224 Y30.69289340101523
G1 X95.58121827411168 Y30.13197969543147
G1 X95.34010152284264 Y29.51015228426396
G1 X95.22081218274111 Y28.85279187817259
G1 X95.23350253807106 Y28.185279187817258
G1 X95.3781725888325 Y27.53299492385787
G1 X95.64467005076142 Y26.921319796954315
G1 X96.02791878172589 Y26.373096446700508
G1 X96.50761421319797 Y25.911167512690355
G1 X97.07106598984772 Y25.550761421319798
G1 X97.69289340101523 Y25.30964467005076
G1 X98.3477157360406 Y25.190355329949238
G1 X99.01522842639594 Y25.20304568527919
G1 X99.66751269035534 Y25.34771573604061
G1 X100.27918781725889 Y25.614213197969544
G1 X100.82741116751268 Y25.99746192893401
G1 X101.28934010152284 Y26.477157360406093
G1 X101.6497461928934 Y27.04060913705584
G1 X101.89340101522843 Y27.659898477157363
G1 Z-1.8 F100
G1 X102.01015228426397 Y28.317258883248734 F100
G1 X101.99746192893402 Y28.984771573604064
G1 X101.85532994923858 Y29.63705583756345
G1 X101.58629441624365 Y30.248730964467004
G1 X101.20558375634518 Y30.796954314720814
G1 X100.7233502538071 Y31.258883248730967
G1 X100.16243654822334 Y31.619289340101524
G1 X99.54060913705584 Y31.86294416243655
G1 X98.88324873096448 Y31.97969543147208
G1 X98.21573604060914 Y31.967005076142133
G1 X97.56345177664974 Y31.822335025380713
G1 X96.9517766497462 Y31.555837563451774
G1 X96.40355329949239 Y31.1751269035533
G1 X95.94162436548224 Y30.69289340101523
G1 X95.58121827411168 Y30.13197969543147
G1 X95.34010152284264 Y29.51015228426396
G1 X95.22081218274111 Y28.85279187817259
G1 X95.23350253807106 Y28.185279187817258
G1 X95.3781725888325 Y27.53299492385787
G1 X95.64467005076142 Y26.921319796954315
G1 X96.02791878172589 Y26.373096446700508
G1 X96.50761421319797 Y25.911167512690355
G1 X97.07106598984772 Y25.550761421319798
G1 X97.69289340101523 Y25.30964467005076
G1 X98.3477157360406 Y25.190355329949238
G1 X99.01522842639594 Y25.20304568527919
G1 X99.66751269035534 Y25.34771573604061
G1 X100.27918781725889 Y25.614213197969544
G1 X100.82741116751268 Y25.99746192893401
G1 X101.28934010152284 Y26.477157360406093
G1 X101.6497461928934 Y27.04060913705584
G1 X101.89340101522843 Y27.659898477157363
G1 Z-2.1 F100
G1 X102.01015228426397 Y28.317258883248734 F100
G1 X101.99746192893402 Y28.984771573604064
G1 X101.85532994923858 Y29.63705583756345
G1 X101.58629441624365 Y30.248730964467004
G1 X101.20558375634518 Y30.796954314720814
G1 X100.7233502538071 Y31.258883248730967
G1 X100.16243654822334 Y31.619289340101524
G1 X99.54060913705584 Y31.86294416243655
G1 X98.88324873096448 Y31.97969543147208
G1 X98.21573604060914 Y31.967005076142133
G1 X97.56345177664974 Y31.822335025380713
G1 X96.9517766497462 Y31.555837563451774
G1 X96.40355329949239 Y31.1751269035533
G1 X95.94162436548224 Y30.69289340101523
G1 X95.58121827411168 Y30.13197969543147
G1 X95.34010152284264 Y29.51015228426396
G1 X95.22081218274111 Y28.85279187817259
G1 X95.23350253807106 Y28.185279187817258
G1 X95.3781725888325 Y27.53299492385787
G1 X95.64467005076142 Y26.921319796954315
G1 X96.02791878172589 Y26.373096446700508
G1 X96.50761421319797 Y25.911167512690355
G1 X97.07106598984772 Y25.550761421319798
G1 X97.69289340101523 Y25.30964467005076
G1 X98.3477157360406 Y25.190355329949238
G1 X99.01522842639594 Y25.20304568527919
G1 X99.66751269035534 Y25.34771573604061
G1 X100.27918781725889 Y25.614213197969544
G1 X100.82741116751268 Y25.99746192893401
G1 X101.28934010152284 Y26.477157360406093
G1 X101.6497461928934 Y27.04060913705584
G1 X101.89340101522843 Y27.659898477157363
G1 Z-2.4 F100
G1 X102.01015228426397 Y28.317258883248734 F100
G1 X101.99746192893402 Y28.984771573604064
G1 X101.85532994923858 Y29.63705583756345
G1 X101.58629441624365 Y30.248730964467004
G1 X101.20558375634518 Y30.796954314720814
G1 X100.7233502538071 Y31.258883248730967
G1 X100.16243654822334 Y31.619289340101524
G1 X99.54060913705584 Y31.86294416243655
G1 X98.88324873096448 Y31.97969543147208
G1 X98.21573604060914 Y31.967005076142133
G1 X97.56345177664974 Y31.822335025380713
G1 X96.9517766497462 Y31.555837563451774
G1 X96.40355329949239 Y31.1751269035533
G1 X95.94162436548224 Y30.69289340101523
G1 X95.58121827411168 Y30.13197969543147
G1 X95.34010152284264 Y29.51015228426396
G1 X95.22081218274111 Y28.85279187817259
G1 X95.23350253807106 Y28.185279187817258
G1 X95.3781725888325 Y27.53299492385787
G1 X95.64467005076142 Y26.921319796954315
G1 X96.02791878172589 Y26.373096446700508
G1 X96.50761421319797 Y25.911167512690355
G1 X97.07106598984772 Y25.550761421319798
G1 X97.69289340101523 Y25.30964467005076
G1 X98.3477157360406 Y25.190355329949238
G1 X99.01522842639594 Y25.20304568527919
G1 X99.66751269035534 Y25.34771573604061
G1 X100.27918781725889 Y25.614213197969544
G1 X100.82741116751268 Y25.99746192893401
G1 X101.28934010152284 Y26.477157360406093
G1 X101.6497461928934 Y27.04060913705584
G1 X101.89340101522843 Y27.659898477157363
G1 Z-2.7 F100
G1 X102.01015228426397 Y28.317258883248734 F100
G1 X101.99746192893402 Y28.984771573604064
G1 X101.85532994923858 Y29.63705583756345
G1 X101.58629441624365 Y30.248730964467004
G1 X101.20558375634518 Y30.796954314720814
G1 X100.7233502538071 Y31.258883248730967
G1 X100.16243654822334 Y31.619289340101524
G1 X99.54060913705584 Y31.86294416243655
G1 X98.88324873096448 Y31.97969543147208
G1 X98.21573604060914 Y31.967005076142133
G1 X97.56345177664974 Y31.822335025380713
G1 X96.9517766497462 Y31.555837563451774
G1 X96.40355329949239 Y31.1751269035533
G1 X95.94162436548224 Y30.69289340101523
G1 X95.58121827411168 Y30.13197969543147
G1 X95.34010152284264 Y29.51015228426396
G1 X95.22081218274111 Y28.85279187817259
G1 X95.23350253807106 Y28.185279187817258
G1 X95.3781725888325 Y27.53299492385787
G1 X95.64467005076142 Y26.921319796954315
G1 X96.02791878172589 Y26.373096446700508
G1 X96.50761421319797 Y25.911167512690355
G1 X97.07106598984772 Y25.550761421319798
G1 X97.69289340101523 Y25.30964467005076
G1 X98.3477157360406 Y25.190355329949238
G1 X99.01522842639594 Y25.20304568527919
G1 X99.66751269035534 Y25.34771573604061
G1 X100.27918781725889 Y25.614213197969544
G1 X100.82741116751268 Y25.99746192893401
G1 X101.28934010152284 Y26.477157360406093
G1 X101.6497461928934 Y27.04060913705584
G1 X101.89340101522843 Y27.659898477157363
G0 Z5
G0 X38.5494923857868 Y45.473350253807105
G1 Z-0.3 F100
G1 X39.1243654822335 Y45.80964467005076 F100
G1 X39.6243654822335 Y46.253807106598984
G1 X40.02791878172589 Y46.786802030456855
G1 X40.317258883248726 Y47.38578680203045
G1 X40.48730964467005 Y48.03299492385787
G1 X40.525380710659896 Y48.69796954314721
G1 X40.434010152284266 Y49.36040609137056
G1 X40.21573604060913 Y49.98984771573604
G1 X39.878172588832484 Y50.56598984771574
G1 X39.43401015228426 Y51.065989847715734
G1 X38.90355329949239 Y51.46954314720812
G1 X38.30203045685279 Y51.75888324873096
G1 X37.65736040609137 Y51.92893401015229
G1 X36.98984771573604 Y51.96700507614213
G1 X36.32994923857868 Y51.8756345177665
G1 X35.69796954314721 Y51.65736040609137
G1 X35.121827411167516 Y51.31979695431472
G1 X34.6243654822335 Y50.8756345177665
G1 X34.22081218274111 Y50.34517766497462
G1 X33.92893401015228 Y49.743654822335024
G1 X33.76142131979695 Y49.09898477157361
G1 X33.72081218274112 Y48.431472081218274
G1 X33.81218274111675 Y47.77157360406092
G1 X34.03299492385787 Y47.139593908629436
G1 X34.370558375634516 Y46.56345177664974
G1 X34.81218274111675 Y46.065989847715734
G1 X35.34517766497462 Y45.662436548223354
G1 X35.94670050761421 Y45.370558375634516
G1 X36.59137055837563 Y45.203045685279186
G1 X37.25888324873096 Y45.162436548223354
G1 X37.91878172588832 Y45.253807106598984
G1 X38.5507614213198 Y45.472081218274106
G1 Z-0.6 F100
G1 X39.1243654822335 Y45.80964467005076 F100
G1 X39.6243654822335 Y46.253807106598984
G1 X40.02791878172589 Y46.786802030456855
G1 X40.317258883248726 Y47.38578680203045
G1 X40.48730964467005 Y48.03299492385787
G1 X40.525380710659896 Y48.69796954314721
G1 X40.434010152284266 Y49.36040609137056
G1 X40.21573604060913 Y49.98984771573604
G1 X39.878172588832484 Y50.56598984771574
G1 X39.43401015228426 Y51.065989847715734
G1 X38.90355329949239 Y51.46954314720812
G1 X38.30203045685279 Y51.75888324873096
G1 X37.65736040609137 Y51.92893401015229
G1 X36.98984771573604 Y51.96700507614213
G1 X36.32994923857868 Y51.8756345177665
G1 X35.69796954314721 Y51.65736040609137
G1 X35.121827411167516 Y51.31979695431472
G1 X34.6243654822335 Y50.8756345177665
G1 X34.22081218274111 Y50.34517766497462
G1 X33.92893401015228 Y49.743654822335024
G1 X33.76142131979695 Y49.09898477157361
G1 X33.72081218274112 Y48.431472081218274
G1 X33.81218274111675 Y47.77157360406092
G1 X34.03299492385787 Y47.139593908629436
G1 X34.370558375634516 Y46.56345177664974
G1 X34.81218274111675 Y46.065989847715734
G1 X35.34517766497462 Y45.662436548223354
G1 X35.94670050761421 Y45.370558375634516
G1 X36.59137055837563 Y45.203045685279186
G1 X37.25888324873096 Y45.162436548223354
G1 X37.91878172588832 Y45.253807106598984
G1 X38.5507614213198 Y45.472081218274106
G1 Z-0.9 F100
G1 X39.1243654822335 Y45.80964467005076 F100
G1 X39.6243654822335 Y46.253807106598984
G1 X40.02791878172589 Y46.786802030456855
G1 X40.317258883248726 Y47.38578680203045
G1 X40.48730964467005 Y48.03299492385787
G1 X40.525380710659896 Y48.69796954314721
G1 X40.434010152284266 Y49.36040609137056
G1 X40.21573604060913 Y49.98984771573604
G1 X39.878172588832484 Y50.56598984771574
G1 X39.43401015228426 Y51.065989847715734
G1 X38.90355329949239 Y51.46954314720812
G1 X38.30203045685279 Y51.75888324873096
G1 X37.65736040609137 Y51.92893401015229
G1 X36.98984771573604 Y51.96700507614213
G1 X36.32994923857868 Y51.8756345177665
G1 X35.69796954314721 Y51.65736040609137
G1 X35.121827411167516 Y51.31979695431472
G1 X34.6243654822335 Y50.8756345177665
G1 X34.22081218274111 Y50.34517766497462
G1 X33.92893401015228 Y49.743654822335024
G1 X33.76142131979695 Y49.09898477157361
G1 X33.72081218274112 Y48.431472081218274
G1 X33.81218274111675 Y47.77157360406092
G1 X34.03299492385787 Y47.139593908629436
G1 X34.370558375634516 Y46.56345177664974
G1 X34.81218274111675 Y46.065989847715734
G1 X35.34517766497462 Y45.662436548223354
G1 X35.94670050761421 Y45.370558375634516
G1 X36.59137055837563 Y45.203045685279186
G1 X37.25888324873096 Y45.162436548223354
G1 X37.91878172588832 Y45.253807106598984
G1 X38.5507614213198 Y45.472081218274106
G1 Z-1.2 F100
G1 X39.1243654822335 Y45.80964467005076 F100
G1 X39.6243654822335 Y46.253807106598984
G1 X40.02791878172589 Y46.786802030456855
G1 X40.317258883248726 Y47.38578680203045
G1 X40.48730964467005 Y48.03299492385787
G1 X40.525380710659896 Y48.69796954314721
G1 X40.434010152284266 Y49.36040609137056
G1 X40.21573604060913 Y49.98984771573604
G1 X39.878172588832484 Y50.56598984771574
G1 X39.43401015228426 Y51.065989847715734
G1 X38.90355329949239 Y51.46954314720812
G1 X38.30203045685279 Y51.75888324873096
G1 X37.65736040609137 Y51.92893401015229
G1 X36.98984771573604 Y51.96700507614213
G1 X36.32994923857868 Y51.8756345177665
G1 X35.69796954314721 Y51.65736040609137
G1 X35.121827411167516 Y51.31979695431472
G1 X34.6243654822335 Y50.8756345177665
G1 X34.22081218274111 Y50.34517766497462
G1 X33.92893401015228 Y49.743654822335024
G1 X33.76142131979695 Y49.09898477157361
G1 X33.72081218274112 Y48.431472081218274
G1 X33.81218274111675 Y47.77157360406092
G1 X34.03299492385787 Y47.139593908629436
G1 X34.370558375634516 Y46.56345177664974
G1 X34.81218274111675 Y46.065989847715734
G1 X35.34517766497462 Y45.662436548223354
G1 X35.94670050761421 Y45.370558375634516
G1 X36.59137055837563 Y45.203045685279186
G1 X37.25888324873096 Y45.162436548223354
G1 X37.91878172588832 Y45.253807106598984
G1 X38.5507614213198 Y45.472081218274106
G1 Z-1.5 F100
G1 X39.1243654822335 Y45.80964467005076 F100
G1 X39.6243654822335 Y46.253807106598984
G1 X40.02791878172589 Y46.786802030456855
G1 X40.317258883248726 Y47.38578680203045
G1 X40.48730964467005 Y48.03299492385787
G1 X40.525380710659896 Y48.69796954314721
G1 X40.434010152284266 Y49.36040609137056
G1 X40.21573604060913 Y49.98984771573604
G1 X39.878172588832484 Y50.56598984771574
G1 X39.43401015228426 Y51.065989847715734
G1 X38.90355329949239 Y51.46954314720812
G1 X38.30203045685279 Y51.75888324873096
G1 X37.65736040609137 Y51.92893401015229
G1 X36.98984771573604 Y51.96700507614213
G1 X36.32994923857868 Y51.8756345177665
G1 X35.69796954314721 Y51.65736040609137
G1 X35.121827411167516 Y51.31979695431472
G1 X34.6243654822335 Y50.8756345177665
G1 X34.22081218274111 Y50.34517766497462
G1 X33.92893401015228 Y49.743654822335024
G1 X33.76142131979695 Y49.09898477157361
G1 X33.72081218274112 Y48.431472081218274
G1 X33.81218274111675 Y47.77157360406092
G1 X34.03299492385787 Y47.139593908629436
G1 X34.370558375634516 Y46.56345177664974
G1 X34.81218274111675 Y46.065989847715734
G1 X35.34517766497462 Y45.662436548223354
G1 X35.94670050761421 Y45.370558375634516
G1 X36.59137055837563 Y45.203045685279186
G1 X37.25888324873096 Y45.162436548223354
G1 X37.91878172588832 Y45.253807106598984
G1 X38.5507614213198 Y45.472081218274106
G1 Z-1.8 F100
G1 X39.1243654822335 Y45.80964467005076 F100
G1 X39.6243654822335 Y46.253807106598984
G1 X40.02791878172589 Y46.786802030456855
G1 X40.317258883248726 Y47.38578680203045
G1 X40.48730964467005 Y48.03299492385787
G1 X40.525380710659896 Y48.69796954314721
G1 X40.434010152284266 Y49.36040609137056
G1 X40.21573604060913 Y49.98984771573604
G1 X39.878172588832484 Y50.56598984771574
G1 X39.43401015228426 Y51.065989847715734
G1 X38.90355329949239 Y51.46954314720812
G1 X38.30203045685279 Y51.75888324873096
G1 X37.65736040609137 Y51.92893401015229
G1 X36.98984771573604 Y51.96700507614213
G1 X36.32994923857868 Y51.8756345177665
G1 X35.69796954314721 Y51.65736040609137
G1 X35.121827411167516 Y51.31979695431472
G1 X34.6243654822335 Y50.8756345177665
G1 X34.22081218274111 Y50.34517766497462
G1 X33.92893401015228 Y49.743654822335024
G1 X33.76142131979695 Y49.09898477157361
G1 X33.72081218274112 Y48.431472081218274
G1 X33.81218274111675 Y47.77157360406092
G1 X34.03299492385787 Y47.139593908629436
G1 X34.370558375634516 Y46.56345177664974
G1 X34.81218274111675 Y46.065989847715734
G1 X35.34517766497462 Y45.662436548223354
G1 X35.94670050761421 Y45.370558375634516
G1 X36.59137055837563 Y45.203045685279186
G1 X37.25888324873096 Y45.162436548223354
G1 X37.91878172588832 Y45.253807106598984
G1 X38.5507614213198 Y45.472081218274106
G1 Z-2.1 F100
G1 X39.1243654822335 Y45.80964467005076 F100
G1 X39.6243654822335 Y46.253807106598984
G1 X40.02791878172589 Y46.786802030456855
G1 X40.317258883248726 Y47.38578680203045
G1 X40.48730964467005 Y48.03299492385787
G1 X40.525380710659896 Y48.69796954314721
G1 X40.434010152284266 Y49.36040609137056
G1 X40.21573604060913 Y49.98984771573604
G1 X39.878172588832484 Y50.56598984771574
G1 X39.43401015228426 Y51.065989847715734
G1 X38.90355329949239 Y51.46954314720812
G1 X38.30203045685279 Y51.75888324873096
G1 X37.65736040609137 Y51.92893401015229
G1 X36.98984771573604 Y51.96700507614213
G1 X36.32994923857868 Y51.8756345177665
G1 X35.69796954314721 Y51.65736040609137
G1 X35.121827411167516 Y51.31979695431472
G1 X34.6243654822335 Y50.8756345177665
G1 X34.22081218274111 Y50.34517766497462
G1 X33.92893401015228 Y49.743654822335024
G1 X33.76142131979695 Y49.09898477157361
G1 X33.72081218274112 Y48.431472081218274
G1 X33.81218274111675 Y47.77157360406092
G1 X34.03299492385787 Y47.139593908629436
G1 X34.370558375634516 Y46.56345177664974
G1 X34.81218274111675 Y46.065989847715734
G1 X35.34517766497462 Y45.662436548223354
G1 X35.94670050761421 Y45.370558375634516
G1 X36.59137055837563 Y45.203045685279186
G1 X37.25888324873096 Y45.162436548223354
G1 X37.91878172588832 Y45.253807106598984
G1 X38.5507614213198 Y45.472081218274106
G1 Z-2.4 F100
G1 X39.1243654822335 Y45.80964467005076 F100
G1 X39.6243654822335 Y46.253807106598984
G1 X40.02791878172589 Y46.786802030456855
G1 X40.317258883248726 Y47.38578680203045
G1 X40.48730964467005 Y48.03299492385787
G1 X40.525380710659896 Y48.69796954314721
G1 X40.434010152284266 Y49.36040609137056
G1 X40.21573604060913 Y49.98984771573604
G1 X39.878172588832484 Y50.56598984771574
G1 X39.43401015228426 Y51.065989847715734
G1 X38.90355329949239 Y51.46954314720812
G1 X38.30203045685279 Y51.75888324873096
G1 X37.65736040609137 Y51.92893401015229
G1 X36.98984771573604 Y51.96700507614213
G1 X36.32994923857868 Y51.8756345177665
G1 X35.69796954314721 Y51.65736040609137
G1 X35.121827411167516 Y51.31979695431472
G1 X34.6243654822335 Y50.8756345177665
G1 X34.22081218274111 Y50.34517766497462
G1 X33.92893401015228 Y49.743654822335024
G1 X33.76142131979695 Y49.09898477157361
G1 X33.72081218274112 Y48.431472081218274
G1 X33.81218274111675 Y47.77157360406092
G1 X34.03299492385787 Y47.139593908629436
G1 X34.370558375634516 Y46.56345177664974
G1 X34.81218274111675 Y46.065989847715734
G1 X35.34517766497462 Y45.662436548223354
G1 X35.94670050761421 Y45.370558375634516
G1 X36.59137055837563 Y45.203045685279186
G1 X37.25888324873096 Y45.162436548223354
G1 X37.91878172588832 Y45.253807106598984
G1 X38.5507614213198 Y45.472081218274106
G1 Z-2.7 F100
G1 X39.1243654822335 Y45.80964467005076 F100
G1 X39.6243654822335 Y46.253807106598984
G1 X40.02791878172589 Y46.786802030456855
G1 X40.317258883248726 Y47.38578680203045
G1 X40.48730964467005 Y48.03299492385787
G1 X40.525380710659896 Y48.69796954314721
G1 X40.434010152284266 Y49.36040609137056
G1 X40.21573604060913 Y49.98984771573604
G1 X39.878172588832484 Y50.56598984771574
G1 X39.43401015228426 Y51.065989847715734
G1 X38.90355329949239 Y51.46954314720812
G1 X38.30203045685279 Y51.75888324873096
G1 X37.65736040609137 Y51.92893401015229
G1 X36.98984771573604 Y51.96700507614213
G1 X36.32994923857868 Y51.8756345177665
G1 X35.69796954314721 Y51.65736040609137
G1 X35.121827411167516 Y51.31979695431472
G1 X34.6243654822335 Y50.8756345177665
G1 X34.22081218274111 Y50.34517766497462
G1 X33.92893401015228 Y49.743654822335024
G1 X33.76142131979695 Y49.09898477157361
G1 X33.72081218274112 Y48.431472081218274
G1 X33.81218274111675 Y47.77157360406092
G1 X34.03299492385787 Y47.139593908629436
G1 X34.370558375634516 Y46.56345177664974
G1 X34.81218274111675 Y46.065989847715734
G1 X35.34517766497462 Y45.662436548223354
G1 X35.94670050761421 Y45.370558375634516
G1 X36.59137055837563 Y45.203045685279186
G1 X37.25888324873096 Y45.162436548223354
G1 X37.91878172588832 Y45.253807106598984
G1 X38.5507614213198 Y45.472081218274106

(tooth thinning)
G0 Z5
G0 X130.35812182741117 Y134.85736040609137
G1 Z-0.3 F100
G3 X130.19289340101523 Y135.005076142132 I-1.1421319796954315 J-1.1015228426395938 F100
G1 X122.3730964467005 Y141.11675126903552
G3 X122.19035532994924 Y141.23857868020303 I-0.9771573604060914 J-1.251269035532995
G1 X113.59644670050761 Y146.2005076142132
G3 X113.3959390862944 Y146.2994923857868 I-0.7944162436548223 J-1.3756345177664975
G1 X104.19543147208122 Y150.01522842639594
G3 X103.98477157360405 Y150.08375634517768 I-0.5939086294416244 J-1.4720812182741116
G1 X94.35532994923858 Y152.48477157360406
G3 X94.13705583756345 Y152.5228426395939 I-0.383248730964467 J-1.5406091370558375
G1 X84.26903553299493 Y153.56091370558377
G3 X84.0482233502538 Y153.5685279187817 I-0.1649746192893401 J-1.5786802030456855
G1 X74.12944162436548 Y153.2233502538071
G3 X73.90862944162437 Y153.19796954314722 I0.05583756345177665 J-1.5862944162436547
G1 X64.13705583756345 Y151.4771573604061
G3 X63.921319796954315 Y151.42131979695432 I0.2766497461928934 J-1.5634517766497464
G1 X54.482233502538065 Y148.35532994923858
G3 X54.276649746192895 Y148.27157360406093 I0.48984771573604063 J-1.5101522842639594
G1 X45.35786802030457 Y143.92131979695432
G3 X45.16751269035532 Y143.81218274111674 I0.6954314720812182 J-1.4263959390862944
G1 X36.93908629441624 Y138.26142131979697
G3 X36.763959390862944 Y138.12436548223351 I0.8883248730964467 J-1.3172588832487309
G1 X29.390862944162436 Y131.48477157360406
G3 X29.236040609137056 Y131.3274111675127 I1.0634517766497462 J-1.1802030456852792
G1 X22.857868020304572 Y123.7233502538071
G3 X22.725888324873097 Y123.54568527918781 I1.215736040609137 J-1.0203045685279188
G1 X17.467005076142133 Y115.12944162436548
G3 X17.36294416243655 Y114.93401015228427 I1.3451776649746192 J-0.8401015228426396
G1 X13.32741116751269 Y105.86802030456853
G3 X13.251269035532996 Y105.65989847715736 I1.4492385786802031 J-0.6446700507614213
G1 X10.51776649746193 Y96.11928934010152
G3 X10.469543147208123 Y95.90355329949239 I1.5253807106598984 J-0.4365482233502538
G1 X9.088832487309645 Y86.0761421319797
G3 X9.073604060913706 Y85.85532994923858 I1.5710659898477157 J-0.22081218274111675
G1 X9.073604060913706 Y75.93147208121827
G3 X9.088832487309645 Y75.71065989847716 I1.5862944162436547 J0
G1 X10.469543147208123 Y65.88324873096447
G3 X10.51776649746193 Y65.66751269035534 I1.5710659898477157 J0.22081218274111675
G1 X13.251269035532996 Y56.12690355329949
G3 X13.32741116751269 Y55.91878172588832 I1.5253807106598984 J0.4365482233502538
G1 X17.36294416243655 Y46.85279187817259
G3 X17.467005076142133 Y46.65736040609137 I1.4492385786802031 J0.6446700507614213
G1 X22.725888324873097 Y38.24111675126903
G3 X22.857868020304572 Y38.06345177664974 I1.3451776649746192 J0.8401015228426396
G1 X29.236040609137056 Y30.461928934010153
G3 X29.390862944162436 Y30.302030456852794 I1.215736040609137 J1.0203045685279188
G1 X36.763959390862944 Y23.662436548223347
G3 X36.93908629441624 Y23.5253807106599 I1.0634517766497462 J1.1802030456852792
G1 X45.16751269035532 Y17.9746192893401
G3 X45.35786802030457 Y17.86548223350254 I0.8883248730964467 J1.3172588832487309
G1 X54.276649746192895 Y13.51522842639594
G3 X54.482233502538065 Y13.431472081218274 I0.6954314720812182 J1.4263959390862944
G1 X63.921319796954315 Y10.365482233502538
G3 X64.13705583756345 Y10.31218274111675 I0.48984771573604063 J1.5101522842639594
G1 X73.90862944162437 Y8.588832487309645
G3 X74.12944162436548 Y8.565989847715736 I0.2766497461928934 J1.5634517766497464
G1 X84.0482233502538 Y8.218274111675127
G3 X84.26903553299493 Y8.225888324873097 I0.05583756345177665 J1.5862944162436547
G1 X94.13705583756345 Y9.263959390862944
G3 X94.35532994923858 Y9.302030456852792 I-0.1649746192893401 J1.5786802030456855
G1 X103.98477157360405 Y11.703045685279188
G3 X104.19543147208122 Y11.771573604060915 I-0.383248730964467 J1.5406091370558375
G1 X113.3959390862944 Y15.48984771573604
G3 X113.59644670050761 Y15.586294416243655 I-0.5939086294416244 J1.4720812182741116
G1 X122.19035532994924 Y20.54822335025381
G3 X122.3730964467005 Y20.672588832487307 I-0.7944162436548223 J1.3756345177664975
G1 X130.19289340101523 Y26.78172588832487
G3 X130.35786802030455 Y26.928934010152282 I-0.9771573604060914 J1.251269035532995
G1 X137.251269035533 Y34.068527918781726
G3 X137.39340101522842 Y34.23857868020305 I-1.1421319796954315 J1.1040609137055837
G1 X143.2284263959391 Y42.266497461928935
G3 X143.34517766497464 Y42.454314720812185 I-1.2842639593908631 J0.9340101522842639
G1 X148.00507614213197 Y51.21573604060914
G3 X148.09390862944161 Y51.41878172588832 I-1.4010152284263961 J0.7461928934010152
G1 X151.48730964467003 Y60.743654822335024
G3 X151.5482233502538 Y60.95685279187818 I-1.4923857868020305 J0.5431472081218274
G1 X153.61167512690355 Y70.66497461928934
G3 X153.64213197969542 Y70.88324873096447 I-1.5532994923857868 J0.3299492385786802
G1 X154.33502538071065 Y80.78172588832487
G3 X154.34010152284264 Y80.89340101522843 I-1.5837563451776648 J0.1116751269035533
G3 X154.33502538071065 Y81.00507614213198 I-1.5862944162436547 J0
G1 X153.64213197969542 Y90.90355329949239
G3 X153.61167512690355 Y91.1243654822335 I-1.5837563451776648 J-0.1116751269035533
G1 X151.5482233502538 Y100.82994923857868
G3 X151.48730964467003 Y101.04314720812182 I-1.5532994923857868 J-0.3299492385786802
G1 X148.09390862944161 Y110.36802030456853
G3 X148.00507614213197 Y110.57106598984772 I-1.4923857868020305 J-0.5431472081218274
G1 X143.34517766497464 Y119.33248730964466
G3 X143.2284263959391 Y119.52030456852793 I-1.4010152284263961 J-0.7461928934010152
G1 X137.39340101522842 Y127.5482233502538
G3 X137.251269035533 Y127.71827411167513 I-1.2842639593908631 J-0.9340101522842639
G1 X130.35786802030455 Y134.85786802030458
G0 Z5
G0 X7.804060913705584 Y79.31522842639593
G1 Z-0.3 F100
G1 X7.804568527918781 Y82.47208121827411 F100
G1 X7.700507614213198 Y82.34771573604061
G2 X7.304568527918782 Y81.96192893401016 I-2.185279187817259 J1.8426395939086293
G1 X6.586294416243654 Y81.38578680203045
G2 X6.1421319796954315 Y81.09390862944161 I-1.7868020304568528 J2.228426395939086
G1 X5.766497461928934 Y80.89340101522843
G1 X6.1421319796954315 Y80.69289340101523
G2 X6.586294416243654 Y80.4010152284264 I-1.3426395939086295 J-2.5228426395939083
G1 X7.304568527918782 Y79.8248730964467
G2 X7.700507614213198 Y79.43908629441624 I-1.7868020304568528 J-2.228426395939086
G1 X7.804568527918781 Y79.31472081218274
G0 Z5
G0 X119.89441624365482 Y17.755837563451777
G1 Z-0.3 F100
G1 X117.15989847715736 Y16.17766497461929 F100
G1 X117.31979695431471 Y16.149746192893403
G2 X117.8527918781726 Y16 I-0.5025380710659898 J-2.812182741116751
G1 X118.71065989847716 Y15.66497461928934
G2 X119.18781725888324 Y15.426395939086294 I-1.0355329949238579 J-2.6624365482233503
G1 X119.54568527918782 Y15.20304568527919
G1 X119.53299492385787 Y15.626903553299492
G2 X119.53045685279187 Y15.723350253807107 I2.8553299492385786 J0.09644670050761422
G2 X119.56345177664974 Y16.15736040609137 I2.8578680203045685 J0
G1 X119.70304568527919 Y17.065989847715738
G2 X119.84010152284264 Y17.606598984771573 I2.8248730964467006 J-0.4314720812182741
G1 X119.89340101522842 Y17.756345177664976
G0 Z5
G0 X117.16116751269035 Y145.60939086294417
G1 Z-0.3 F100
G1 X119.89340101522842 Y144.03045685279187 F100
G1 X119.84010152284264 Y144.18020304568526
G2 X119.70304568527919 Y144.7208121827411 I2.687817258883249 J0.9720812182741116
G1 X119.56345177664974 Y145.63197969543148
G2 X119.53045685279187 Y146.06345177664974 I2.8248730964467006 J0.4314720812182741
G2 X119.53299492385787 Y146.15989847715736 I2.8578680203045685 J0
G1 X119.54568527918782 Y146.58375634517765
G1 X119.18781725888324 Y146.36040609137055
G2 X118.70812182741118 Y146.11928934010152 I-1.512690355329949 J2.4238578680203045
G1 X117.85025380710661 Y145.78680203045684
G2 X117.31979695431471 Y145.63705583756345 I-1.032994923857868 J2.66497461928934
G1 X117.16243654822335 Y145.60913705583755
G0 Z5
G0 X48.54137055837563 Y146.88807106598983
G1 Z-0.3 F100
G1 X51.370558375634516 Y148.26649746192894 F100
G1 X51.246192893401016 Y148.2994923857868
G2 X50.72842639593909 Y148.49238578680203 I0.7284263959390863 J2.763959390862944
G1 X49.901015228426395 Y148.89340101522842
G2 X49.44416243654822 Y149.17005076142132 I1.2461928934010151 J2.5710659898477157
G1 X49.10152284263959 Y149.42385786802032
G1 X49.08375634517767 Y149
G2 X49.00761421319797 Y148.4720812182741 I-2.8553299492385786 J0.1319796954314721
G1 X48.79695431472081 Y147.5761421319797
G2 X48.61675126903553 Y147.05329949238578 I-2.779187817258883 J0.6598984771573604
G1 X48.54060913705584 Y146.88832487309645
G0 Z5
G0 X155.31218274111674 Y76.54314720812182
G1 Z-0.3 F100
G1 X155.09137055837562 Y73.40355329949239 F100
G1 X155.1827411167513 Y73.49492385786802
G2 X155.60913705583755 Y73.8502538071066 I2.030456852791878 J-2.012690355329949
G1 X156.37309644670052 Y74.36548223350255
G2 X156.83756345177665 Y74.62182741116752 I1.6015228426395938 J-2.365482233502538
G1 X157.2284263959391 Y74.78934010152284
G1 X156.87055837563452 Y75.01776649746193
G2 X156.4517766497462 Y75.34771573604061 I1.5406091370558375 J2.4060913705583755
G1 X155.78172588832487 Y75.9771573604061
G2 X155.41878172588832 Y76.39340101522842 I1.9619289340101522 J2.0786802030456855
G1 X155.31218274111674 Y76.54314720812182
G0 Z5
G0 X41.00659898477157 Y19.2494923857868
G1 Z-0.3 F100
G1 X38.398477157360404 Y21.01015228426396 F100
G1 X38.431472081218274 Y20.885786802030456
G2 X38.5253807106599 Y20.340101522842637 I-2.7563451776649743 J-0.751269035532995
G1 X38.59137055837564 Y19.421319796954315
G2 X38.598984771573605 Y19.215736040609137 I-2.8502538071065993 J-0.20558375634517764
G2 X38.578680203045685 Y18.888324873096447 I-2.8578680203045685 J0
G1 X38.53045685279188 Y18.46700507614213
G1 X38.90609137055838 Y18.66243654822335
G2 X39.401015228426395 Y18.86294416243655 I1.3121827411167515 J-2.5380710659898478
G1 X40.28172588832487 Y19.124365482233504
G2 X40.8248730964467 Y19.230964467005077 I0.8197969543147209 J-2.738578680203046
G1 X41.00761421319797 Y19.248730964467004
G0 Z5
G0 X155.09238578680203 Y88.38324873096447
G1 Z-0.3 F100
G1 X155.31218274111674 Y85.24365482233503 F100
G1 X155.41878172588832 Y85.39340101522842
G2 X155.78172588832487 Y85.80964467005076 I2.3248730964467006 J-1.6624365482233503
G1 X156.4517766497462 Y86.43908629441624
G2 X156.87055837563452 Y86.76903553299493 I1.9619289340101522 J-2.0786802030456855
G1 X157.2284263959391 Y86.99746192893402
G1 X156.83756345177665 Y87.16497461928935
G2 X156.37309644670052 Y87.42131979695431 I1.134517766497462 J2.6218274111675126
G1 X155.60913705583755 Y87.93654822335026
G2 X155.1827411167513 Y88.29187817258884 I1.6015228426395938 J2.365482233502538
G1 X155.09137055837562 Y88.38324873096447
G0 Z5
G0 X51.37005076142132 Y13.519543147208122
G1 Z-0.3 F100
G1 X48.54060913705584 Y14.898477157360405 F100
G1 X48.61675126903553 Y14.733502538071066
G2 X48.79695431472081 Y14.210659898477157 I-2.6015228426395938 J-1.182741116751269
G1 X49.00761421319797 Y13.314720812182742
G2 X49.08375634517767 Y12.786802030456851 I-2.779187817258883 J-0.6598984771573604
G1 X49.10152284263959 Y12.362944162436548
G1 X49.44416243654822 Y12.616751269035532
G2 X49.898477157360404 Y12.893401015228427 I1.7030456852791878 J-2.2944162436548226
G1 X50.7258883248731 Y13.294416243654823
G2 X51.246192893401016 Y13.487309644670052 I1.2461928934010151 J-2.5710659898477157
G1 X51.370558375634516 Y13.52030456852792
G0 Z5
G0 X38.39746192893401 Y140.7774111675127
G1 Z-0.3 F100
G1 X41.00507614213198 Y142.53807106598984 F100
G1 X40.82994923857868 Y142.5532994923858
G2 X40.28172588832487 Y142.66243654822335 I0.2715736040609137 J2.845177664974619
G1 X39.401015228426395 Y142.9263959390863
G2 X38.90609137055838 Y143.12436548223351 I0.8197969543147209 J2.738578680203046
G1 X38.53045685279188 Y143.31979695431474
G1 X38.578680203045685 Y142.89847715736042
G2 X38.598984771573605 Y142.5710659898477 I-2.8375634517766497 J-0.32741116751269034
G2 X38.59137055837564 Y142.36548223350252 I-2.8578680203045685 J0
G1 X38.5253807106599 Y141.44670050761422
G2 X38.431472081218274 Y140.9010152284264 I-2.8502538071065993 J0.20558375634517764
G1 X38.398477157360404 Y140.7766497461929
G0 Z5
G0 X129.51345177664976 Y24.638324873096447
G1 Z-0.3 F100
G1 X127.05583756345177 Y22.718274111675125 F100
G1 X127.24365482233502 Y22.715736040609137
G2 X127.79441624365482 Y22.65228426395939 I-0.045685279187817264 J-2.8578680203045685
G1 X128.69289340101523 Y22.459390862944165
G2 X129.2005076142132 Y22.30203045685279 I-0.5964467005076142 J-2.7944162436548226
G1 X129.59390862944164 Y22.13705583756345
G1 X129.51015228426397 Y22.553299492385786
G2 X129.45685279187816 Y23.083756345177665 I2.8020304568527923 J0.5532994923857868
G1 X129.4492385786802 Y24.00253807106599
G1 X129.4492385786802 Y24.02791878172589
G2 X129.49746192893403 Y24.553299492385786 I2.8578680203045685 J0
G1 X129.51269035532994 Y24.63705583756345
G0 Z5
G0 X127.05532994923858 Y139.06954314720812
G1 Z-0.3 F100
G1 X129.51269035532994 Y137.1497461928934 F100
G1 X129.49746192893403 Y137.23350253807106
G2 X129.4492385786802 Y137.75888324873097 I2.8096446700507616 J0.5253807106598986
G1 X129.4492385786802 Y137.78426395939084
G1 X129.45685279187816 Y138.7030456852792
G2 X129.51015228426397 Y139.23350253807106 I2.8578680203045685 J-0.025380710659898477
G1 X129.59390862944164 Y139.6497461928934
G1 X129.2005076142132 Y139.48477157360406
G2 X128.69289340101523 Y139.32741116751268 I-1.1015228426395938 J2.6370558375634516
G1 X127.79441624365482 Y139.13451776649745
G2 X127.246192893401 Y139.0736040609137 I-0.5964467005076142 J2.7944162436548226
G1 X127.05583756345177 Y139.06852791878174
G0 Z5
G0 X8.520558375634518 Y91.15355329949239
G1 Z-0.3 F100
G1 X8.954314720812183 Y94.24111675126903 F100
G1 X8.890862944162436 Y94.18781725888324
G2 X8.436548223350254 Y93.86802030456852 I-1.8604060913705585 J2.17005076142132
G1 X7.6370558375634525 Y93.41624365482234
G2 X7.149746192893401 Y93.19796954314722 I-1.4060913705583755 J2.487309644670051
G1 X6.748730964467004 Y93.06091370558376
G1 X7.086294416243655 Y92.80456852791879
G2 X7.479695431472081 Y92.44416243654823 I-1.7309644670050761 J-2.2741116751269037
G1 X8.093908629441625 Y91.76142131979695
G2 X8.423857868020304 Y91.31472081218274 I-2.1218274111675126 J-1.9137055837563453
G1 X8.52030456852792 Y91.15482233502539
G0 Z5
G0 X8.954568527918783 Y67.54492385786801
G1 Z-0.3 F100
G1 X8.52030456852792 Y70.63451776649745 F100
G1 X8.423857868020304 Y70.47208121827411
G2 X8.093908629441625 Y70.02791878172589 I-2.451776649746193 J1.4670050761421318
G1 X7.479695431472081 Y69.34263959390863
G2 X7.086294416243655 Y68.98223350253807 I-2.1218274111675126 J1.9137055837563453
G1 X6.748730964467004 Y68.7258883248731
G1 X7.149746192893401 Y68.58883248730965
G2 X7.6370558375634525 Y68.37055837563452 I-0.9213197969543147 J-2.705583756345178
G1 X8.436548223350254 Y67.91878172588832
G2 X8.890862944162436 Y67.59898477157361 I-1.4060913705583755 J-2.487309644670051
G1 X8.954314720812183 Y67.54568527918781
G0 Z5
G0 X109.28451776649746 Y12.45736040609137
G1 Z-0.3 F100
G1 X106.39340101522842 Y11.289340101522843 F100
G1 X106.47208121827411 Y11.261421319796954
G2 X106.9746192893401 Y11.027918781725887 I-0.9467005076142132 J-2.6954314720812182
G1 X107.76649746192894 Y10.560913705583756
G2 X108.2005076142132 Y10.248730964467006 I-1.4492385786802031 J-2.4619289340101522
G1 X108.51776649746192 Y9.969543147208121
G1 X108.57106598984771 Y10.390862944162436
G2 X108.68781725888326 Y10.911167512690357 I2.8350253807106602 J-0.3629441624365482
G1 X108.97208121827411 Y11.786802030456853
G2 X109.19289340101523 Y12.291878172588833 I2.718274111675127 J-0.8807106598984772
G1 X109.28426395939086 Y12.456852791878173
G0 Z5
G0 X106.39238578680202 Y150.4979695431472
G1 Z-0.3 F100
G1 X109.28426395939086 Y149.32994923857868 F100
G1 X109.19289340101523 Y149.49492385786803
G2 X108.97208121827411 Y150.002538071066 I2.49746192893401 J1.3883248730964468
G1 X108.68781725888326 Y150.87817258883248
G2 X108.57106598984771 Y151.39593908629442 I2.718274111675127 J0.8807106598984772
G1 X108.51776649746192 Y151.81725888324874
G1 X108.2005076142132 Y151.54060913705584
G2 X107.76649746192894 Y151.2258883248731 I-1.8832487309644668 J2.149746192893401
G1 X106.9746192893401 Y150.75888324873097
G2 X106.47208121827411 Y150.5253807106599 I-1.4492385786802031 J2.4619289340101522
G1 X106.39340101522842 Y150.497461928934
G0 Z5
G0 X153.65989847715736 Y64.77918781725889
G1 Z-0.3 F100
G1 X153.02030456852793 Y61.7741116751269 F100
G1 X153.0456852791878 Y61.79187817258884
G2 X153.5203045685279 Y62.07106598984772 I1.6802030456852792 J-2.312182741116751
G1 X154.35532994923858 Y62.45685279187818
G2 X154.85786802030458 Y62.63705583756345 I1.2030456852791878 J-2.5913705583756346
G1 X155.26903553299493 Y62.74111675126903
G1 X154.9517766497462 Y63.025380710659896
G2 X154.59137055837564 Y63.41624365482233 I1.9086294416243654 J2.1269035532994924
G1 X154.03299492385787 Y64.14467005076142
G2 X153.74111675126903 Y64.61421319796953 I2.269035532994924 J1.736040609137056
G1 X153.65989847715736 Y64.77918781725889
G0 Z5
G0 X153.02106598984773 Y100.01319796954314
G1 Z-0.3 F100
G1 X153.65989847715736 Y97.00761421319797 F100
G1 X153.74111675126903 Y97.1725888324873
G2 X154.03299492385787 Y97.64213197969542 I2.560913705583756 J-1.266497461928934
G1 X154.59137055837564 Y98.3730964467005
G2 X154.9517766497462 Y98.76142131979697 I2.269035532994924 J-1.736040609137056
G1 X155.26903553299493 Y99.04568527918782
G1 X154.85786802030458 Y99.1497461928934
G2 X154.35532994923858 Y99.32994923857868 I0.7005076142131981 J2.7715736040609134
G1 X153.5203045685279 Y99.71573604060914
G2 X153.0456852791878 Y99.99492385786802 I1.2030456852791878 J2.5913705583756346
G1 X153.02030456852793 Y100.01269035532994
G0 Z5
G0 X31.644416243654824 Y26.56269035532995
G1 Z-0.3 F100
G1 X29.360406091370557 Y28.616751269035532 F100
G1 X29.36548223350254 Y28.591370558375637
G2 X29.380710659898476 Y28.291878172588834 I-2.8426395939086295 J-0.29949238578680204
G2 X29.368020304568528 Y28.03553299492386 I-2.8578680203045685 J0
G1 X29.28680203045685 Y27.119289340101524
G2 X29.190355329949238 Y26.596446700507613 I-2.845177664974619 J0.25380710659898476
G1 X29.073604060913706 Y26.18781725888325
G1 X29.47715736040609 Y26.31979695431472
G2 X29.99746192893401 Y26.436548223350258 I0.8883248730964467 J-2.715736040609137
G1 X30.908629441624367 Y26.555837563451774
G2 X31.46446700507614 Y26.573604060913706 I0.3680203045685279 J-2.8324873096446703
G1 X31.644670050761423 Y26.563451776649746
G0 Z5
G0 X62.47715736040609 Y9.498477157360407
G1 Z-0.3 F100
G1 X59.555837563451774 Y10.446700507614214 F100
G1 X59.65736040609137 Y10.296954314720812
G2 X59.91878172588833 Y9.807106598984772 I-2.3781725888324874 J-1.5862944162436547
G1 X60.27157360406092 Y8.959390862944161
G2 X60.42893401015228 Y8.449238578680202 I-2.6395939086294415 J-1.0964467005076142
G1 X60.515228426395936 Y8.035532994923857
G1 X60.81218274111676 Y8.340101522842641
G2 X61.21827411167513 Y8.685279187817258 I2.0482233502538074 J-1.9923857868020303
G1 X61.96954314720812 Y9.213197969543147
G2 X62.45177664974619 Y9.48730964467005 I1.6446700507614211 J-2.3375634517766497
G1 X62.477157360406096 Y9.49746192893401
G0 Z5
G0 X59.55609137055838 Y151.33934010152285
G1 Z-0.3 F100
G1 X62.477157360406096 Y152.28934010152284 F100
G1 X62.45177664974619 Y152.2994923857868
G2 X61.96954314720812 Y152.5736040609137 I1.1624365482233503 J2.6091370558375635
G1 X61.21827411167513 Y153.10152284263958
G2 X60.81218274111676 Y153.4492385786802 I1.6421319796954315 J2.3375634517766497
G1 X60.515228426395936 Y153.751269035533
G1 X60.42893401015228 Y153.33756345177665
G2 X60.27157360406092 Y152.82994923857868 I-2.796954314720812 J0.5888324873096447
G1 X59.91878172588833 Y151.97969543147207
G2 X59.65736040609137 Y151.48984771573603 I-2.6395939086294415 J1.0964467005076142
G1 X59.555837563451774 Y151.34010152284264
G0 Z5
G0 X29.361675126903553 Y133.1690355329949
G1 Z-0.3 F100
G1 X31.644670050761423 Y135.2233502538071 F100
G1 X31.46446700507614 Y135.21319796954313
G2 X30.908629441624367 Y135.2309644670051 I-0.18781725888324874 J2.8502538071065993
G1 X29.99746192893401 Y135.3502538071066
G2 X29.47715736040609 Y135.46700507614213 I0.37055837563451777 J2.8324873096446703
G1 X29.073604060913706 Y135.5989847715736
G1 X29.190355329949238 Y135.19035532994923
G2 X29.28680203045685 Y134.66751269035535 I-2.748730964467005 J-0.7791878172588833
G1 X29.368020304568528 Y133.751269035533
G2 X29.380710659898476 Y133.494923857868 I-2.845177664974619 J-0.25380710659898476
G2 X29.36548223350254 Y133.19543147208122 I-2.8578680203045685 J0
G1 X29.360406091370557 Y133.17005076142132
G0 Z5
G0 X95.01421319796954 Y153.62969543147207
G1 Z-0.3 F100
G1 X97.93147208121826 Y152.9035532994924 F100
G1 X97.82994923857869 Y153.03045685279187
G2 X97.53299492385787 Y153.494923857868 I2.2436548223350252 J1.7715736040609138
G1 X97.11167512690355 Y154.31218274111674
G2 X96.91370558375635 Y154.80710659898477 I2.5406091370558377 J1.3071065989847717
G1 X96.79187817258884 Y155.21319796954313
G1 X96.5228426395939 Y154.88578680203045
G2 X96.1472081218274 Y154.51015228426397 I-2.2030456852791875 J1.8197969543147208
G1 X95.43908629441624 Y153.92131979695432
G2 X95.01522842639594 Y153.62944162436548 I-1.8274111675126903 J2.197969543147208
G0 Z5
G0 X11.931472081218274 Y56.1253807106599
G1 Z-0.3 F100
G1 X11.104060913705585 Y59.015228426395936 F100
G1 X11.043147208121828 Y58.86548223350254
G2 X10.789340101522843 Y58.37309644670051 I-2.654822335025381 J1.0558375634517767
G1 X10.291878172588833 Y57.598984771573605
G2 X9.961928934010153 Y57.180203045685275 I-2.4010152284263957 J1.548223350253807
G1 X9.670050761421319 Y56.87309644670051
G1 X10.088832487309645 Y56.80203045685279
G2 X10.604060913705585 Y56.66497461928934 I-0.47461928934010156 J-2.817258883248731
G1 X11.467005076142131 Y56.34771573604061
G2 X11.931472081218274 Y56.1243654822335 I-0.9898477157360407 J-2.6802030456852792
G0 Z5
