(Generated by PartKam Version 0.05)

G21 G90 G40

(tooth pocket)
G0 Z15
T0 M6
G17
M3
G0 X26.886802030456852 Y136.91218274111674
G1 Z-0.3 F125
G1 X27.30710659898477 Y136.05583756345177 F125
G2 X27.393401015228424 Y135.82994923857868 I-1.2131979695431472 J-0.5939086294416244
G1 X27.64720812182741 Y134.9263959390863
G2 X27.695431472081218 Y134.6802030456853 I-1.2994923857868022 J-0.3680203045685279
G1 X27.776649746192895 Y133.76395939086294
G2 X27.78172588832487 Y133.64213197969542 I-1.3451776649746192 J-0.11928934010152284
G2 X27.774111675126903 Y133.5 I-1.3502538071065988 J0
G1 X27.680203045685282 Y132.60406091370558
G2 X27.624365482233504 Y132.33756345177665 I-1.3426395939086295 J0.14213197969543148
G1 X27.35786802030457 Y131.49238578680203
G2 X27.246192893401012 Y131.23604060913706 I-1.2868020304568528 J0.40609137055837563
G1 X26.814720812182742 Y130.4746192893401
G2 X26.649746192893403 Y130.24111675126903 I-1.1751269035532994 J0.6649746192893401
G1 X26.071065989847714 Y129.58883248730965
G2 X25.86040609137056 Y129.39847715736042 I-1.0101522842639594 J0.8959390862944162
G1 X25.154822335025383 Y128.87817258883248
G2 X24.913705583756347 Y128.73604060913706 I-0.8020304568527918 J1.0862944162436547
G1 X24.106598984771573 Y128.36802030456855
G2 X23.8502538071066 Y128.28172588832487 I-0.5583756345177665 J1.2284263959390864
G1 X22.972081218274113 Y128.07868020304568
G2 X22.71065989847716 Y128.0456852791878 I-0.3020304568527919 J1.3147208121827412
G1 X21.791878172588834 Y128.01776649746193
G2 X21.54060913705584 Y128.03299492385787 I-0.043147208121827416 J1.3502538071065988
G1 X20.614213197969544 Y128.1776649746193
G2 X20.378172588832484 Y128.23604060913706 I0.2081218274111675 J1.3350253807106598
G1 X19.47969543147208 Y128.5482233502538
G2 X19.261421319796955 Y128.64720812182742 I0.44416243654822335 J1.2741116751269035
G1 X19.210659898477157 Y128.6751269035533
G1 X18.725888324873097 Y128.4543147208122
G1 X18.52030456852792 Y128.20812182741116
G1 X18.436548223350254 Y127.64467005076142
G1 X18.47969543147208 Y127.60406091370558
G2 X18.631979695431472 Y127.4238578680203 I-0.9492385786802031 J-0.9619289340101522
G1 X19.18274111675127 Y126.64467005076142
G2 X19.304568527918782 Y126.43654822335024 I-1.1015228426395938 J-0.7817258883248732
G1 X19.70304568527919 Y125.58629441624365
G2 X19.786802030456855 Y125.34771573604061 I-1.2233502538071066 J-0.5710659898477157
G1 X20.015228426395943 Y124.45685279187816
G2 X20.055837563451778 Y124.19796954314721 I-1.3071065989847717 J-0.3350253807106599
G1 X20.106598984771576 Y123.29695431472081
G2 X20.106598984771576 Y123.2233502538071 I-1.3477157360406091 J-0.07614213197969544
G2 X20.093908629441625 Y123.02791878172587 I-1.3502538071065988 J0
G1 X19.964467005076145 Y122.14974619289339
G2 X19.895939086294415 Y121.87817258883248 I-1.3350253807106598 J0.1954314720812183
G1 X19.593908629441625 Y121.05583756345177
G2 X19.467005076142133 Y120.80203045685279 I-1.266497461928934 J0.46700507614213194
G1 X19.00253807106599 Y120.06345177664974
G2 X18.8248730964467 Y119.84010152284264 I-1.1421319796954315 J0.7208121827411168
G1 X18.210659898477157 Y119.21573604060913
G2 X17.997461928934012 Y119.03553299492386 I-0.9644670050761421 J0.9441624365482233
G1 X17.258883248730964 Y118.54314720812182
G2 X17.017766497461928 Y118.41624365482234 I-0.748730964467005 J1.1218274111675126
G1 X16.18274111675127 Y118.07614213197968
G2 X15.931472081218274 Y118.00253807106598 I-0.5101522842639594 J1.251269035532995
G1 X15.030456852791879 Y117.8274111675127
G2 X14.779187817258883 Y117.8020304568528 I-0.25888324873096447 J1.3248730964467004
G1 X13.842639593908629 Y117.79441624365482
G2 X13.598984771573603 Y117.81472081218274 I-0.007614213197969543 J1.3502538071065988
G1 X12.65989847715736 Y117.97969543147207
G2 X12.434010152284266 Y118.04060913705584 I0.23350253807106597 J1.3299492385786802
G1 X12.378172588832488 Y118.06091370558376
G1 X11.8248730964467 Y117.69289340101523
G1 X11.769035532994925 Y117.56598984771573
G1 X11.779187817258883 Y116.91878172588832
G1 X11.827411167512691 Y116.88578680203045
G2 X12.00507614213198 Y116.73350253807106 I-0.7817258883248732 J-1.098984771573604
G1 X12.6751269035533 Y116.05329949238579
G2 X12.82994923857868 Y115.86548223350255 I-0.9619289340101522 J-0.9467005076142132
G1 X13.357868020304569 Y115.09137055837563
G2 X13.47969543147208 Y114.87055837563452 I-1.116751269035533 J-0.7614213197969544
G1 X13.847715736040609 Y114.0279187817259
G2 X13.928934010152286 Y113.77918781725889 I-1.236040609137056 J-0.5406091370558376
G1 X14.121827411167514 Y112.89847715736042
G2 X14.154822335025381 Y112.62944162436548 I-1.3172588832487309 J-0.2918781725888325
G1 X14.16751269035533 Y111.74111675126903
G1 X14.16751269035533 Y111.72081218274113
G2 X14.142131979695431 Y111.46192893401015 I-1.3502538071065988 J0
G1 X13.977157360406093 Y110.60406091370558
G2 X13.893401015228426 Y110.32994923857869 I-1.3248730964467004 J0.2563451776649746
G1 X13.550761421319796 Y109.52791878172589
G2 X13.413705583756347 Y109.27918781725887 I-1.2411167512690355 J0.5279187817258884
G1 X12.908629441624367 Y108.56345177664976
G2 X12.723350253807107 Y108.35279187817258 I-1.1040609137055837 J0.7766497461928934
G1 X12.076142131979694 Y107.748730964467
G2 X11.857868020304569 Y107.58375634517768 I-0.9187817258883249 J0.9873096446700508
G1 X11.088832487309645 Y107.11421319796955
G2 X10.852791878172589 Y107 I-0.7030456852791878 J1.1522842639593909
G1 X9.98984771573604 Y106.68274111675126
G2 X9.746192893401016 Y106.61675126903553 I-0.46700507614213194 J1.266497461928934
G1 X8.822335025380712 Y106.46192893401015
G2 X8.581218274111675 Y106.44162436548223 I-0.2233502538071066 J1.3299492385786802
G1 X7.626903553299492 Y106.45431472081219
G2 X7.3908629441624365 Y106.4771573604061 I0.017766497461928935 J1.3502538071065988
G1 X7.33502538071066 Y106.48984771573603
G1 X6.977157360406091 Y106.15736040609137
G1 X6.847715736040609 Y105.70558375634518
G1 X6.926395939086294 Y105.26649746192894
G1 X6.977157360406091 Y105.24111675126903
G2 X7.180203045685279 Y105.11928934010152 I-0.5939086294416244 J-1.2131979695431472
G1 X7.949238578680204 Y104.55583756345177
G2 X8.131979695431472 Y104.39593908629442 I-0.7969543147208122 J-1.0888324873096447
G1 X8.779187817258883 Y103.71319796954316
G2 X8.934010152284264 Y103.51776649746192 I-0.9796954314720813 J-0.9289340101522843
G1 X9.431472081218274 Y102.74365482233503
G2 X9.550761421319796 Y102.51015228426397 I-1.134517766497462 J-0.7309644670050762
G1 X9.885786802030458 Y101.67258883248732
G2 X9.959390862944163 Y101.41116751269035 I-1.2538071065989849 J-0.5
G1 X10.114213197969544 Y100.53807106598984
G2 X10.137055837563452 Y100.3020304568528 I-1.3299492385786802 J-0.23857868020304568
G2 X10.134517766497462 Y100.25888324873095 I-1.3502538071065988 J0
G1 X10.109137055837563 Y99.38324873096447
G2 X10.071065989847716 Y99.1015228426396 I-1.3502538071065988 J0.04060913705583757
G1 X9.860406091370558 Y98.25634517766497
G2 X9.763959390862944 Y97.98730964467005 I-1.3096446700507614 J0.3223350253807106
G1 X9.380710659898476 Y97.2005076142132
G2 X9.233502538071065 Y96.96192893401016 I-1.2131979695431472 J0.5913705583756345
G1 X8.690355329949238 Y96.26142131979697
G2 X8.50253807106599 Y96.06598984771574 I-1.0659898477157361 J0.8274111675126904
G1 X7.817258883248731 Y95.4771573604061
G2 X7.604060913705584 Y95.3274111675127 I-0.8781725888324874 J1.0253807106598984
G1 X6.802030456852792 Y94.8756345177665
G2 X6.573604060913706 Y94.7715736040609 I-0.6649746192893401 J1.1751269035532994
G1 X5.685279187817259 Y94.46954314720813
G2 X5.449238578680204 Y94.41116751269035 I-0.4365482233502538 J1.2766497461928932
G1 X4.50761421319797 Y94.27157360406092
G2 X4.271573604060913 Y94.25634517766497 I-0.20050761421319796 J1.3350253807106598
G1 X4.213197969543147 Y94.25888324873097
G1 X3.9873096446700504 Y93.96700507614213
G1 X3.8934010152284264 Y93.30456852791878
G1 X4.00507614213198 Y92.98477157360406
G1 X4.060913705583756 Y92.96954314720813
G2 X4.281725888324873 Y92.88071065989847 I-0.3934010152284264 J-1.2918781725888326
G1 X5.129441624365483 Y92.4492385786802
G2 X5.335025380710659 Y92.31979695431471 I-0.6116751269035533 J-1.2030456852791878
G1 X6.083756345177665 Y91.751269035533
G2 X6.2664974619289335 Y91.58121827411166 I-0.817258883248731 J-1.0736040609137056
G1 X6.883248730964468 Y90.8984771573604
G2 X7.040609137055838 Y90.68781725888326 I-1.00253807106599 J-0.9035532994923857
G1 X7.50253807106599 Y89.91370558375635
G2 X7.619289340101522 Y89.66751269035534 I-1.1573604060913705 J-0.6928934010152283
G1 X7.911167512690356 Y88.82994923857868
G2 X7.977157360406092 Y88.55837563451777 I-1.2741116751269035 J-0.4467005076142132
G1 X8.091370558375635 Y87.69035532994923
G2 X8.101522842639593 Y87.51522842639594 I-1.3375634517766497 J-0.17512690355329952
G2 X8.098984771573605 Y87.40609137055839 I-1.3502538071065988 J0
G1 X8.027918781725887 Y86.53553299492386
G2 X7.974619289340101 Y86.25634517766498 I-1.3451776649746192 J0.10913705583756345
G1 X7.723350253807107 Y85.41624365482234
G2 X7.616751269035533 Y85.15989847715736 I-1.2918781725888326 J0.3883248730964467
G1 X7.190355329949238 Y84.38071065989847
G2 X7.038071065989849 Y84.15736040609136 I-1.1852791878172588 J0.6472081218274112
G1 X6.456852791878172 Y83.46700507614214
G2 X6.269035532994924 Y83.28426395939087 I-1.032994923857868 J0.8705583756345179
G1 X5.550761421319796 Y82.70812182741118
G2 X5.342639593908629 Y82.57106598984771 I-0.8451776649746192 J1.0532994923857868
G1 X4.5126903553299496 Y82.12944162436548
G2 X4.289340101522843 Y82.03553299492386 I-0.6345177664974619 J1.1903553299492384
G1 X3.380710659898477 Y81.74365482233503
G2 X3.1522842639593907 Y81.69289340101523 I-0.4111675126903553 J1.2868020304568528
G1 X3.0939086294416245 Y81.68527918781726
G1 X2.9416243654822334 Y81.40609137055839
G1 X2.9416243654822334 Y80.67258883248732
G1 X3.0939086294416245 Y80.39593908629442
G1 X3.1522842639593907 Y80.38832487309645
G2 X3.380710659898477 Y80.33502538071065 I-0.1802030456852792 J-1.3375634517766497
G1 X4.289340101522843 Y80.04568527918781
G2 X4.5126903553299496 Y79.9517766497462 I-0.4111675126903553 J-1.2868020304568528
G1 X5.342639593908629 Y79.51015228426397
G2 X5.550761421319796 Y79.37055837563452 I-0.6345177664974619 J-1.1903553299492384
G1 X6.269035532994924 Y78.79695431472081
G2 X6.456852791878172 Y78.61421319796955 I-0.8451776649746192 J-1.0532994923857868
G1 X7.038071065989849 Y77.9238578680203
G2 X7.190355329949238 Y77.7005076142132 I-1.032994923857868 J-0.8705583756345179
G1 X7.616751269035533 Y76.92131979695431
G2 X7.723350253807107 Y76.66243654822335 I-1.1852791878172588 J-0.6472081218274112
G1 X7.974619289340101 Y75.82487309644671
G2 X8.027918781725887 Y75.54314720812184 I-1.2918781725888326 J-0.3883248730964467
G1 X8.098984771573605 Y74.6751269035533
G2 X8.101522842639593 Y74.56598984771573 I-1.3451776649746192 J-0.10913705583756345
G2 X8.091370558375635 Y74.39086294416244 I-1.3502538071065988 J0
G1 X7.977157360406092 Y73.52030456852792
G2 X7.911167512690356 Y73.248730964467 I-1.3375634517766497 J0.17512690355329952
G1 X7.619289340101522 Y72.41370558375634
G2 X7.50253807106599 Y72.16751269035532 I-1.2741116751269035 J0.4467005076142132
G1 X7.040609137055838 Y71.39340101522842
G2 X6.883248730964468 Y71.18274111675126 I-1.1573604060913705 J0.6928934010152283
G1 X6.269035532994924 Y70.5
G2 X6.083756345177665 Y70.32994923857868 I-1.00253807106599 J0.9035532994923857
G1 X5.335025380710659 Y69.76142131979695
G2 X5.129441624365483 Y69.63197969543147 I-0.817258883248731 J1.0736040609137056
G1 X4.281725888324873 Y69.2005076142132
G2 X4.060913705583756 Y69.11167512690355 I-0.6116751269035533 J1.2030456852791878
G1 X4.00507614213198 Y69.09390862944163
G1 X3.8934010152284264 Y68.7741116751269
G1 X3.9873096446700504 Y68.11421319796955
G1 X4.213197969543147 Y67.82233502538071
G1 X4.271573604060913 Y67.82233502538071
G2 X4.50761421319797 Y67.80964467005076 I0.03553299492385787 J-1.3502538071065988
G1 X5.449238578680204 Y67.66751269035532
G2 X5.685279187817259 Y67.61167512690355 I-0.20050761421319796 J-1.3350253807106598
G1 X6.573604060913706 Y67.30964467005077
G2 X6.802030456852792 Y67.20558375634518 I-0.4365482233502538 J-1.2766497461928932
G1 X7.604060913705584 Y66.75380710659898
G2 X7.817258883248731 Y66.6015228426396 I-0.6649746192893401 J-1.1751269035532994
G1 X8.50253807106599 Y66.01522842639594
G2 X8.690355329949238 Y65.81725888324873 I-0.8781725888324874 J-1.0253807106598984
G1 X9.233502538071065 Y65.11675126903553
G2 X9.380710659898476 Y64.88071065989848 I-1.0659898477157361 J-0.8274111675126904
G1 X9.763959390862944 Y64.09137055837563
G2 X9.860406091370558 Y63.8248730964467 I-1.2131979695431472 J-0.5913705583756345
G1 X10.071065989847716 Y62.97715736040609
G2 X10.109137055837563 Y62.69543147208122 I-1.3096446700507614 J-0.3223350253807106
G1 X10.134517766497462 Y61.819796954314725
G2 X10.137055837563452 Y61.77918781725889 I-1.3502538071065988 J-0.04060913705583757
G2 X10.114213197969544 Y61.54060913705584 I-1.3502538071065988 J0
G1 X9.959390862944163 Y60.66751269035534
G2 X9.885786802030458 Y60.40609137055838 I-1.3299492385786802 J0.23857868020304568
G1 X9.550761421319796 Y59.568527918781726
G2 X9.431472081218274 Y59.337563451776646 I-1.2538071065989849 J0.5
G1 X8.934010152284264 Y58.56345177664974
G2 X8.776649746192893 Y58.36548223350253 I-1.134517766497462 J0.7309644670050762
G1 X8.131979695431472 Y57.68527918781726
G2 X7.949238578680204 Y57.5253807106599 I-0.9796954314720813 J0.9289340101522843
G1 X7.180203045685279 Y56.96192893401015
G2 X6.979695431472082 Y56.840101522842644 I-0.7969543147208122 J1.0888324873096447
G1 X6.926395939086294 Y56.81472081218274
G1 X6.847715736040609 Y56.3756345177665
G1 X6.977157360406091 Y55.923857868020306
G1 X7.33502538071066 Y55.59137055837564
G1 X7.3908629441624365 Y55.601522842639596
G2 X7.626903553299492 Y55.6243654822335 I0.2512690355329949 J-1.3274111675126905
G1 X8.578680203045685 Y55.63705583756345
G2 X8.822335025380712 Y55.61928934010152 I0.017766497461928935 J-1.3502538071065988
G1 X9.746192893401016 Y55.461928934010146
G2 X9.98984771573604 Y55.398477157360404 I-0.22588832487309643 J-1.3299492385786802
G1 X10.852791878172589 Y55.07868020304569
G2 X11.088832487309645 Y54.964467005076145 I-0.46700507614213194 J-1.266497461928934
G1 X11.857868020304569 Y54.49492385786802
G2 X12.076142131979694 Y54.329949238578685 I-0.7030456852791878 J-1.1522842639593909
G1 X12.723350253807107 Y53.7258883248731
G2 X12.908629441624367 Y53.515228426395936 I-0.9187817258883249 J-0.9873096446700508
G1 X13.413705583756347 Y52.799492385786806
G2 X13.550761421319796 Y52.5507614213198 I-1.1040609137055837 J-0.7766497461928934
G1 X13.893401015228426 Y51.748730964467
G2 X13.977157360406093 Y51.47715736040609 I-1.2411167512690355 J-0.5304568527918782
G1 X14.142131979695431 Y50.61675126903553
G2 X14.16751269035533 Y50.360406091370564 I-1.3248730964467004 J-0.2563451776649746
G1 X14.16751269035533 Y50.337563451776646
G1 X14.154822335025381 Y49.45177664974619
G2 X14.121827411167514 Y49.182741116751274 I-1.3502538071065988 J0.020304568527918784
G1 X13.928934010152286 Y48.3020304568528
G2 X13.847715736040609 Y48.05329949238579 I-1.3172588832487309 J0.2918781725888325
G1 X13.47969543147208 Y47.20812182741117
G2 X13.357868020304569 Y46.98984771573605 I-1.236040609137056 J0.5406091370558376
G1 X12.82994923857868 Y46.213197969543145
G2 X12.6751269035533 Y46.025380710659896 I-1.116751269035533 J0.7588832487309645
G1 X12.00507614213198 Y45.34771573604061
G2 X11.8248730964467 Y45.192893401015226 I-0.9619289340101522 J0.9467005076142132
G1 X11.779187817258883 Y45.15989847715736
G1 X11.769035532994925 Y44.51269035532995
G1 X11.8248730964467 Y44.38832487309645
G1 X12.378172588832488 Y44.01776649746193
G1 X12.431472081218274 Y44.03807106598984
G2 X12.65989847715736 Y44.09898477157361 I0.4619289340101523 J-1.2690355329949239
G1 X13.598984771573603 Y44.263959390862944
G2 X13.840101522842641 Y44.284263959390856 I0.23350253807106597 J-1.3299492385786802
G1 X14.779187817258883 Y44.27918781725889
G2 X15.030456852791879 Y44.253807106598984 I-0.007614213197969543 J-1.3502538071065988
G1 X15.931472081218274 Y44.078680203045685
G2 X16.18274111675127 Y44.002538071065985 I-0.25888324873096447 J-1.3248730964467004
G1 X17.017766497461928 Y43.66243654822335
G2 X17.258883248730964 Y43.53553299492386 I-0.5101522842639594 J-1.251269035532995
G1 X17.997461928934012 Y43.04314720812183
G2 X18.210659898477157 Y42.86548223350253 I-0.748730964467005 J-1.1218274111675126
G1 X18.8248730964467 Y42.23857868020304
G2 X19 Y42.01522842639594 I-0.9644670050761421 J-0.9441624365482233
G1 X19.467005076142133 Y41.27918781725889
G2 X19.593908629441625 Y41.02284263959391 I-1.1421319796954315 J-0.7208121827411168
G1 X19.895939086294415 Y40.2005076142132
G2 X19.964467005076145 Y39.931472081218274 I-1.266497461928934 J-0.46700507614213194
G1 X20.093908629441625 Y39.05329949238579
G2 X20.106598984771576 Y38.857868020304565 I-1.3350253807106598 J-0.1954314720812183
G2 X20.106598984771576 Y38.78172588832487 I-1.3502538071065988 J0
G1 X20.055837563451778 Y37.880710659898476
G2 X20.015228426395943 Y37.621827411167516 I-1.3477157360406091 J0.07614213197969544
G1 X19.786802030456855 Y36.73096446700508
G2 X19.70304568527919 Y36.49492385786802 I-1.3071065989847717 J0.3350253807106599
G1 X19.304568527918782 Y35.64467005076142
G2 X19.18274111675127 Y35.434010152284266 I-1.2233502538071066 J0.5710659898477157
G1 X18.631979695431472 Y34.65736040609137
G2 X18.47969543147208 Y34.47715736040609 I-1.1015228426395938 J0.7817258883248732
G1 X18.436548223350254 Y34.43654822335026
G1 X18.52030456852792 Y33.87309644670051
G1 X18.725888324873097 Y33.62690355329949
G1 X19.210659898477157 Y33.40609137055837
G1 X19.261421319796955 Y33.434010152284266
G2 X19.477157360406093 Y33.53045685279188 I0.6598984771573604 J-1.1776649746192893
G1 X20.378172588832484 Y33.845177664974614
G2 X20.614213197969544 Y33.90355329949239 I0.44416243654822335 J-1.2741116751269035
G1 X21.54060913705584 Y34.04822335025381
G2 X21.791878172588834 Y34.06345177664975 I0.2081218274111675 J-1.3350253807106598
G1 X22.71065989847716 Y34.035532994923855
G2 X22.96954314720812 Y34 I-0.043147208121827416 J-1.3502538071065988
G1 X23.8502538071066 Y33.799492385786806
G2 X24.106598984771573 Y33.710659898477154 I-0.3020304568527919 J-1.3147208121827412
G1 X24.913705583756347 Y33.34517766497462
G2 X25.154822335025383 Y33.203045685279186 I-0.5583756345177665 J-1.2284263959390864
G1 X25.86040609137056 Y32.68274111675127
G2 X26.071065989847714 Y32.49238578680203 I-0.799492385786802 J-1.0862944162436547
G1 X26.649746192893403 Y31.83756345177665
G2 X26.814720812182742 Y31.606598984771573 I-1.0101522842639594 J-0.8959390862944162
G1 X27.246192893401012 Y30.84263959390863
G2 X27.35786802030457 Y30.586294416243653 I-1.1751269035532994 J-0.6649746192893401
G1 X27.624365482233504 Y29.741116751269033
G2 X27.680203045685282 Y29.47715736040609 I-1.2868020304568528 J-0.40609137055837563
G1 X27.774111675126903 Y28.578680203045685
G2 X27.78172588832487 Y28.436548223350254 I-1.3426395939086295 J-0.14213197969543148
G2 X27.776649746192895 Y28.317258883248734 I-1.3502538071065988 J0
G1 X27.695431472081218 Y27.401015228426395
G2 X27.649746192893403 Y27.15228426395939 I-1.3451776649746192 J0.11928934010152284
G1 X27.393401015228424 Y26.251269035532996
G2 X27.30710659898477 Y26.0253807106599 I-1.2994923857868022 J0.3680203045685279
G1 X26.885786802030456 Y25.16751269035533
G2 X26.763959390862944 Y24.96700507614213 I-1.2131979695431472 J0.5939086294416244
G1 X26.73096446700508 Y24.918781725888323
G1 X26.85786802030457 Y24.51776649746193
G1 X27.29187817258883 Y24.126903553299492
G1 X27.659898477157363 Y24.0253807106599
G1 X27.705583756345177 Y24.063451776649746
G2 X27.903553299492387 Y24.19289340101523 I0.8401015228426396 J-1.0583756345177666
G1 X28.741116751269033 Y24.64720812182741
G2 X28.96446700507614 Y24.741116751269033 I0.6421319796954316 J-1.1878172588832487
G1 X29.85532994923858 Y25.03299492385787
G2 X30.101522842639593 Y25.088832487309645 I0.41878172588832485 J-1.2842639593908631
G1 X31.01269035532995 Y25.20812182741117
G2 X31.274111675126903 Y25.215736040609137 I0.17512690355329952 J-1.3375634517766497
G1 X32.1751269035533 Y25.15736040609137
G2 X32.441624365482234 Y25.11421319796954 I-0.08629441624365483 J-1.3477157360406091
G1 X33.296954314720814 Y24.880710659898476
G2 X33.558375634517766 Y24.779187817258883 I-0.3553299492385787 J-1.3020304568527918
G1 X34.337563451776646 Y24.378172588832484
G2 X34.576142131979694 Y24.22335025380711 I-0.616751269035533 J-1.2005076142131978
G1 X35.25126903553299 Y23.67258883248731
G2 X35.45177664974619 Y23.46954314720812 I-0.8527918781725887 J-1.0456852791878173
G1 X36 Y22.78680203045685
G2 X36.15228426395939 Y22.550761421319798 I-1.0532994923857868 J-0.8426395939086294
G1 X36.5507614213198 Y21.758883248730964
G2 X36.6497461928934 Y21.505076142131976 I-1.2055837563451777 J-0.6091370558375635
G1 X36.88578680203045 Y20.63451776649746
G2 X36.92893401015228 Y20.378172588832484 I-1.3020304568527918 J-0.3553299492385787
G1 X36.99492385786802 Y19.45939086294416
G2 X37 Y19.36294416243655 I-1.3477157360406091 J-0.09644670050761422
G2 X36.98984771573604 Y19.208121827411166 I-1.3502538071065988 J0
G1 X36.88324873096447 Y18.276649746192895
G2 X36.83248730964467 Y18.038071065989847 I-1.3401015228426396 J0.15482233502538073
G1 X36.555837563451774 Y17.126903553299492
G2 X36.46954314720812 Y16.906091370558375 I-1.2918781725888326 J0.3934010152284264
G1 X36.441624365482234 Y16.855329949238577
G1 X36.59137055837563 Y16.558375634517766
G1 X37.18781725888325 Y16.15736040609137
G1 X37.50253807106599 Y16.121827411167512
G1 X37.54314720812183 Y16.16497461928934
G2 X37.71573604060914 Y16.3248730964467 I0.9974619289340102 J-0.9086294416243655
G1 X38.47208121827411 Y16.908629441624367
G2 X38.6751269035533 Y17.038071065989847 I0.8248730964467005 J-1.0685279187817258
G1 X39.50761421319797 Y17.46954314720812
G2 X39.74111675126903 Y17.563451776649746 I0.6192893401015229 J-1.1979695431472082
G1 X40.6243654822335 Y17.82741116751269
G2 X40.880710659898476 Y17.878172588832488 I0.3857868020304569 J-1.2944162436548223
G1 X41.77918781725889 Y17.96446700507614
G2 X42.0507614213198 Y17.96446700507614 I0.12944162436548223 J-1.3426395939086295
G1 X42.931472081218274 Y17.870558375634516
G2 X43.20558375634518 Y17.81218274111675 I-0.14213197969543148 J-1.3426395939086295
G1 X44.03807106598984 Y17.543147208121827
G2 X44.2994923857868 Y17.428934010152282 I-0.416243654822335 J-1.2842639593908631
G1 X45.05329949238579 Y16.992385786802032
G2 X45.28426395939086 Y16.8248730964467 I-0.6751269035532994 J-1.1700507614213198
G1 X45.934010152284266 Y16.236040609137056
G2 X46.12182741116751 Y16.027918781725887 I-0.9060913705583756 J-1.00253807106599
G1 X46.642131979695435 Y15.31218274111675
G2 X46.77918781725889 Y15.076142131979696 I-1.0913705583756346 J-0.7944162436548223
G1 X47.15228426395939 Y14.256345177664976
G2 X47.23857868020304 Y14.00761421319797 I-1.2284263959390864 J-0.5583756345177665
G1 X47.45177664974619 Y13.114213197969544
G2 X47.48477157360406 Y12.865482233502538 I-1.3147208121827412 J-0.31218274111675126
G1 X47.52791878172589 Y11.926395939086294
G2 X47.530456852791886 Y11.865482233502538 I-1.3477157360406091 J-0.06345177664974619
G2 X47.517766497461935 Y11.685279187817258 I-1.3502538071065988 J0
G1 X47.390862944162436 Y10.741116751269036
G2 X47.34010152284264 Y10.510152284263958 I-1.3375634517766497 J0.1802030456852792
G1 X47.32233502538071 Y10.454314720812183
G1 X47.50761421319797 Y10.197969543147208
G1 X48.154822335025386 Y9.883248730964468
G1 X48.48730964467005 Y9.901015228426397
G1 X48.51776649746193 Y9.949238578680204
G2 X48.66497461928934 Y10.137055837563452 I1.131979695431472 J-0.7360406091370558
G1 X49.31472081218274 Y10.83248730964467
G2 X49.49746192893401 Y10.99238578680203 I0.9847715736040609 J-0.9238578680203046
G1 X50.25126903553299 Y11.553299492385786
G2 X50.464467005076145 Y11.68274111675127 I0.8045685279187818 J-1.0837563451776648
G1 X51.29187817258884 Y12.083756345177665
G2 X51.53807106598984 Y12.175126903553299 I0.5888324873096447 J-1.215736040609137
G1 X52.411167512690355 Y12.406091370558377
G2 X52.680203045685275 Y12.446700507614212 I0.3451776649746193 J-1.3045685279187818
G1 X53.56345177664974 Y12.49746192893401
G2 X53.84263959390863 Y12.48477157360406 I0.07614213197969544 J-1.3477157360406091
G1 X54.71065989847716 Y12.352791878172589
G2 X54.98477157360406 Y12.279187817258883 I-0.20304568527918782 J-1.3350253807106598
G1 X55.8020304568528 Y11.969543147208121
G2 X56.05329949238579 Y11.84263959390863 I-0.47969543147208127 J-1.2614213197969542
G1 X56.78934010152284 Y11.365482233502537
G2 X57.00761421319797 Y11.190355329949238 I-0.7335025380710659 J-1.134517766497462
G1 X57.63705583756345 Y10.565989847715736
G2 X57.81218274111676 Y10.357868020304569 I-0.9492385786802031 J-0.9593908629441625
G1 X58.31218274111676 Y9.606598984771574
G2 X58.434010152284266 Y9.375634517766498 I-1.1243654822335025 J-0.748730964467005
G1 X58.789340101522846 Y8.525380710659899
G2 X58.86294416243655 Y8.286802030456853 I-1.2461928934010151 J-0.5177664974619289
G1 X59.055837563451774 Y7.368020304568528
G2 X59.08375634517767 Y7.126903553299493 I-1.3197969543147208 J-0.27918781725888325
G1 X59.11167512690355 Y6.175126903553299
G2 X59.11167512690355 Y6.137055837563452 I-1.3502538071065988 J-0.03807106598984772
G2 X59.09644670050761 Y5.939086294416244 I-1.3502538071065988 J0
G1 X59.088832487309645 Y5.880710659898477
G1 X59.357868020304565 Y5.614213197969543
G1 X59.91624365482234 Y5.431472081218274
G1 X60.324873096446694 Y5.522842639593909
G1 X60.3502538071066 Y5.5761421319796955
G2 X60.464467005076145 Y5.781725888324873 I1.233502538071066 J-0.5456852791878173
G1 X60.994923857868024 Y6.573604060913706
G2 X61.147208121827404 Y6.761421319796954 I1.1218274111675126 J-0.7538071065989848
G1 X61.80203045685279 Y7.434010152284264
G2 X61.992385786802025 Y7.598984771573604 I0.967005076142132 J-0.9416243654822334
G1 X62.746192893401016 Y8.126903553299492
G2 X62.9746192893401 Y8.256345177664974 I0.7766497461928934 J-1.1040609137055837
G1 X63.79695431472081 Y8.624365482233502
G2 X64.05583756345177 Y8.708121827411167 I0.5482233502538071 J-1.233502538071066
G1 X64.92131979695431 Y8.898477157360405
G2 X65.2005076142132 Y8.931472081218274 I0.2918781725888325 J-1.3172588832487309
G1 X66.0761421319797 Y8.939086294416244
G2 X66.35786802030456 Y8.911167512690355 I0.012690355329949238 J-1.3502538071065988
G1 X67.21319796954315 Y8.738578680203045
G2 X67.48477157360406 Y8.652284263959391 I-0.2690355329949239 J-1.3223350253807107
G1 X68.28680203045685 Y8.299492385786802
G2 X68.53045685279187 Y8.16243654822335 I-0.5406091370558376 J-1.236040609137056
G1 X69.251269035533 Y7.647208121827411
G2 X69.45685279187816 Y7.467005076142133 I-0.7842639593908629 J-1.098984771573604
G1 X70.07106598984771 Y6.807106598984771
G2 X70.23096446700508 Y6.598984771573604 I-0.9873096446700508 J-0.9187817258883249
G1 X70.71573604060914 Y5.81725888324873
G2 X70.82741116751268 Y5.591370558375635 I-1.1472081218274113 J-0.7106598984771574
G1 X71.16497461928934 Y4.718274111675127
G2 X71.23096446700508 Y4.484771573604061 I-1.2588832487309645 J-0.4873096446700508
G1 X71.41116751269035 Y3.548223350253807
G2 X71.43401015228426 Y3.3121827411167515 I-1.3248730964467004 J-0.25380710659898476
G1 X71.43401015228426 Y3.253807106598985
G1 X71.86802030456853 Y2.9441624365482233
G1 X72.18527918781726 Y2.8883248730964466
G1 X72.71573604060913 Y3.098984771573604
G1 X72.72842639593908 Y3.1548223350253806
G2 X72.80964467005076 Y3.378172588832487 I1.3071065989847717 J-0.3401015228426396
G1 X73.20558375634518 Y4.243654822335025
G2 X73.32741116751268 Y4.4543147208121825 I1.2258883248730965 J-0.5634517766497462
G1 X73.86548223350255 Y5.223350253807107
G2 X74.02791878172589 Y5.416243654822335 I1.1065989847715736 J-0.7741116751269035
G1 X74.68527918781726 Y6.058375634517766
G2 X74.88832487309645 Y6.223350253807106 I0.9441624365482233 J-0.9644670050761421
G1 X75.64467005076142 Y6.715736040609137
G2 X75.88578680203045 Y6.842639593908629 I0.7385786802030457 J-1.1294416243654823
G1 X76.70812182741118 Y7.17005076142132
G2 X76.9771573604061 Y7.246192893401016 I0.49746192893401014 J-1.2538071065989849
G1 X77.84263959390863 Y7.393401015228427
G2 X78.1243654822335 Y7.413705583756345 I0.22842639593908629 J-1.3299492385786802
G1 X78.99746192893402 Y7.378172588832488
G2 X79.27918781725889 Y7.33502538071066 I-0.053299492385786795 J-1.3477157360406091
G1 X80.1269035532995 Y7.119289340101523
G2 X80.38832487309645 Y7.020304568527918 I-0.3350253807106599 J-1.3071065989847717
G1 X81.18527918781726 Y6.629441624365482
G2 X81.41370558375634 Y6.484771573604061 I-0.5989847715736041 J-1.2106598984771573
G1 X82.12690355329948 Y5.931472081218274
G2 X82.31725888324873 Y5.751269035532996 I-0.8274111675126904 J-1.0659898477157361
G1 X82.92131979695432 Y5.055837563451777
G2 X83.06852791878173 Y4.852791878172589 I-1.017766497461929 J-0.8857868020304569
G1 X83.54060913705584 Y4.043147208121828
G2 X83.64467005076142 Y3.8248730964467006 I-1.1649746192893402 J-0.6827411167512689
G1 X83.97208121827411 Y2.9289340101522843
G2 X84.03299492385786 Y2.7005076142131976 I-1.2690355329949239 J-0.4619289340101523
G1 X84.04314720812182 Y2.6421319796954315
G1 X84.63959390862945 Y2.3477157360406093
G1 X84.77664974619289 Y2.3629441624365484
G1 X85.33248730964466 Y2.6954314720812182
G1 X85.33756345177665 Y2.751269035532995
G2 X85.3781725888325 Y2.984771573604061 I1.3451776649746192 J-0.12690355329949238
G1 X85.63197969543147 Y3.903553299492386
G2 X85.71827411167513 Y4.131979695431472 I1.3020304568527918 J-0.35786802030456855
G1 X86.1243654822335 Y4.977157360406092
G2 X86.25634517766498 Y5.190355329949239 I1.215736040609137 J-0.5862944162436547
G1 X86.80203045685278 Y5.931472081218274
G2 X86.97715736040608 Y6.126903553299492 I1.0862944162436547 J-0.8020304568527918
G1 X87.64213197969542 Y6.736040609137056
G2 X87.86040609137055 Y6.898477157360406 I0.9111675126903553 J-0.9949238578680203
G1 X88.62182741116752 Y7.352791878172589
G2 X88.8756345177665 Y7.469543147208122 I0.6928934010152283 J-1.1573604060913705
G1 X89.70304568527919 Y7.756345177664975
G2 X89.97969543147208 Y7.819796954314721 I0.4390862944162437 J-1.2766497461928932
G1 X90.84517766497463 Y7.926395939086294
G2 X91.12944162436548 Y7.928934010152284 I0.16243654822335027 J-1.3401015228426396
G1 X92.00253807106598 Y7.850253807106599
G2 X92.27664974619289 Y7.7969543147208125 I-0.1218274111675127 J-1.3451776649746192
G1 X93.12436548223351 Y7.535532994923858
G2 X93.37563451776649 Y7.431472081218274 I-0.3959390862944162 J-1.2918781725888326
G1 X94.16751269035532 Y7
G2 X94.38324873096447 Y6.852791878172589 I-0.6472081218274112 J-1.1852791878172588
G1 X95.09137055837563 Y6.2639593908629445
G2 X95.26903553299492 Y6.086294416243655 I-0.8629441624365481 J-1.0380710659898478
G1 X95.86802030456853 Y5.362944162436548
G2 X96.00507614213198 Y5.162436548223351 I-1.0406091370558377 J-0.8604060913705585
G1 X96.46954314720813 Y4.32994923857868
G2 X96.56598984771574 Y4.116751269035533 I-1.1776649746192893 J-0.6598984771573604
G1 X96.58629441624365 Y4.060913705583756
G1 X97.05329949238578 Y3.918781725888325
G1 X97.51015228426397 Y4.032994923857868
G1 X97.85025380710661 Y4.319796954314721
G1 X97.84517766497461 Y4.378172588832488
G2 X97.84263959390863 Y4.467005076142132 I1.3477157360406091 J0.09137055837563453
G2 X97.85025380710661 Y4.614213197969543 I1.3502538071065988 J0
G1 X97.95431472081218 Y5.560913705583756
G2 X98 Y5.799492385786802 I1.3426395939086295 J-0.1446700507614213
G1 X98.26649746192894 Y6.697969543147209
G2 X98.36040609137056 Y6.931472081218274 I1.2944162436548223 J-0.383248730964467
G1 X98.78172588832487 Y7.751269035532995
G2 X98.9238578680203 Y7.969543147208121 I1.2005076142131978 J-0.616751269035533
G1 X99.48223350253807 Y8.677664974619288
G2 X99.67005076142131 Y8.873096446700508 I1.0583756345177666 J-0.8375634517766497
G1 X100.34771573604061 Y9.444162436548224
G2 X100.58121827411168 Y9.601522842639593 I0.8705583756345179 J-1.032994923857868
G1 X101.3527918781726 Y10.01522842639594
G2 X101.61675126903553 Y10.124365482233502 I0.6395939086294417 J-1.1903553299492384
G1 X102.45431472081219 Y10.365482233502538
G2 X102.73350253807106 Y10.416243654822335 I0.3756345177664975 J-1.296954314720812
G1 X103.60659898477158 Y10.47969543147208
G2 X103.88578680203045 Y10.469543147208123 I0.09644670050761422 J-1.3477157360406091
G1 X104.76649746192894 Y10.34771573604061
G2 X105.03045685279189 Y10.284263959390863 I-0.18274111675126906 J-1.3375634517766497
G1 X105.88071065989848 Y9.98477157360406
G2 X106.11928934010152 Y9.875634517766498 I-0.4467005076142132 J-1.2741116751269035
G1 X106.91116751269035 Y9.408629441624365
G2 X107.11675126903555 Y9.261421319796954 I-0.6852791878172588 J-1.1624365482233503
G1 X107.81979695431473 Y8.642131979695431
G2 X107.98730964467005 Y8.467005076142133 I-0.8908629441624366 J-1.015228426395939
G1 X108.58121827411168 Y7.720812182741117
G2 X108.71319796954316 Y7.522842639593908 I-1.0558375634517767 J-0.8401015228426396
G1 X108.73857868020303 Y7.474619289340102
G1 X109.1040609137056 Y7.4238578680203045
G1 X109.7258883248731 Y7.6725888324873095
G1 X109.94416243654823 Y7.931472081218274
G1 X109.93147208121827 Y7.9873096446700504
G2 X109.8984771573604 Y8.220812182741117 I1.3147208121827412 J0.30456852791878175
G1 X109.84771573604061 Y9.17258883248731
G2 X109.84517766497461 Y9.243654822335026 I1.3477157360406091 J0.07106598984771574
G2 X109.85786802030458 Y9.416243654822335 I1.3502538071065988 J0
G1 X109.9771573604061 Y10.34771573604061
G2 X110.03045685279189 Y10.591370558375635 I1.3401015228426396 J-0.1700507614213198
G1 X110.31472081218274 Y11.467005076142131
G2 X110.41878172588832 Y11.705583756345177 I1.2842639593908631 J-0.416243654822335
G1 X110.85786802030456 Y12.49492385786802
G2 X111.01269035532995 Y12.718274111675127 I1.1802030456852792 J-0.6548223350253807
G1 X111.59137055837563 Y13.390862944162436
G2 X111.79441624365482 Y13.583756345177665 I1.0228426395939085 J-0.8807106598984772
G1 X112.48730964467006 Y14.116751269035532
G2 X112.73096446700508 Y14.263959390862944 I0.8223350253807106 J-1.0710659898477157
G1 X113.5203045685279 Y14.639593908629443
G2 X113.78680203045684 Y14.733502538071066 I0.5786802030456852 J-1.2208121827411167
G1 X114.63959390862945 Y14.934010152284266
G2 X114.91878172588832 Y14.969543147208121 I0.30964467005076146 J-1.3147208121827412
G1 X115.80456852791878 Y14.992385786802028
G2 X116.0761421319797 Y14.972081218274111 I0.03299492385786802 J-1.3502538071065988
G1 X116.96192893401016 Y14.81218274111675
G2 X117.21573604060914 Y14.741116751269034 I-0.23857868020304568 J-1.3299492385786802
G1 X118.07360406091371 Y14.408629441624365
G2 X118.29695431472081 Y14.294416243654823 I-0.48984771573604063 J-1.2588832487309645
G1 X119.09390862944163 Y13.799492385786802
G2 X119.28680203045685 Y13.652284263959391 I-0.7131979695431472 J-1.1446700507614214
G1 X119.99238578680203 Y13.010152284263958
G2 X120.15228426395939 Y12.83756345177665 I-0.9086294416243655 J-0.9974619289340102
G1 X120.18781725888324 Y12.791878172588833
G1 X120.50507614213197 Y12.799492385786802
G1 X121.13959390862945 Y13.16497461928934
G1 X121.30456852791879 Y13.436548223350254
G1 X121.28172588832487 Y13.48984771573604
G2 X121.21065989847716 Y13.715736040609137 I1.248730964467005 J0.5126903553299492
G1 X121.01015228426397 Y14.647208121827411
G2 X120.97969543147208 Y14.888324873096446 I1.3197969543147208 J0.2868020304568528
G1 X120.94670050761421 Y15.824873096446701
G2 X120.94670050761421 Y15.870558375634518 I1.3502538071065988 J0.045685279187817264
G2 X120.96192893401016 Y16.076142131979697 I1.3502538071065988 J0
G1 X121.1015228426396 Y16.98477157360406
G2 X121.16751269035532 Y17.238578680203045 I1.3350253807106598 J-0.20304568527918782
G1 X121.4746192893401 Y18.088832487309645
G2 X121.59137055837563 Y18.33248730964467 I1.2690355329949239 J-0.4593908629441624
G1 X122.05329949238578 Y19.088832487309645
G2 X122.2233502538071 Y19.312182741116754 I1.1522842639593909 J-0.7030456852791878
G1 X122.82487309644671 Y19.949238578680205
G2 X123.03807106598984 Y20.13451776649746 I0.9822335025380711 J-0.9263959390862944
G1 X123.75634517766498 Y20.62944162436548
G2 X124.00761421319797 Y20.766497461928935 I0.766497461928934 J-1.1116751269035532
G1 X124.81472081218274 Y21.101522842639593
G2 X125.08375634517768 Y21.18274111675127 I0.5177664974619289 J-1.2461928934010151
G1 X125.95685279187818 Y21.345177664974617
G2 X126.2258883248731 Y21.368020304568528 I0.24873096446700507 J-1.3274111675126905
G1 X127.12944162436548 Y21.35279187817259
G2 X127.38832487309645 Y21.3248730964467 I-0.020304568527918784 J-1.3502538071065988
G1 X128.28680203045684 Y21.131979695431472
G2 X128.52791878172587 Y21.058375634517766 I-0.2817258883248731 J-1.3197969543147208
G1 X129.39340101522842 Y20.69543147208122
G2 X129.60913705583755 Y20.581218274111674 I-0.5203045685279188 J-1.2461928934010151
G1 X130.40862944162436 Y20.060913705583758
G2 X130.59390862944161 Y19.916243654822335 I-0.7360406091370558 J-1.131979695431472
G1 X130.63451776649745 Y19.8756345177665
G1 X130.96954314720813 Y19.939086294416242
G1 X131.49492385786803 Y20.3502538071066
G1 X131.63451776649745 Y20.690355329949238
G1 X131.60406091370558 Y20.741116751269036
G2 X131.497461928934 Y20.951776649746193 I1.1497461928934012 J0.7055837563451777
G1 X131.1497461928934 Y21.84010152284264
G2 X131.08121827411168 Y22.07360406091371 I1.2563451776649746 J0.49492385786802034
G1 X130.8984771573604 Y22.992385786802032
G2 X130.87309644670052 Y23.243654822335028 I1.3248730964467004 J0.2614213197969543
G1 X130.86548223350255 Y24.16751269035533
G1 X130.86548223350255 Y24.175126903553302
G2 X130.88832487309645 Y24.423857868020306 I1.3502538071065988 J0
G1 X131.05329949238578 Y25.30964467005076
G2 X131.13197969543148 Y25.571065989847718 I1.3274111675126905 J-0.24873096446700507
G1 X131.46700507614213 Y26.393401015228427
G2 X131.5964467005076 Y26.63705583756345 I1.248730964467005 J-0.5101522842639594
G1 X132.08629441624365 Y27.36294416243655
G2 X132.2715736040609 Y27.581218274111677 I1.119289340101523 J-0.7563451776649746
G1 X132.9010152284264 Y28.18781725888325
G2 X133.12436548223351 Y28.36040609137056 I0.9340101522842639 J-0.9746192893401016
G1 X133.87055837563452 Y28.82233502538071
G2 X134.12182741116752 Y28.944162436548222 I0.7106598984771574 J-1.1472081218274113
G1 X134.9568527918782 Y29.243654822335024
G2 X135.22081218274113 Y29.309644670050762 I0.4593908629441624 J-1.2690355329949239
G1 X136.11167512690355 Y29.441624365482234
G2 X136.37309644670052 Y29.45431472081218 I0.1954314720812183 J-1.3350253807106598
G1 X137.29187817258884 Y29.408629441624367
G2 X137.54060913705584 Y29.373096446700508 I-0.06598984771573604 J-1.3477157360406091
G1 X138.4543147208122 Y29.15482233502538
G2 X138.6827411167513 Y29.076142131979697 I-0.3147208121827411 J-1.3121827411167515
G1 X139.55583756345177 Y28.692893401015226
G2 X139.76395939086296 Y28.578680203045685 I-0.5456852791878173 J-1.236040609137056
G1 X139.81218274111677 Y28.545685279187815
G1 X140.2309644670051 Y28.695431472081218
G1 X140.55583756345177 Y29.035532994923855
G1 X140.66497461928935 Y29.51015228426396
G1 X140.62690355329948 Y29.553299492385786
G2 X140.48984771573603 Y29.746192893401012 I1.0228426395939085 J0.8807106598984772
G1 X140.002538071066 Y30.565989847715738
G2 X139.8984771573604 Y30.784263959390863 I1.1598984771573604 J0.6903553299492386
G1 X139.57106598984774 Y31.66497461928934
G2 X139.50507614213197 Y31.906091370558375 I1.266497461928934 J0.46954314720812185
G1 X139.3502538071066 Y32.81218274111675
G2 X139.32994923857868 Y33.04060913705584 I1.3299492385786802 J0.22842639593908629
G2 X139.32994923857868 Y33.0736040609137 I1.3502538071065988 J0
G1 X139.35279187817258 Y33.97715736040609
G2 X139.38578680203045 Y34.246192893401016 I1.3502538071065988 J-0.03299492385786802
G1 X139.58629441624365 Y35.109137055837564
G2 X139.6751269035533 Y35.3756345177665 I1.3147208121827412 J-0.3020304568527919
G1 X140.0431472081218 Y36.17005076142132
G2 X140.19035532994923 Y36.41370558375635 I1.2258883248730965 J-0.565989847715736
G1 X140.71319796954316 Y37.11167512690355
G2 X140.90609137055839 Y37.31979695431472 I1.0786802030456852 J-0.8096446700507615
G1 X141.56852791878174 Y37.89340101522843
G2 X141.7969543147208 Y38.055837563451774 I0.8857868020304569 J-1.017766497461929
G1 X142.5736040609137 Y38.48477157360406
G2 X142.8223350253807 Y38.59390862944162 I0.6573604060913706 J-1.1802030456852792
G1 X143.6827411167513 Y38.86548223350254
G2 X143.93908629441623 Y38.91878172588832 I0.40609137055837563 J-1.2868020304568528
G1 X144.85279187817258 Y39.022842639593904
G2 X145.10406091370558 Y39.02791878172589 I0.15228426395939088 J-1.3426395939086295
G1 X146.04060913705584 Y38.95685279187817
G2 X146.2791878172589 Y38.91878172588832 I-0.10152284263959391 J-1.3451776649746192
G1 X147.2030456852792 Y38.67766497461929
G2 X147.4238578680203 Y38.598984771573605 I-0.3401015228426396 J-1.3071065989847717
G1 X147.4771573604061 Y38.57360406091371
G1 X148.04314720812184 Y38.888324873096444
G1 X148.12436548223351 Y39
G1 X148.16751269035532 Y39.66497461928934
G1 X148.12182741116752 Y39.7005076142132
G2 X147.95431472081216 Y39.86802030456853 I0.868020304568528 J1.0355329949238579
G1 X147.34263959390861 Y40.598984771573605
G2 X147.2030456852792 Y40.799492385786806 I1.0355329949238579 J0.868020304568528
G1 X146.74111675126903 Y41.61421319796954
G2 X146.63705583756345 Y41.84263959390863 I1.1725888324873095 J0.6675126903553299
G1 X146.33756345177665 Y42.71319796954315
G2 X146.2766497461929 Y42.96700507614213 I1.2766497461928932 J0.4390862944162437
G1 X146.1548223350254 Y43.86040609137056
G2 X146.14213197969542 Y44.04568527918782 I1.3375634517766497 J0.18527918781725888
G2 X146.14467005076142 Y44.131979695431475 I1.3502538071065988 J0
G1 X146.2005076142132 Y45.017766497461935
G2 X146.248730964467 Y45.29441624365482 I1.3477157360406091 J-0.08629441624365483
G1 X146.48477157360406 Y46.13705583756345
G2 X146.58883248730965 Y46.4010152284264 I1.2994923857868022 J-0.3629441624365482
G1 X146.99238578680203 Y47.172588832487314
G2 X147.1522842639594 Y47.411167512690355 I1.1954314720812182 J-0.6269035532994924
G1 X147.71319796954313 Y48.08375634517766
G2 X147.91370558375635 Y48.27918781725888 I1.0380710659898478 J-0.8629441624365481
G1 X148.60913705583758 Y48.82994923857868
G2 X148.83756345177665 Y48.974619289340104 I0.8375634517766497 J-1.0583756345177666
G1 X149.64213197969545 Y49.38071065989848
G2 X149.88578680203045 Y49.477157360406096 I0.6091370558375635 J-1.2055837563451777
G1 X150.7741116751269 Y49.72335025380711
G2 X151.0203045685279 Y49.76903553299493 I0.3654822335025381 J-1.2994923857868022
G1 X151.9543147208122 Y49.8502538071066
G2 X152.1979695431472 Y49.8502538071066 I0.11675126903553298 J-1.3451776649746192
G1 X153.14720812182742 Y49.76142131979695
G2 X153.37817258883248 Y49.71827411167513 I-0.12690355329949238 J-1.3451776649746192
G1 X153.43401015228426 Y49.703045685279186
G1 X153.88071065989848 Y50.055837563451774
G1 X153.99238578680203 Y50.35786802030457
G1 X153.94162436548223 Y50.88832487309645
G1 X153.89086294416242 Y50.91878172588832
G2 X153.6979695431472 Y51.055837563451774 I0.6903553299492386 J1.1598984771573604
G1 X152.9771573604061 Y51.68020304568528
G2 X152.80964467005074 Y51.85532994923858 I0.883248730964467 J1.0228426395939085
G1 X152.21827411167513 Y52.58375634517766
G2 X152.07868020304568 Y52.79441624365482 I1.050761421319797 J0.8477157360406091
G1 X151.64467005076142 Y53.60659898477158
G2 X151.5456852791878 Y53.84771573604061 I1.1903553299492384 J0.6370558375634517
G1 X151.28172588832487 Y54.70812182741117
G2 X151.2284263959391 Y54.977157360406096 I1.2893401015228425 J0.3959390862944162
G1 X151.14213197969542 Y55.857868020304565
G2 X151.13705583756345 Y55.98730964467005 I1.3426395939086295 J0.12944162436548223
G2 X151.14467005076142 Y56.13705583756345 I1.3502538071065988 J0
G1 X151.24111675126903 Y57.00761421319797
G2 X151.3020304568528 Y57.28680203045685 I1.3426395939086295 J-0.14974619289340102
G1 X151.57868020304568 Y58.11421319796955
G2 X151.69796954314722 Y58.37309644670051 I1.281725888324873 J-0.42639593908629436
G1 X152.14213197969545 Y59.12690355329949
G2 X152.30964467005077 Y59.35279187817259 I1.1624365482233503 J-0.6878172588832487
G1 X152.90609137055836 Y60.00507614213198
G2 X153.10913705583755 Y60.18781725888325 I0.9974619289340102 J-0.9111675126903553
G1 X153.84010152284264 Y60.71827411167512
G2 X154.06345177664974 Y60.850253807106604 I0.7944162436548223 J-1.0913705583756346
G1 X154.8984771573604 Y61.23857868020305
G2 X155.13705583756345 Y61.32233502538071 I0.5685279187817259 J-1.2233502538071066
G1 X156.0456852791878 Y61.55076142131979
G2 X156.28680203045684 Y61.588832487309645 I0.3299492385786802 J-1.3096446700507614
G1 X157.23604060913706 Y61.65482233502538
G2 X157.4720812182741 Y61.649746192893396 I0.09137055837563453 J-1.3477157360406091
G1 X157.53045685279187 Y61.64467005076142
G1 X157.81472081218274 Y61.954314720812185
G1 X157.93654822335026 Y62.52791878172589
G1 X157.84010152284264 Y62.89593908629442
G1 X157.78426395939084 Y62.91624365482234
G2 X157.5736040609137 Y63.022842639593904 I0.49492385786802034 J1.2563451776649746
G1 X156.76142131979697 Y63.52030456852792
G2 X156.56598984771574 Y63.66751269035533 I0.7055837563451777 J1.1497461928934012
G1 X155.86802030456855 Y64.29187817258884
G2 X155.69796954314722 Y64.4771573604061 I0.901015228426396 J1.0050761421319796
G1 X155.13959390862942 Y65.20812182741116
G2 X155 Y65.42893401015229 I1.0710659898477157 J0.8197969543147209
G1 X154.60152284263958 Y66.23857868020305
G2 X154.50507614213197 Y66.49238578680203 I1.2106598984771573 J0.5989847715736041
G1 X154.27918781725887 Y67.3502538071066
G2 X154.23604060913706 Y67.62944162436548 I1.3045685279187818 J0.3451776649746193
G1 X154.19289340101523 Y68.50253807106598
G2 X154.19289340101523 Y68.57106598984772 I1.3477157360406091 J0.06598984771573604
G2 X154.21065989847716 Y68.78680203045685 I1.3502538071065988 J0
G1 X154.3502538071066 Y69.64720812182742
G2 X154.42385786802032 Y69.92131979695431 I1.33248730964467 J-0.21573604060913704
G1 X154.74111675126903 Y70.73857868020305
G2 X154.87055837563452 Y70.98730964467005 I1.2588832487309645 J-0.48984771573604063
G1 X155.35786802030455 Y71.72842639593908
G2 X155.52791878172587 Y71.93908629441624 I1.1294416243654823 J-0.7385786802030457
G1 X156.16243654822335 Y72.58121827411168
G2 X156.36294416243655 Y72.748730964467 I0.9593908629441625 J-0.9492385786802031
G1 X157.12690355329948 Y73.26395939086295
G2 X157.3477157360406 Y73.38578680203045 I0.7563451776649746 J-1.116751269035533
G1 X158.20812182741116 Y73.75634517766497
G2 X158.43654822335026 Y73.83248730964466 I0.5355329949238579 J-1.2385786802030458
G1 X159.36548223350255 Y74.05076142131979
G2 X159.5989847715736 Y74.08375634517766 I0.3071065989847716 J-1.3147208121827412
G1 X159.65736040609136 Y74.08629441624366
G1 X159.84010152284264 Y74.36548223350255
G1 X159.89086294416242 Y75.08121827411168
G1 X159.76142131979697 Y75.37055837563452
G1 X159.7030456852792 Y75.38324873096447
G2 X159.47969543147207 Y75.45431472081218 I0.2868020304568528 J1.3197969543147208
G1 X158.5964467005076 Y75.81725888324873
G2 X158.38324873096445 Y75.92893401015229 I0.5126903553299492 J1.248730964467005
G1 X157.59390862944161 Y76.43401015228426
G2 X157.39340101522842 Y76.58883248730965 I0.7284263959390863 J1.1370558375634519
G1 X156.7258883248731 Y77.22081218274111
G2 X156.5532994923858 Y77.41624365482234 I0.9263959390862944 J0.9822335025380711
G1 X156.02791878172587 Y78.15228426395939
G2 X155.89340101522845 Y78.38832487309645 I1.098984771573604 J0.7842639593908629
G1 X155.53299492385787 Y79.19796954314721
G2 X155.44670050761422 Y79.46446700507614 I1.233502538071066 J0.5482233502538071
G1 X155.26395939086294 Y80.32233502538071
G2 X155.23350253807106 Y80.60406091370558 I1.3197969543147208 J0.2817258883248731
G1 X155.23350253807106 Y81.4771573604061
G2 X155.26395939086294 Y81.75888324873097 I1.3502538071065988 J0
G1 X155.44670050761422 Y82.61421319796953
G2 X155.53299492385787 Y82.88071065989847 I1.3197969543147208 J-0.2817258883248731
G1 X155.89340101522845 Y83.69035532994923
G2 X156.02791878172587 Y83.92893401015229 I1.233502538071066 J-0.5482233502538071
G1 X156.5532994923858 Y84.66243654822335
G2 X156.7258883248731 Y84.85786802030458 I1.098984771573604 J-0.7842639593908629
G1 X157.39340101522842 Y85.48984771573603
G2 X157.59390862944161 Y85.64467005076142 I0.9263959390862944 J-0.9822335025380711
G1 X158.38324873096445 Y86.15228426395939
G2 X158.5964467005076 Y86.26395939086294 I0.7284263959390863 J-1.1370558375634519
G1 X159.47969543147207 Y86.6269035532995
G2 X159.7030456852792 Y86.69543147208122 I0.5126903553299492 J-1.248730964467005
G1 X159.76142131979697 Y86.70812182741116
G1 X159.89086294416242 Y87
G1 X159.84010152284264 Y87.71573604060913
G1 X159.65736040609136 Y87.99492385786803
G1 X159.5989847715736 Y87.99746192893402
G2 X159.36548223350255 Y88.03045685279187 I0.07360406091370558 J1.3477157360406091
G1 X158.43654822335026 Y88.24619289340103
G2 X158.20812182741116 Y88.32233502538071 I0.3071065989847716 J1.3147208121827412
G1 X157.3477157360406 Y88.69543147208121
G2 X157.12690355329948 Y88.81725888324873 I0.5355329949238579 J1.2385786802030458
G1 X156.36294416243655 Y89.33248730964466
G2 X156.16243654822335 Y89.5 I0.7563451776649746 J1.116751269035533
G1 X155.52791878172587 Y90.13959390862944
G2 X155.35786802030455 Y90.35025380710661 I0.9593908629441625 J0.9492385786802031
G1 X154.87055837563452 Y91.09390862944161
G2 X154.74111675126903 Y91.34263959390863 I1.1294416243654823 J0.7385786802030457
G1 X154.42385786802032 Y92.15989847715736
G2 X154.3502538071066 Y92.43147208121827 I1.2588832487309645 J0.48984771573604063
G1 X154.21065989847716 Y93.29441624365484
G2 X154.19289340101523 Y93.51015228426397 I1.33248730964467 J0.21573604060913704
G2 X154.19289340101523 Y93.5761421319797 I1.3502538071065988 J0
G1 X154.23604060913706 Y94.4517766497462
G2 X154.27918781725887 Y94.72842639593908 I1.3477157360406091 J-0.06598984771573604
G1 X154.50507614213197 Y95.58629441624365
G2 X154.60152284263958 Y95.84263959390864 I1.3045685279187818 J-0.3451776649746193
G1 X155 Y96.6497461928934
G2 X155.13959390862942 Y96.87309644670052 I1.2106598984771573 J-0.5989847715736041
G1 X155.69796954314722 Y97.6015228426396
G2 X155.86802030456855 Y97.78680203045684 I1.0710659898477157 J-0.8197969543147209
G1 X156.56598984771574 Y98.41370558375635
G2 X156.76142131979697 Y98.55837563451777 I0.901015228426396 J-1.0050761421319796
G1 X157.5736040609137 Y99.05837563451776
G2 X157.78426395939084 Y99.16243654822335 I0.7055837563451777 J-1.1497461928934012
G1 X157.84010152284264 Y99.18527918781726
G1 X157.93654822335026 Y99.55329949238578
G1 X157.81472081218274 Y100.1269035532995
G1 X157.53045685279187 Y100.43654822335026
G1 X157.4746192893401 Y100.42893401015228
G2 X157.23604060913706 Y100.4263959390863 I-0.1446700507614213 J1.3426395939086295
G1 X156.28426395939087 Y100.48984771573603
G2 X156.0456852791878 Y100.52791878172587 I0.09137055837563453 J1.3477157360406091
G1 X155.13705583756345 Y100.75888324873097
G2 X154.8984771573604 Y100.84263959390864 I0.3299492385786802 J1.3096446700507614
G1 X154.06598984771574 Y101.23096446700508
G2 X153.84010152284264 Y101.36294416243655 I0.5685279187817259 J1.2233502538071066
G1 X153.10913705583755 Y101.89086294416244
G2 X152.90609137055836 Y102.0736040609137 I0.7918781725888324 J1.0913705583756346
G1 X152.30710659898477 Y102.7284263959391
G2 X152.14213197969545 Y102.9517766497462 I0.9974619289340102 J0.9111675126903553
G1 X151.69796954314722 Y103.70558375634518
G2 X151.57868020304568 Y103.96700507614213 I1.1624365482233503 J0.6878172588832487
G1 X151.3020304568528 Y104.79441624365481
G2 X151.24111675126903 Y105.07106598984771 I1.281725888324873 J0.42639593908629436
G1 X151.14467005076142 Y105.94162436548224
G2 X151.13705583756345 Y106.09137055837563 I1.3426395939086295 J0.14974619289340102
G2 X151.14213197969542 Y106.22081218274111 I1.3502538071065988 J0
G1 X151.2284263959391 Y107.10406091370558
G2 X151.28172588832487 Y107.37055837563452 I1.3426395939086295 J-0.12944162436548223
G1 X151.5456852791878 Y108.23350253807106
G2 X151.64467005076142 Y108.4746192893401 I1.2893401015228425 J-0.3959390862944162
G1 X152.07868020304568 Y109.28426395939086
G2 X152.21827411167513 Y109.49492385786803 I1.1903553299492384 J-0.6370558375634517
G1 X152.80964467005074 Y110.2258883248731
G2 X152.9771573604061 Y110.4010152284264 I1.050761421319797 J-0.8477157360406091
G1 X153.6979695431472 Y111.0228426395939
G2 X153.89086294416242 Y111.15989847715737 I0.8807106598984772 J-1.0228426395939085
G1 X153.93908629441623 Y111.19035532994923
G1 X153.99238578680203 Y111.72081218274113
G1 X153.88071065989848 Y112.02538071065989
G1 X153.43401015228426 Y112.37817258883248
G1 X153.37817258883248 Y112.36040609137056
G2 X153.14720812182742 Y112.31979695431471 I-0.35786802030456855 J1.3020304568527918
G1 X152.1979695431472 Y112.23096446700508
G2 X151.9543147208122 Y112.22842639593908 I-0.12690355329949238 J1.3451776649746192
G1 X151.0203045685279 Y112.30964467005077
G2 X150.7741116751269 Y112.35532994923858 I0.11675126903553298 J1.3451776649746192
G1 X149.88832487309645 Y112.60406091370558
G2 X149.64213197969545 Y112.69796954314721 I0.3629441624365482 J1.2994923857868022
G1 X148.83756345177665 Y113.10659898477157
G2 X148.60913705583758 Y113.25126903553299 I0.6091370558375635 J1.2055837563451777
G1 X147.91370558375635 Y113.80203045685279
G2 X147.71319796954313 Y113.99492385786802 I0.8375634517766497 J1.0583756345177666
G1 X147.1522842639594 Y114.67005076142131
G2 X146.99238578680203 Y114.90609137055839 I1.0380710659898478 J0.8654822335025381
G1 X146.58883248730965 Y115.68020304568527
G2 X146.48477157360406 Y115.94162436548224 I1.1954314720812182 J0.6269035532994924
G1 X146.248730964467 Y116.78680203045685
G2 X146.2005076142132 Y117.06345177664974 I1.2994923857868022 J0.3629441624365482
G1 X146.14467005076142 Y117.94923857868021
G2 X146.14213197969542 Y118.03553299492386 I1.3477157360406091 J0.08629441624365483
G2 X146.1548223350254 Y118.21827411167513 I1.3502538071065988 J0
G1 X146.2766497461929 Y119.11167512690355
G2 X146.33756345177665 Y119.36802030456853 I1.3375634517766497 J-0.18527918781725888
G1 X146.63705583756345 Y120.23604060913705
G2 X146.73857868020303 Y120.46446700507614 I1.2766497461928932 J-0.4390862944162437
G1 X147.2030456852792 Y121.28172588832487
G2 X147.34263959390861 Y121.48223350253808 I1.1725888324873095 J-0.6675126903553299
G1 X147.95431472081216 Y122.21065989847716
G2 X148.12182741116752 Y122.37817258883248 I1.0355329949238579 J-0.868020304568528
G1 X148.16751269035532 Y122.41624365482232
G1 X148.12436548223351 Y123.08121827411168
G1 X148.04314720812184 Y123.19035532994924
G1 X147.4771573604061 Y123.50507614213198
G1 X147.4238578680203 Y123.48223350253807
G2 X147.2030456852792 Y123.40355329949239 I-0.5609137055837563 J1.2284263959390864
G1 X146.2791878172589 Y123.16243654822335
G2 X146.04060913705584 Y123.12182741116752 I-0.3401015228426396 J1.3071065989847717
G1 X145.10406091370558 Y123.05329949238578
G2 X144.85279187817258 Y123.05837563451776 I-0.10152284263959391 J1.3451776649746192
G1 X143.93908629441623 Y123.15989847715736
G2 X143.6827411167513 Y123.21573604060914 I0.15228426395939088 J1.3426395939086295
G1 X142.8223350253807 Y123.48730964467006
G2 X142.5736040609137 Y123.59390862944161 I0.40609137055837563 J1.2868020304568528
G1 X141.7969543147208 Y124.0253807106599
G2 X141.56852791878174 Y124.18781725888324 I0.6573604060913706 J1.1802030456852792
G1 X140.90609137055839 Y124.76142131979697
G2 X140.71319796954316 Y124.96954314720811 I0.8857868020304569 J1.017766497461929
G1 X140.19035532994923 Y125.66497461928934
G2 X140.0431472081218 Y125.91116751269035 I1.0786802030456852 J0.8121827411167513
G1 X139.6751269035533 Y126.70558375634516
G2 X139.58629441624365 Y126.96954314720813 I1.2258883248730965 J0.565989847715736
G1 X139.38578680203045 Y127.83502538071065
G2 X139.35279187817258 Y128.10406091370558 I1.3147208121827412 J0.3020304568527919
G1 X139.32994923857868 Y129.005076142132
G2 X139.32994923857868 Y129.03807106598984 I1.3502538071065988 J0.03299492385786802
G2 X139.3502538071066 Y129.26649746192894 I1.3502538071065988 J0
G1 X139.50507614213197 Y130.1751269035533
G2 X139.57106598984774 Y130.41624365482232 I1.3299492385786802 J-0.22842639593908629
G1 X139.8984771573604 Y131.2944162436548
G2 X140.002538071066 Y131.51269035532994 I1.266497461928934 J-0.46954314720812185
G1 X140.48984771573603 Y132.33248730964468
G2 X140.62690355329948 Y132.5253807106599 I1.1598984771573604 J-0.6903553299492386
G1 X140.66497461928935 Y132.5710659898477
G1 X140.55583756345177 Y133.0456852791878
G1 X140.2309644670051 Y133.38324873096445
G1 X139.81218274111677 Y133.53553299492387
G1 X139.76395939086296 Y133.502538071066
G2 X139.55583756345177 Y133.38832487309645 I-0.7538071065989848 J1.119289340101523
G1 X138.6827411167513 Y133.00253807106597
G2 X138.4543147208122 Y132.9263959390863 I-0.5456852791878173 J1.236040609137056
G1 X137.54060913705584 Y132.7055837563452
G2 X137.29187817258884 Y132.67005076142132 I-0.3147208121827411 J1.3121827411167515
G1 X136.37309644670052 Y132.62690355329948
G2 X136.11167512690355 Y132.63959390862942 I-0.06598984771573604 J1.3477157360406091
G1 X135.21827411167513 Y132.76903553299493
G2 X134.9568527918782 Y132.83502538071065 I0.1954314720812183 J1.3350253807106598
G1 X134.12182741116752 Y133.13705583756345
G2 X133.87055837563452 Y133.25888324873097 I0.4593908629441624 J1.2690355329949239
G1 X133.12690355329948 Y133.71827411167513
G2 X132.9010152284264 Y133.89340101522842 I0.7106598984771574 J1.1472081218274113
G1 X132.2715736040609 Y134.49746192893403
G2 X132.08629441624365 Y134.71827411167513 I0.9340101522842639 J0.9746192893401016
G1 X131.5964467005076 Y135.44416243654823
G2 X131.46700507614213 Y135.68781725888326 I1.119289340101523 J0.7563451776649746
G1 X131.13197969543148 Y136.51015228426394
G2 X131.05329949238578 Y136.7715736040609 I1.248730964467005 J0.5101522842639594
G1 X130.88832487309645 Y137.65736040609139
G2 X130.86548223350255 Y137.90609137055836 I1.3274111675126905 J0.24873096446700507
G1 X130.86548223350255 Y137.91116751269035
G1 X130.87309644670052 Y138.83756345177665
G2 X130.8984771573604 Y139.08629441624365 I1.3502538071065988 J-0.012690355329949238
G1 X131.08121827411168 Y140.00761421319797
G2 X131.1497461928934 Y140.24111675126903 I1.3248730964467004 J-0.2614213197969543
G1 X131.497461928934 Y141.12690355329948
G2 X131.60406091370558 Y141.34010152284264 I1.2563451776649746 J-0.49492385786802034
G1 X131.63451776649745 Y141.38832487309645
G1 X131.49492385786803 Y141.73096446700507
G1 X130.96954314720813 Y142.14213197969545
G1 X130.63451776649745 Y142.2030456852792
G1 X130.59390862944161 Y142.16497461928935
G2 X130.40862944162436 Y142.01776649746193 I-0.9213197969543147 J0.9873096446700508
G1 X129.60913705583755 Y141.5
G2 X129.39340101522842 Y141.38578680203045 I-0.7360406091370558 J1.131979695431472
G1 X128.52791878172587 Y141.0228426395939
G2 X128.28934010152284 Y140.9492385786802 I-0.5203045685279188 J1.2461928934010151
G1 X127.38832487309645 Y140.75634517766497
G2 X127.12944162436548 Y140.7258883248731 I-0.2817258883248731 J1.3197969543147208
G1 X126.2284263959391 Y140.71065989847716
G2 X125.95685279187818 Y140.73350253807106 I-0.022842639593908632 J1.3502538071065988
G1 X125.08375634517768 Y140.8984771573604
G2 X124.81472081218274 Y140.97969543147207 I0.24873096446700507 J1.3274111675126905
G1 X124.00761421319797 Y141.31472081218274
G2 X123.75634517766498 Y141.4517766497462 I0.5177664974619289 J1.2461928934010151
G1 X123.03807106598984 Y141.94670050761422
G2 X122.82487309644671 Y142.13197969543148 I0.766497461928934 J1.1116751269035532
G1 X122.2233502538071 Y142.76903553299493
G2 X122.05329949238578 Y142.98984771573603 I0.9822335025380711 J0.9263959390862944
G1 X121.59137055837563 Y143.748730964467
G2 X121.4746192893401 Y143.99238578680203 I1.1522842639593909 J0.7030456852791878
G1 X121.16751269035532 Y144.84010152284264
G2 X121.1015228426396 Y145.0964467005076 I1.2690355329949239 J0.4593908629441624
G1 X120.96192893401016 Y146.00507614213197
G2 X120.94670050761421 Y146.20812182741116 I1.3350253807106598 J0.20304568527918782
G2 X120.94670050761421 Y146.25634517766497 I1.3502538071065988 J0
G1 X120.97969543147208 Y147.19289340101523
G2 X121.01015228426397 Y147.4314720812183 I1.3502538071065988 J-0.045685279187817264
G1 X121.21065989847716 Y148.36548223350255
G2 X121.28172588832487 Y148.59137055837562 I1.3197969543147208 J-0.2868020304568528
G1 X121.30456852791879 Y148.64467005076142
G1 X121.13959390862945 Y148.91370558375633
G1 X120.50507614213197 Y149.28172588832487
G1 X120.18781725888324 Y149.28934010152284
G1 X120.15228426395939 Y149.24111675126903
G2 X119.99238578680203 Y149.06852791878174 I-1.0685279187817258 J0.8248730964467005
G1 X119.28680203045685 Y148.4289340101523
G2 X119.09390862944163 Y148.28172588832487 I-0.9086294416243655 J1
G1 X118.29695431472081 Y147.78426395939084
G2 X118.07106598984772 Y147.67258883248732 I-0.7157360406091371 J1.1446700507614214
G1 X117.21319796954316 Y147.33756345177665
G2 X116.96446700507614 Y147.2690355329949 I-0.4873096446700508 J1.2588832487309645
G1 X116.0761421319797 Y147.10913705583755
G2 X115.80456852791878 Y147.08883248730965 I-0.23857868020304568 J1.3299492385786802
G1 X114.91878172588832 Y147.11167512690355
G2 X114.64213197969544 Y147.14720812182742 I0.03299492385786802 J1.3502538071065988
G1 X113.78934010152284 Y147.3477157360406
G2 X113.5203045685279 Y147.44162436548223 I0.30964467005076146 J1.3147208121827412
G1 X112.73096446700508 Y147.81472081218274
G2 X112.48984771573603 Y147.96446700507613 I0.5786802030456852 J1.2208121827411167
G1 X111.79441624365482 Y148.497461928934
G2 X111.59137055837563 Y148.68781725888326 I0.8223350253807106 J1.0710659898477157
G1 X111.01269035532995 Y149.36294416243655
G2 X110.85786802030456 Y149.58629441624365 I1.0253807106598984 J0.8807106598984772
G1 X110.41878172588832 Y150.37309644670052
G2 X110.31472081218274 Y150.61421319796955 I1.1802030456852792 J0.6548223350253807
G1 X110.03045685279189 Y151.48984771573603
G2 X109.9771573604061 Y151.73350253807106 I1.2842639593908631 J0.416243654822335
G1 X109.85786802030458 Y152.66497461928932
G2 X109.84517766497461 Y152.83502538071065 I1.3401015228426396 J0.17258883248730966
G2 X109.84771573604061 Y152.90862944162436 I1.3502538071065988 J0
G1 X109.8984771573604 Y153.86040609137055
G2 X109.93147208121827 Y154.09390862944161 I1.3477157360406091 J-0.07106598984771574
G1 X109.94416243654823 Y154.14974619289342
G1 X109.7258883248731 Y154.40609137055839
G1 X109.1040609137056 Y154.65736040609136
G1 X108.73857868020303 Y154.60659898477158
G1 X108.71319796954316 Y154.55583756345177
G2 X108.58121827411168 Y154.35786802030458 I-1.1878172588832487 J0.6421319796954316
G1 X107.98730964467005 Y153.61167512690355
G2 X107.81979695431473 Y153.43908629441626 I-1.0558375634517767 J0.8401015228426396
G1 X107.11675126903555 Y152.8197969543147
G2 X106.91116751269035 Y152.67258883248732 I-0.8908629441624366 J1.015228426395939
G1 X106.11928934010152 Y152.20558375634516
G2 X105.88071065989848 Y152.09390862944164 I-0.6852791878172588 J1.1624365482233503
G1 X105.03045685279189 Y151.79441624365484
G2 X104.76649746192894 Y151.73096446700507 I-0.4467005076142132 J1.2741116751269035
G1 X103.88832487309644 Y151.61167512690355
G2 X103.60659898477158 Y151.6015228426396 I-0.18527918781725888 J1.3375634517766497
G1 X102.73350253807106 Y151.66243654822335
G2 X102.45431472081219 Y151.71319796954316 I0.09644670050761422 J1.3477157360406091
G1 X101.61421319796955 Y151.95685279187816
G2 X101.3527918781726 Y152.06345177664974 I0.3756345177664975 J1.296954314720812
G1 X100.58121827411168 Y152.4771573604061
G2 X100.34771573604061 Y152.63451776649748 I0.6370558375634517 J1.1903553299492384
G1 X99.67005076142131 Y153.20812182741116
G2 X99.48223350253807 Y153.4035532994924 I0.8705583756345179 J1.0304568527918783
G1 X98.9238578680203 Y154.11167512690355
G2 X98.78172588832487 Y154.32994923857868 I1.0583756345177666 J0.8375634517766497
G1 X98.36040609137056 Y155.14720812182742
G2 X98.26649746192894 Y155.38071065989845 I1.2005076142131978 J0.616751269035533
G1 X98 Y156.28172588832487
G2 X97.95431472081218 Y156.51776649746193 I1.2944162436548223 J0.383248730964467
G1 X97.85025380710661 Y157.46700507614213
G2 X97.84263959390863 Y157.61167512690355 I1.3426395939086295 J0.1446700507614213
G2 X97.84517766497461 Y157.7030456852792 I1.3502538071065988 J0
G1 X97.85025380710661 Y157.76142131979694
G1 X97.51015228426397 Y158.0482233502538
G1 X97.05329949238578 Y158.16243654822335
G1 X96.58629441624365 Y158.01776649746193
G1 X96.56598984771574 Y157.96446700507613
G2 X96.46954314720813 Y157.748730964467 I-1.2741116751269035 J0.44416243654822335
G1 X96.00507614213198 Y156.91624365482232
G2 X95.86802030456853 Y156.71827411167513 I-1.1776649746192893 J0.6598984771573604
G1 X95.26903553299492 Y155.994923857868
G2 X95.09137055837563 Y155.81725888324874 I-1.0406091370558377 J0.8604060913705585
G1 X94.38324873096447 Y155.2284263959391
G2 X94.16751269035532 Y155.08121827411168 I-0.8629441624365481 J1.0380710659898478
G1 X93.37563451776649 Y154.6497461928934
G2 X93.12436548223351 Y154.54314720812184 I-0.6472081218274112 J1.1852791878172588
G1 X92.27664974619289 Y154.28426395939087
G2 X92.00253807106598 Y154.23096446700507 I-0.3959390862944162 J1.2918781725888326
G1 X91.12944162436548 Y154.14974619289342
G2 X90.84517766497463 Y154.15482233502536 I-0.1218274111675127 J1.3451776649746192
G1 X89.97969543147208 Y154.25888324873097
G2 X89.70304568527919 Y154.3248730964467 I0.16243654822335027 J1.3401015228426396
G1 X88.8756345177665 Y154.60913705583755
G2 X88.61928934010152 Y154.7284263959391 I0.4390862944162437 J1.2766497461928932
G1 X87.86040609137055 Y155.1827411167513
G2 X87.64213197969542 Y155.3451776649746 I0.6928934010152283 J1.1573604060913705
G1 X86.97715736040608 Y155.9543147208122
G2 X86.80203045685278 Y156.1497461928934 I0.9111675126903553 J0.9949238578680203
G1 X86.25634517766498 Y156.88832487309645
G2 X86.1243654822335 Y157.10406091370558 I1.0862944162436547 J0.8020304568527918
G1 X85.71827411167513 Y157.9492385786802
G2 X85.63197969543147 Y158.1751269035533 I1.215736040609137 J0.5862944162436547
G1 X85.3781725888325 Y159.0964467005076
G2 X85.33756345177665 Y159.32741116751268 I1.3020304568527918 J0.35786802030456855
G1 X85.33248730964466 Y159.38578680203045
G1 X84.77664974619289 Y159.71827411167513
G1 X84.63959390862945 Y159.73350253807106
G1 X84.04314720812182 Y159.43654822335026
G1 X84.03299492385786 Y159.38071065989848
G2 X83.97208121827411 Y159.1522842639594 I-1.3299492385786802 J0.23350253807106597
G1 X83.64467005076142 Y158.25634517766497
G2 X83.54314720812182 Y158.03807106598984 I-1.2690355329949239 J0.4619289340101523
G1 X83.06852791878173 Y157.2284263959391
G2 X82.92131979695432 Y157.0228426395939 I-1.1649746192893402 J0.6827411167512689
G1 X82.31725888324873 Y156.32994923857868
G2 X82.12690355329948 Y156.1497461928934 I-1.017766497461929 J0.8857868020304569
G1 X81.41370558375634 Y155.5964467005076
G2 X81.18527918781726 Y155.4517766497462 I-0.8274111675126904 J1.0659898477157361
G1 X80.39086294416244 Y155.05837563451777
G2 X80.1269035532995 Y154.96192893401016 I-0.5989847715736041 J1.2106598984771573
G1 X79.27918781725889 Y154.74365482233503
G2 X78.99746192893402 Y154.7030456852792 I-0.3350253807106599 J1.3071065989847717
G1 X78.1243654822335 Y154.66751269035535
G2 X77.84010152284264 Y154.68527918781726 I-0.053299492385786795 J1.3477157360406091
G1 X76.9771573604061 Y154.83502538071068
G2 X76.70812182741118 Y154.91116751269035 I0.22842639593908629 J1.3299492385786802
G1 X75.88578680203045 Y155.23857868020303
G2 X75.64213197969544 Y155.36294416243655 I0.49746192893401014 J1.2538071065989849
G1 X74.88832487309645 Y155.85786802030458
G2 X74.68527918781726 Y156.0228426395939 I0.7411167512690355 J1.1294416243654823
G1 X74.02791878172589 Y156.66497461928935
G2 X73.86548223350255 Y156.85786802030458 I0.9441624365482233 J0.9644670050761421
G1 X73.32741116751268 Y157.62690355329948
G2 X73.20558375634518 Y157.83502538071065 I1.1065989847715736 J0.7741116751269035
G1 X72.80964467005076 Y158.7030456852792
G2 X72.72842639593908 Y158.92385786802032 I1.2258883248730965 J0.5634517766497462
G1 X72.71319796954315 Y158.98223350253807
G1 X72.18527918781726 Y159.19035532994923
G1 X71.86802030456853 Y159.13451776649745
G1 X71.43401015228426 Y158.8248730964467
G1 X71.43401015228426 Y158.76649746192894
G2 X71.41116751269035 Y158.53299492385787 I-1.3502538071065988 J0.017766497461928935
G1 X71.23096446700508 Y157.5964467005076
G2 X71.16497461928934 Y157.36294416243655 I-1.3248730964467004 J0.25380710659898476
G1 X70.82741116751268 Y156.48730964467003
G2 X70.71573604060914 Y156.26395939086294 I-1.2588832487309645 J0.4873096446700508
G1 X70.23096446700508 Y155.47969543147207
G2 X70.07106598984771 Y155.2741116751269 I-1.1472081218274113 J0.7106598984771574
G1 X69.45685279187816 Y154.61167512690355
G2 X69.251269035533 Y154.43147208121826 I-0.9898477157360407 J0.9187817258883249
G1 X68.53045685279187 Y153.91624365482232
G2 X68.28680203045685 Y153.7791878172589 I-0.7842639593908629 J1.098984771573604
G1 X67.48477157360406 Y153.4289340101523
G2 X67.21319796954315 Y153.34263959390864 I-0.5406091370558376 J1.236040609137056
G1 X66.35786802030456 Y153.16751269035532
G2 X66.0761421319797 Y153.14213197969542 I-0.2690355329949239 J1.3223350253807107
G1 X65.2005076142132 Y153.1497461928934
G2 X64.92131979695431 Y153.1802030456853 I0.012690355329949238 J1.3502538071065988
G1 X64.05583756345177 Y153.37309644670052
G2 X63.79695431472081 Y153.45685279187816 I0.2918781725888325 J1.3172588832487309
G1 X62.972081218274106 Y153.8248730964467
G2 X62.746192893401016 Y153.9517766497462 I0.5482233502538071 J1.233502538071066
G1 X61.992385786802025 Y154.48223350253807
G2 X61.80203045685279 Y154.64467005076142 I0.7766497461928934 J1.1040609137055837
G1 X61.147208121827404 Y155.3197969543147
G2 X60.994923857868024 Y155.50507614213197 I0.967005076142132 J0.9416243654822334
G1 X60.464467005076145 Y156.2969543147208
G2 X60.3502538071066 Y156.505076142132 I1.119289340101523 J0.7538071065989848
G1 X60.324873096446694 Y156.55837563451774
G1 X59.91624365482234 Y156.64974619289342
G1 X59.357868020304565 Y156.46700507614213
G1 X59.088832487309645 Y156.1979695431472
G1 X59.09644670050761 Y156.14213197969542
G2 X59.11167512690355 Y155.94416243654823 I-1.3350253807106598 J-0.1979695431472081
G2 X59.11167512690355 Y155.90609137055839 I-1.3502538071065988 J0
G1 X59.08375634517767 Y154.9543147208122
G2 X59.055837563451774 Y154.71319796954316 I-1.3502538071065988 J0.03807106598984772
G1 X58.86294416243655 Y153.7944162436548
G2 X58.789340101522846 Y153.55329949238578 I-1.3197969543147208 J0.27918781725888325
G1 X58.434010152284266 Y152.7030456852792
G2 X58.31218274111676 Y152.4720812182741 I-1.2461928934010151 J0.5177664974619289
G1 X57.809644670050766 Y151.7233502538071
G2 X57.63959390862944 Y151.51522842639594 I-1.1218274111675126 J0.748730964467005
G1 X57.01015228426396 Y150.88832487309645
G2 X56.78934010152284 Y150.71319796954316 I-0.9517766497461928 J0.9593908629441625
G1 X56.05329949238579 Y150.23857868020303
G2 X55.799492385786806 Y150.10913705583758 I-0.7309644670050762 J1.134517766497462
G1 X54.98477157360406 Y149.80203045685278
G2 X54.71065989847716 Y149.7284263959391 I-0.47715736040609136 J1.2614213197969542
G1 X53.845177664974614 Y149.5964467005076
G2 X53.56345177664974 Y149.58121827411168 I-0.20558375634517764 J1.3350253807106598
G1 X52.67766497461929 Y149.63197969543148
G2 X52.411167512690355 Y149.6751269035533 I0.07614213197969544 J1.3477157360406091
G1 X51.53807106598984 Y149.90609137055839
G2 X51.29441624365482 Y149.994923857868 I0.3451776649746193 J1.3045685279187818
G1 X50.46700507614213 Y150.39593908629442
G2 X50.25126903553299 Y150.52791878172587 I0.5888324873096447 J1.215736040609137
G1 X49.49746192893401 Y151.08629441624367
G2 X49.31472081218274 Y151.248730964467 I0.8045685279187818 J1.0837563451776648
G1 X48.66243654822335 Y151.94416243654823
G2 X48.51776649746193 Y152.12944162436548 I0.9873096446700508 J0.9213197969543147
G1 X48.48730964467005 Y152.1802030456853
G1 X48.154822335025386 Y152.1979695431472
G1 X47.50761421319797 Y151.88324873096445
G1 X47.32233502538071 Y151.62690355329948
G1 X47.34010152284264 Y151.5710659898477
G2 X47.390862944162436 Y151.34010152284264 I-1.2868020304568528 J-0.4111675126903553
G1 X47.517766497461935 Y150.39593908629442
G2 X47.530456852791886 Y150.21573604060913 I-1.3375634517766497 J-0.1802030456852792
G2 X47.52791878172589 Y150.1522842639594 I-1.3502538071065988 J0
G1 X47.48477157360406 Y149.21573604060913
G2 X47.45177664974619 Y148.96700507614213 I-1.3477157360406091 J0.06345177664974619
G1 X47.23857868020304 Y148.0710659898477
G2 X47.15228426395939 Y147.8248730964467 I-1.3147208121827412 J0.31218274111675126
G1 X46.77918781725889 Y147.002538071066
G2 X46.642131979695435 Y146.76903553299493 I-1.2284263959390864 J0.5583756345177665
G1 X46.12182741116751 Y146.0507614213198
G2 X45.934010152284266 Y145.84517766497464 I-1.0913705583756346 J0.7944162436548223
G1 X45.28426395939086 Y145.25634517766497
G2 X45.05329949238579 Y145.08883248730965 I-0.9060913705583756 J1.00253807106599
G1 X44.2994923857868 Y144.6522842639594
G2 X44.03807106598984 Y144.53553299492387 I-0.6751269035532994 J1.1700507614213198
G1 X43.20558375634518 Y144.26649746192894
G2 X42.931472081218274 Y144.21065989847716 I-0.4137055837563452 J1.2842639593908631
G1 X42.0507614213198 Y144.11675126903555
G2 X41.77918781725889 Y144.11421319796955 I-0.14213197969543148 J1.3426395939086295
G1 X40.880710659898476 Y144.2005076142132
G2 X40.62182741116751 Y144.251269035533 I0.12944162436548223 J1.3426395939086295
G1 X39.74111675126903 Y144.51522842639594
G2 X39.50761421319797 Y144.60913705583755 I0.3883248730964467 J1.2944162436548223
G1 X38.6751269035533 Y145.04060913705584
G2 X38.46954314720812 Y145.17258883248732 I0.6192893401015229 J1.1979695431472082
G1 X37.71573604060914 Y145.75380710659897
G2 X37.54314720812183 Y145.91370558375635 I0.8248730964467005 J1.0685279187817258
G1 X37.50253807106599 Y145.95685279187816
G1 X37.18781725888325 Y145.9238578680203
G1 X36.59137055837563 Y145.5228426395939
G1 X36.441624365482234 Y145.2233502538071
G1 X36.46954314720812 Y145.17258883248732
G2 X36.555837563451774 Y144.9543147208122 I-1.2030456852791878 J-0.6116751269035533
G1 X36.83248730964467 Y144.04060913705584
G2 X36.88324873096447 Y143.80456852791878 I-1.2918781725888326 J-0.3934010152284264
G1 X36.98984771573604 Y142.87309644670052
G2 X37 Y142.71827411167513 I-1.3401015228426396 J-0.15482233502538073
G2 X36.99492385786802 Y142.61928934010152 I-1.3502538071065988 J0
G1 X36.92893401015228 Y141.7030456852792
G2 X36.88578680203045 Y141.44416243654823 I-1.3477157360406091 J0.09644670050761422
G1 X36.6497461928934 Y140.5736040609137
G2 X36.5507614213198 Y140.3197969543147 I-1.3020304568527918 J0.3553299492385787
G1 X36.15228426395939 Y139.53045685279187
G2 X36 Y139.29441624365484 I-1.2055837563451777 J0.6091370558375635
G1 X35.45177664974619 Y138.61167512690355
G2 X35.253807106598984 Y138.40862944162436 I-1.0532994923857868 J0.8426395939086294
G1 X34.576142131979694 Y137.85786802030455
G2 X34.340101522842644 Y137.7005076142132 I-0.8527918781725887 J1.0456852791878173
G1 X33.558375634517766 Y137.30203045685278
G2 X33.296954314720814 Y137.2005076142132 I-0.616751269035533 J1.2005076142131978
G1 X32.441624365482234 Y136.96700507614213
G2 X32.1751269035533 Y136.92131979695432 I-0.3553299492385787 J1.3020304568527918
G1 X31.276649746192895 Y136.86294416243655
G2 X31.01269035532995 Y136.87055837563452 I-0.08883248730964467 J1.3477157360406091
G1 X30.101522842639593 Y136.98984771573603
G2 X29.85532994923858 Y137.04568527918784 I0.17512690355329952 J1.3375634517766497
G1 X28.96446700507614 Y137.33756345177665
G2 X28.741116751269033 Y137.43401015228426 I0.4213197969543147 J1.281725888324873
G1 X27.9010152284264 Y137.88832487309645
G2 X27.705583756345177 Y138.01776649746193 I0.6421319796954316 J1.1878172588832487
G1 X27.659898477157363 Y138.05329949238578
G1 X27.29187817258883 Y137.95431472081216
G1 X26.85786802030457 Y137.56091370558377
G1 X26.73096446700508 Y137.16243654822335
G1 X26.763959390862944 Y137.11421319796955
G2 X26.885786802030456 Y136.91116751269035 I-1.0913705583756346 J-0.7969543147208122
G0 Z15
G0 X147.21598984771575 Y110.22868020304568
G1 Z-0.3 F125
G3 X147.1725888324873 Y110.32487309644671 I-0.7055837563451777 J-0.2563451776649746 F125
G1 X142.51522842639594 Y119.08629441624365
G3 X142.45939086294416 Y119.1751269035533 I-0.6624365482233502 J-0.35279187817258884
G1 X136.62690355329948 Y127.20304568527919
G3 X136.55837563451774 Y127.28426395939087 I-0.6065989847715736 J-0.4416243654822335
G1 X129.66497461928935 Y134.42131979695432
G3 X129.58629441624365 Y134.49238578680203 I-0.5406091370558376 J-0.5203045685279188
G1 X121.76649746192894 Y140.60152284263958
G3 X121.68020304568527 Y140.65989847715736 I-0.4619289340101523 J-0.5913705583756345
G1 X113.08629441624365 Y145.62182741116752
G3 X112.99238578680203 Y145.66751269035532 I-0.3756345177664975 J-0.6497461928934011
G1 X103.79187817258882 Y149.38578680203045
G3 X103.69035532994923 Y149.41878172588832 I-0.2817258883248731 J-0.6954314720812182
G1 X94.06345177664974 Y151.8197969543147
G3 X93.95939086294416 Y151.83756345177665 I-0.1802030456852792 J-0.7284263959390863
G1 X84.08883248730965 Y152.87309644670052
G3 X83.98477157360405 Y152.87817258883248 I-0.07868020304568528 J-0.7461928934010152
G1 X74.06852791878173 Y152.53299492385787
G3 X73.96446700507613 Y152.5203045685279 I0.025380710659898477 J-0.748730964467005
G1 X64.19035532994924 Y150.7969543147208
G3 X64.08883248730965 Y150.77157360406093 I0.12944162436548223 J-0.7385786802030457
G1 X54.6497461928934 Y147.7055837563452
G3 X54.55329949238578 Y147.66751269035532 I0.23096446700507614 J-0.7131979695431472
G1 X45.63451776649746 Y143.31725888324874
G3 X45.54314720812183 Y143.26395939086294 I0.3299492385786802 J-0.6751269035532994
G1 X37.31725888324873 Y137.71319796954313
G3 X37.233502538071065 Y137.64974619289342 I0.41878172588832485 J-0.6218274111675127
G1 X29.86040609137056 Y131.01015228426397
G3 X29.786802030456855 Y130.93401015228426 I0.5025380710659898 J-0.5583756345177665
G1 X23.408629441624367 Y123.33248730964468
G3 X23.34517766497462 Y123.248730964467 I0.5736040609137056 J-0.48223350253807107
G1 X18.086294416243657 Y114.83248730964468
G3 X18.038071065989847 Y114.73857868020305 I0.6370558375634517 J-0.3984771573604061
G1 X14.002538071065992 Y105.67258883248732
G3 X13.967005076142131 Y105.57614213197968 I0.6852791878172588 J-0.30456852791878175
G1 X11.230964467005077 Y96.03553299492387
G3 X11.20812182741117 Y95.93401015228426 I0.7208121827411168 J-0.20558375634517764
G1 X9.827411167512691 Y86.10659898477158
G3 X9.819796954314722 Y86.00253807106598 I0.7436548223350253 J-0.10406091370558375
G1 X9.819796954314722 Y76.07868020304568
G3 X9.827411167512691 Y75.9746192893401 I0.748730964467005 J0
G1 X11.20812182741117 Y66.1472081218274
G3 X11.230964467005077 Y66.04314720812182 I0.7436548223350253 J0.10406091370558375
G1 X13.967005076142131 Y56.505076142131976
G3 X14.002538071065992 Y56.40609137055837 I0.7208121827411168 J0.20558375634517764
G1 X18.038071065989847 Y47.34010152284264
G3 X18.086294416243657 Y47.24873096446701 I0.6852791878172588 J0.30456852791878175
G1 X23.34517766497462 Y38.83248730964467
G3 X23.408629441624367 Y38.748730964467 I0.6370558375634517 J0.3984771573604061
G1 X29.786802030456855 Y31.14467005076142
G3 X29.86040609137056 Y31.071065989847714 I0.5736040609137056 J0.48223350253807107
G1 X37.233502538071065 Y24.428934010152282
G3 X37.31725888324873 Y24.36548223350254 I0.5025380710659898 J0.5583756345177665
G1 X45.54314720812183 Y18.81725888324873
G3 X45.63451776649746 Y18.763959390862944 I0.41878172588832485 J0.6218274111675127
G1 X54.55329949238578 Y14.413705583756345
G3 X54.6497461928934 Y14.375634517766498 I0.3299492385786802 J0.6751269035532994
G1 X64.08883248730965 Y11.30710659898477
G3 X64.19035532994924 Y11.281725888324875 I0.23096446700507614 J0.7131979695431472
G1 X73.96446700507613 Y9.558375634517766
G3 X74.06852791878173 Y9.548223350253807 I0.12944162436548223 J0.7385786802030457
G1 X83.98477157360405 Y9.203045685279188
G3 X84.08883248730965 Y9.205583756345177 I0.025380710659898477 J0.748730964467005
G1 X93.95939086294416 Y10.243654822335024
G3 X94.06345177664974 Y10.261421319796955 I-0.07868020304568528 J0.7461928934010152
G1 X103.69035532994923 Y12.66243654822335
G3 X103.79187817258882 Y12.695431472081218 I-0.1802030456852792 J0.7284263959390863
G1 X112.99238578680203 Y16.411167512690355
G3 X113.08629441624365 Y16.45685279187817 I-0.2817258883248731 J0.6954314720812182
G1 X121.68020304568527 Y21.418781725888323
G3 X121.76649746192894 Y21.477157360406093 I-0.3756345177664975 J0.6497461928934011
G1 X129.58629441624365 Y27.588832487309645
G3 X129.66497461928935 Y27.65736040609137 I-0.4619289340101523 J0.5913705583756345
G1 X136.55837563451774 Y34.796954314720814
G3 X136.62690355329948 Y34.8756345177665 I-0.5406091370558376 J0.5203045685279188
G1 X142.45939086294416 Y42.90609137055838
G3 X142.51522842639594 Y42.994923857868024 I-0.6065989847715736 J0.4416243654822335
G1 X147.1725888324873 Y51.756345177664976
G3 X147.21573604060916 Y51.85279187817259 I-0.6624365482233502 J0.35279187817258884
G1 X150.60913705583755 Y61.17766497461929
G3 X150.63959390862945 Y61.276649746192895 I-0.7055837563451777 J0.2563451776649746
G1 X152.7005076142132 Y70.98477157360406
G3 X152.71573604060913 Y71.08883248730965 I-0.7335025380710659 J0.15482233502538073
G1 X153.40862944162436 Y80.98730964467006
G3 X153.41116751269035 Y81.04060913705584 I-0.748730964467005 J0.053299492385786795
G3 X153.40862944162436 Y81.09137055837563 I-0.748730964467005 J0
G1 X152.71573604060913 Y90.99238578680203
G3 X152.7005076142132 Y91.09644670050761 I-0.748730964467005 J-0.053299492385786795
G1 X150.63959390862945 Y100.80203045685279
G3 X150.60913705583755 Y100.90355329949239 I-0.7335025380710659 J-0.15482233502538073
G1 X147.21573604060916 Y110.2284263959391
G1 X147.77969543147208 Y110.43401015228426 F125
G3 X147.7030456852792 Y110.60659898477157 I-1.2690355329949239 J-0.4619289340101523 F125
G1 X143.04314720812184 Y119.36802030456853
G3 X142.94416243654823 Y119.52791878172589 I-1.1928934010152283 J-0.6345177664974619
G1 X137.11167512690355 Y127.55583756345177
G3 X136.98984771573603 Y127.7005076142132 I-1.0913705583756346 J-0.7944162436548223
G1 X130.0964467005076 Y134.84010152284264
G3 X129.9568527918782 Y134.96446700507613 I-0.9720812182741116 J-0.9365482233502538
G1 X122.13705583756345 Y141.07614213197968
G3 X121.97969543147208 Y141.1802030456853 I-0.8299492385786802 J-1.0634517766497462
G1 X113.38578680203045 Y146.14213197969542
G3 X113.21573604060914 Y146.2258883248731 I-0.6751269035532994 J-1.1700507614213198
G1 X104.01522842639594 Y149.94162436548223
G3 X103.83756345177665 Y150 I-0.5050761421319797 J-1.251269035532995
G1 X94.20812182741116 Y152.4010152284264
G3 X94.0228426395939 Y152.43401015228426 I-0.32741116751269034 J-1.3096446700507614
G1 X84.1522842639594 Y153.4720812182741
G3 X83.96446700507613 Y153.4771573604061 I-0.14213197969543148 J-1.3426395939086295
G1 X74.04568527918782 Y153.13197969543148
G3 X73.86040609137056 Y153.11167512690355 I0.04822335025380711 J-1.3502538071065988
G1 X64.08629441624366 Y151.38832487309645
G3 X63.90355329949238 Y151.34263959390861 I0.23350253807106597 J-1.3299492385786802
G1 X54.464467005076145 Y148.2766497461929
G3 X54.29187817258884 Y148.20558375634516 I0.416243654822335 J-1.2842639593908631
G1 X45.370558375634516 Y143.85532994923858
G3 X45.20812182741117 Y143.76142131979697 I0.5913705583756345 J-1.2131979695431472
G1 X36.97969543147208 Y138.21065989847716
G3 X36.83248730964467 Y138.0964467005076 I0.7538071065989848 J-1.119289340101523
G1 X29.456852791878173 Y131.4543147208122
G3 X29.327411167512693 Y131.3197969543147 I0.9035532994923857 J-1.00253807106599
G1 X22.949238578680205 Y123.71827411167513
G3 X22.83756345177665 Y123.56598984771574 I1.032994923857868 J-0.868020304568528
G1 X17.578680203045685 Y115.1497461928934
G3 X17.48984771573604 Y114.98223350253808 I1.1446700507614214 J-0.7157360406091371
G1 X13.454314720812183 Y105.91624365482234
G3 X13.388324873096447 Y105.74111675126903 I1.233502538071066 J-0.5482233502538071
G1 X10.65482233502538 Y96.2005076142132
G3 X10.614213197969544 Y96.01776649746192 I1.296954314720812 J-0.3730964467005076
G1 X9.233502538071065 Y86.19035532994923
G3 X9.220812182741117 Y86.00253807106598 I1.3375634517766497 J-0.18781725888324874
G1 X9.220812182741117 Y76.07868020304568
G3 X9.233502538071065 Y75.89086294416244 I1.3502538071065988 J0
G1 X10.614213197969544 Y66.06345177664974
G3 X10.65482233502538 Y65.87817258883248 I1.3375634517766497 J0.18781725888324874
G1 X13.388324873096447 Y56.340101522842644
G3 X13.454314720812183 Y56.16243654822335 I1.296954314720812 J0.3730964467005076
G1 X17.48984771573604 Y47.09644670050761
G3 X17.578680203045685 Y46.931472081218274 I1.233502538071066 J0.5482233502538071
G1 X22.83756345177665 Y38.515228426395936
G3 X22.949238578680205 Y38.36294416243655 I1.1446700507614214 J0.7157360406091371
G1 X29.327411167512693 Y30.758883248730964
G3 X29.456852791878173 Y30.6243654822335 I1.032994923857868 J0.868020304568528
G1 X36.83248730964467 Y23.984771573604064
G3 X36.97969543147208 Y23.868020304568528 I0.9035532994923857 J1.00253807106599
G1 X45.20812182741117 Y18.319796954314718
G3 X45.370558375634516 Y18.225888324873097 I0.7538071065989848 J1.119289340101523
G1 X54.29187817258884 Y13.875634517766498
G3 X54.464467005076145 Y13.804568527918782 I0.5913705583756345 J1.2131979695431472
G1 X63.90355329949238 Y10.736040609137056
G3 X64.08629441624366 Y10.69289340101523 I0.416243654822335 J1.2842639593908631
G1 X73.86040609137056 Y8.969543147208123
G3 X74.04568527918782 Y8.949238578680204 I0.23350253807106597 J1.3299492385786802
G1 X83.96446700507613 Y8.601522842639595
G3 X84.1522842639594 Y8.609137055837564 I0.04822335025380711 J1.3502538071065988
G1 X94.0228426395939 Y9.647208121827411
G3 X94.20812182741116 Y9.68020304568528 I-0.14213197969543148 J1.3426395939086295
G1 X103.83756345177665 Y12.078680203045685
G3 X104.01522842639594 Y12.137055837563452 I-0.32741116751269034 J1.3096446700507614
G1 X113.21573604060914 Y15.855329949238579
G3 X113.38578680203045 Y15.939086294416242 I-0.5050761421319797 J1.251269035532995
G1 X121.97969543147208 Y20.901015228426395
G3 X122.13705583756345 Y21.00507614213198 I-0.6751269035532994 J1.1700507614213198
G1 X129.9568527918782 Y27.114213197969544
G3 X130.0964467005076 Y27.241116751269033 I-0.8299492385786802 J1.0634517766497462
G1 X136.98984771573603 Y34.380710659898476
G3 X137.11167512690355 Y34.52284263959391 I-0.9720812182741116 J0.9365482233502538
G1 X142.94416243654823 Y42.55329949238579
G3 X143.04314720812184 Y42.71319796954315 I-1.0913705583756346 J0.7944162436548223
G1 X147.7030456852792 Y51.474619289340104
G3 X147.7791878172589 Y51.64720812182742 I-1.1928934010152283 J0.6345177664974619
G1 X151.1725888324873 Y60.97208121827411
G3 X151.2258883248731 Y61.15228426395939 I-1.2690355329949239 J0.4619289340101523
G1 X153.28934010152284 Y70.86040609137056
G3 X153.31472081218274 Y71.04568527918782 I-1.3197969543147208 J0.2817258883248731
G1 X154.00761421319797 Y80.94670050761421
G3 X154.01015228426394 Y81.04060913705584 I-1.3477157360406091 J0.09390862944162437
G3 X154.00761421319797 Y81.13451776649747 I-1.3502538071065988 J0
G1 X153.31472081218274 Y91.03299492385787
G3 X153.28934010152284 Y91.22081218274111 I-1.3477157360406091 J-0.09390862944162437
G1 X151.2258883248731 Y100.92639593908629
G3 X151.1725888324873 Y101.10913705583756 I-1.3197969543147208 J-0.2817258883248731
G1 X147.7791878172589 Y110.43401015228426
G1 X148.34365482233503 Y110.63908629441624 F125
G3 X148.23350253807106 Y110.88832487309645 I-1.83248730964467 J-0.6675126903553299 F125
G1 X143.5736040609137 Y119.64974619289339
G3 X143.4289340101523 Y119.88071065989848 I-1.720812182741117 J-0.916243654822335
G1 X137.5964467005076 Y127.90862944162436
G3 X137.42131979695432 Y128.11675126903555 I-1.5786802030456855 J-1.1472081218274113
G1 X130.52791878172587 Y135.25634517766497
G3 X130.3248730964467 Y135.43908629441626 I-1.4035532994923858 J-1.3553299492385786
G1 X122.50507614213198 Y141.5482233502538
G3 X122.27918781725889 Y141.7005076142132 I-1.2005076142131978 J-1.5355329949238579
G1 X113.68527918781726 Y146.66243654822335
G3 X113.44162436548224 Y146.78172588832487 I-0.9746192893401016 J-1.6878172588832487
G1 X104.24111675126903 Y150.497461928934
G3 X103.98223350253808 Y150.58121827411168 I-0.7309644670050762 J-1.8071065989847714
G1 X94.35279187817258 Y152.98223350253807
G3 X94.08375634517766 Y153.03045685279187 I-0.47208121827411165 J-1.8908629441624367
G1 X84.21573604060913 Y154.06852791878174
G3 X83.94416243654823 Y154.0761421319797 I-0.20304568527918782 J-1.9390862944162437
G1 X74.0253807106599 Y153.7309644670051
G3 X73.75634517766497 Y153.7030456852792 I0.06852791878172589 J-1.9492385786802031
G1 X63.98223350253807 Y151.97969543147207
G3 X63.71827411167513 Y151.91370558375635 I0.3375634517766497 J-1.9213197969543148
G1 X54.27918781725889 Y148.8477157360406
G3 X54.02791878172589 Y148.746192893401 I0.6015228426395939 J-1.8553299492385786
G1 X45.109137055837564 Y144.39593908629442
G3 X44.8730964467005 Y144.25888324873097 I0.8553299492385786 J-1.7538071065989846
G1 X36.64467005076142 Y138.70812182741116
G3 X36.431472081218274 Y138.54060913705584 I1.0913705583756346 J-1.6167512690355328
G1 X29.055837563451774 Y131.9010152284264
G3 X28.868020304568528 Y131.70558375634516 I1.3045685279187818 J-1.4492385786802031
G1 X22.48730964467005 Y124.1040609137056
G3 X22.32741116751269 Y123.88324873096448 I1.4949238578680202 J-1.2538071065989849
G1 X17.068527918781726 Y115.46700507614213
G3 X16.941624365482234 Y115.2284263959391 I1.6548223350253808 J-1.032994923857868
G1 X12.906091370558375 Y106.16243654822335
G3 X12.81218274111675 Y105.90609137055837 I1.7817258883248732 J-0.7918781725888324
G1 X10.076142131979696 Y96.36548223350253
G3 X10.020304568527918 Y96.1015228426396 I1.8756345177664975 J-0.5380710659898478
G1 X8.639593908629442 Y86.2741116751269
G3 X8.619289340101522 Y86.00253807106598 I1.9314720812182742 J-0.2715736040609137
G1 X8.619289340101522 Y76.07868020304568
G3 X8.639593908629442 Y75.80710659898477 I1.9492385786802031 J0
G1 X10.020304568527918 Y65.97969543147208
G3 X10.076142131979696 Y65.71319796954315 I1.9314720812182742 J0.2715736040609137
G1 X12.81218274111675 Y56.1751269035533
G3 X12.906091370558375 Y55.91878172588832 I1.8756345177664975 J0.5380710659898478
G1 X16.941624365482234 Y46.85279187817259
G3 X17.068527918781726 Y46.61167512690355 I1.7817258883248732 J0.7918781725888324
G1 X22.32741116751269 Y38.19543147208122
G3 X22.48730964467005 Y37.97715736040609 I1.6548223350253808 J1.032994923857868
G1 X28.868020304568528 Y30.3756345177665
G3 X29.055837563451774 Y30.17766497461929 I1.4949238578680202 J1.2538071065989849
G1 X36.431472081218274 Y23.53807106598985
G3 X36.64467005076142 Y23.370558375634516 I1.3045685279187818 J1.4492385786802031
G1 X44.8730964467005 Y17.82233502538071
G3 X45.109137055837564 Y17.685279187817258 I1.0913705583756346 J1.6167512690355328
G1 X54.02791878172589 Y13.33502538071066
G3 X54.27918781725889 Y13.233502538071066 I0.8553299492385786 J1.7538071065989846
G1 X63.71827411167513 Y10.167512690355329
G3 X63.98223350253807 Y10.101522842639595 I0.6015228426395939 J1.8553299492385786
G1 X73.75380710659898 Y8.378172588832488
G3 X74.0253807106599 Y8.350253807106599 I0.3375634517766497 J1.9213197969543148
G1 X83.94416243654823 Y8.00253807106599
G3 X84.21573604060913 Y8.01269035532995 I0.06852791878172589 J1.9492385786802031
G1 X94.08375634517766 Y9.050761421319798
G3 X94.35279187817258 Y9.096446700507615 I-0.20304568527918782 J1.9390862944162437
G1 X103.98223350253808 Y11.49746192893401
G3 X104.24111675126903 Y11.581218274111675 I-0.47208121827411165 J1.8908629441624367
G1 X113.44162436548224 Y15.299492385786802
G3 X113.68527918781726 Y15.418781725888325 I-0.7309644670050762 J1.8071065989847714
G1 X122.27918781725889 Y20.380710659898476
G3 X122.50507614213198 Y20.532994923857867 I-0.9746192893401016 J1.6878172588832487
G1 X130.3248730964467 Y26.64213197969543
G3 X130.52791878172587 Y26.8248730964467 I-1.2005076142131978 J1.5355329949238579
G1 X137.42131979695432 Y33.96192893401015
G3 X137.5964467005076 Y34.17258883248731 I-1.4035532994923858 J1.3553299492385786
G1 X143.4289340101523 Y42.200507614213194
G3 X143.5736040609137 Y42.431472081218274 I-1.5786802030456855 J1.1472081218274113
G1 X148.23350253807106 Y51.19289340101523
G3 X148.34263959390864 Y51.44162436548223 I-1.720812182741117 J0.916243654822335
G1 X151.73857868020303 Y60.76649746192893
G3 X151.81218274111674 Y61.02791878172589 I-1.83248730964467 J0.6675126903553299
G1 X153.8756345177665 Y70.73604060913706
G3 X153.91370558375633 Y71.00507614213198 I-1.9086294416243654 J0.40609137055837563
G1 X154.60659898477158 Y80.90355329949239
G3 X154.61167512690355 Y81.04060913705584 I-1.9441624365482233 J0.13705583756345177
G3 X154.60659898477158 Y81.17512690355329 I-1.9492385786802031 J0
G1 X153.91370558375633 Y91.0761421319797
G3 X153.8756345177665 Y91.34517766497461 I-1.9441624365482233 J-0.13705583756345177
G1 X151.81218274111674 Y101.05076142131979
G3 X151.73857868020303 Y101.31218274111674 I-1.9086294416243654 J-0.40609137055837563
G1 X148.34263959390864 Y110.63959390862945
G0 Z15
G0 X119.3276649746193 Y17.29010152284264
G1 Z-0.3 F125
G1 X117.83756345177665 Y16.428934010152286 F125
G2 X117.86802030456853 Y16.418781725888326 I-1.1116751269035532 J-2.946700507614213
G1 X118.7258883248731 Y16.086294416243653
G2 X119.14720812182742 Y15.883248730964468 I-1.1421319796954315 J-2.936548223350254
G2 X119.18274111675126 Y16.34771573604061 I3.149746192893401 J-0.012690355329949238
G1 X119.32233502538071 Y17.256345177664976
G2 X119.32741116751268 Y17.289340101522843 I3.1142131979695433 J-0.47715736040609136
G1 X119.91548223350254 Y17.165736040609136 F125
G2 X120.03807106598984 Y17.64720812182741 I2.5203045685279184 J-0.3857868020304569 F125
G1 X120.34517766497461 Y18.49746192893401
G2 X120.38071065989847 Y18.591370558375637 I2.3984771573604062 J-0.868020304568528
G1 X116.18527918781726 Y16.16751269035533
G2 X116.28680203045684 Y16.15228426395939 I-0.3477157360406091 J-2.5253807106598987
G1 X117.17512690355329 Y15.99238578680203
G2 X117.6497461928934 Y15.860406091370558 I-0.44923857868020306 J-2.5101522842639596
G1 X118.50761421319797 Y15.525380710659899
G2 X118.93147208121829 Y15.31218274111675 I-0.9238578680203046 J-2.3756345177664975
G1 X119.72842639593908 Y14.817258883248732
G2 X119.78426395939087 Y14.781725888324873 I-1.3502538071065988 J-2.1624365482233503
G2 X119.78172588832487 Y14.84517766497462 I2.545685279187817 J0.15228426395939088
G1 X119.748730964467 Y15.784263959390863
G2 X119.746192893401 Y15.870558375634518 I2.548223350253807 J0.08629441624365483
G2 X119.77664974619289 Y16.256345177664976 I2.5507614213197973 J0
G1 X119.91624365482232 Y17.16497461928934
G0 Z15
G0 X7.420304568527919 Y80.17994923857869
G1 Z-0.3 F125
G1 X7.4213197969543145 Y81.90101522842639 F125
G2 X7.395939086294416 Y81.88071065989847 I-1.9949238578680204 J2.436548223350254
G1 X6.677664974619289 Y81.30456852791879
G2 X6.291878172588833 Y81.04060913705584 I-1.9720812182741119 J2.456852791878173
G2 X6.677664974619289 Y80.77664974619289 I-1.5862944162436547 J-2.720812182741117
G1 X7.395939086294416 Y80.2005076142132
G2 X7.4213197969543145 Y80.18020304568529 I-1.9695431472081217 J-2.456852791878173
G1 X7.02005076142132 Y79.73223350253807 F125
G2 X7.373096446700508 Y79.38578680203045 I-1.5964467005076142 J-1.9898477157360406 F125
G1 X7.9543147208121825 Y78.69796954314721
G2 X8.02030456852792 Y78.61675126903553 I-1.9492385786802031 J-1.6446700507614211
G1 X8.02030456852792 Y83.46192893401016
G2 X7.9543147208121825 Y83.38324873096447 I-2.015228426395939 J1.5634517766497464
G1 X7.373096446700508 Y82.69289340101523
G2 X7.020304568527918 Y82.34771573604061 I-1.9492385786802031 J1.6446700507614211
G1 X6.302030456852792 Y81.77157360406092
G2 X5.906091370558376 Y81.51015228426395 I-1.5964467005076142 J1.9898477157360406
G1 X5.0786802030456855 Y81.07106598984771
G2 X5.020304568527919 Y81.04060913705584 I-1.1979695431472082 J2.251269035532995
G2 X5.0786802030456855 Y81.01015228426397 I-1.1421319796954315 J-2.281725888324873
G1 X5.906091370558376 Y80.56852791878173
G2 X6.302030456852792 Y80.30710659898476 I-1.1979695431472082 J-2.251269035532995
G1 X7.020304568527918 Y79.73096446700508
G0 Z15
G0 X117.83807106598985 Y145.6505076142132
G1 Z-0.3 F125
G1 X119.32741116751268 Y144.78934010152284 F125
G2 X119.32233502538071 Y144.8248730964467 I3.1091370558375635 J0.5076142131979695
G1 X119.18274111675126 Y145.73350253807106
G2 X119.14720812182742 Y146.19543147208122 I3.1142131979695433 J0.47461928934010156
G2 X118.7233502538071 Y145.994923857868 I-1.5634517766497464 J2.733502538071066
G1 X117.86548223350253 Y145.65989847715736
G2 X117.83756345177665 Y145.6497461928934 I-1.1395939086294418 J2.936548223350254
G1 X117.64771573604061 Y146.22005076142133 F125
G2 X117.17512690355329 Y146.08629441624367 I-0.9238578680203046 J2.3781725888324874 F125
G1 X116.28934010152284 Y145.9289340101523
G2 X116.18527918781726 Y145.91116751269035 I-0.44923857868020306 J2.5101522842639596
G1 X120.38071065989847 Y143.48984771573606
G2 X120.34517766497461 Y143.58375634517768 I2.3604060913705585 J0.9619289340101522
G1 X120.03807106598984 Y144.43147208121826
G2 X119.91624365482232 Y144.91370558375635 I2.3984771573604062 J0.868020304568528
G1 X119.77664974619289 Y145.8248730964467
G2 X119.746192893401 Y146.20812182741116 I2.5203045685279184 J0.3857868020304569
G2 X119.748730964467 Y146.2969543147208 I2.5507614213197973 J0
G1 X119.78172588832487 Y147.23350253807106
G2 X119.78426395939087 Y147.2994923857868 I2.548223350253807 J-0.08629441624365483
G2 X119.72842639593908 Y147.26395939086296 I-1.4035532994923858 J2.1294416243654823
G1 X118.93401015228426 Y146.76649746192894
