(Generated by PartKam Version 0.05)

G21 G90 G40

(pocket)
G0 Z15
T1 M6
G17
M3
G0 X53.35 Y40.610913705583755
G1 Z-0.3 F125
G1 X54.54822335025381 Y37.31979695431472 F125
G2 X54.57360406091371 Y37.2258883248731 I-0.6573604060913706 J-0.23857868020304568
G1 X55.30203045685279 Y33.80203045685279
G2 X55.31472081218274 Y33.70558375634518 I-0.6852791878172588 J-0.1446700507614213
G1 X55.54822335025381 Y30.380710659898476
G2 X55.56091370558376 Y30.46446700507614 I0.6979695431472082 J-0.06091370558375635
G1 X55.62690355329949 Y30.766497461928935
G2 X55.670050761421315 Y30.906091370558375 I0.6852791878172588 J-0.14720812182741116
G1 X55.796954314720814 Y31.19035532994924
G2 X55.868020304568525 Y31.31472081218274 I0.6395939086294417 J-0.28426395939086296
G1 X56.05329949238579 Y31.573604060913706
G2 X56.142131979695435 Y31.675126903553302 I0.5685279187817259 J-0.40609137055837563
G1 X56.37817258883249 Y31.898477157360404
G2 X56.48223350253807 Y31.97715736040609 I0.47969543147208127 J-0.5101522842639594
G1 X56.75888324873096 Y32.15736040609137
G2 X56.870558375634516 Y32.21573604060914 I0.3781725888324873 J-0.5888324873096447
G1 X57.182741116751274 Y32.34263959390863
G1 X57.182741116751274 Y32.34263959390863
G1 X57.17766497461929 Y32.41370558375635
G1 X57.175126903553306 Y32.41370558375635
G1 X56.847715736040605 Y32.48984771573604
G2 X56.72842639593909 Y32.52791878172589 I0.1598984771573604 J0.6827411167512689
G1 X56.4263959390863 Y32.65989847715736
G2 X56.31218274111675 Y32.72335025380711 I0.27918781725888325 J0.6421319796954316
G1 X56.04314720812183 Y32.90609137055838
G2 X55.93908629441624 Y32.99238578680203 I0.3934010152284264 J0.5786802030456852
G1 X55.713197969543145 Y33.21827411167513
G2 X55.62690355329949 Y33.32741116751269 I0.49746192893401014 J0.49238578680203043
G1 X55.454314720812185 Y33.588832487309645
G2 X55.388324873096444 Y33.71827411167513 I0.5862944162436547 J0.383248730964467
G1 X55.2741116751269 Y34.005076142131976
G2 X55.236040609137056 Y34.14720812182741 I0.6522842639593909 J0.25380710659898476
G1 X55.18781725888325 Y34.45177664974619
G2 X55.17766497461929 Y34.56345177664974 I0.6903553299492386 J0.1116751269035533
G2 X55.180203045685275 Y34.598984771573605 I0.7005076142131981 J0
G1 X55.19543147208122 Y34.90609137055837
G2 X55.21573604060913 Y35.0507614213198 I0.6979695431472082 J-0.03553299492385787
G1 X55.296954314720814 Y35.35279187817259
G2 X55.34517766497462 Y35.484771573604064 I0.6776649746192893 J-0.17766497461928935
G1 X55.48730964467005 Y35.77157360406091
G2 X55.55837563451776 Y35.88578680203045 I0.6269035532994924 J-0.30964467005076146
G1 X55.75634517766497 Y36.14467005076142
G2 X55.84517766497462 Y36.23857868020305 I0.5558375634517766 J-0.42639593908629436
G1 X56.09137055837564 Y36.45939086294416
G2 X56.19035532994924 Y36.535532994923855 I0.46700507614213194 J-0.5203045685279188
G1 X56.47715736040609 Y36.713197969543145
G1 X56.48984771573603 Y36.71827411167513
G1 X56.47715736040609 Y36.77918781725889
G1 X56.45939086294416 Y36.77918781725889
G1 X56.1243654822335 Y36.80456852791878
G2 X56.002538071065985 Y36.82233502538071 I0.04822335025380711 J0.6979695431472082
G1 X55.680203045685275 Y36.90355329949239
G2 X55.55837563451776 Y36.94670050761421 I0.17258883248730966 J0.6776649746192893
G1 X55.26395939086294 Y37.08375634517766
G2 X55.14720812182741 Y37.152284263959395 I0.29441624365482233 J0.6345177664974619
G1 X54.888324873096444 Y37.34010152284264
G2 X54.78426395939087 Y37.434010152284266 I0.4111675126903553 J0.565989847715736
G1 X54.57106598984772 Y37.66497461928934
G2 X54.48730964467005 Y37.78172588832487 I0.5177664974619289 J0.47208121827411165
G1 X54.329949238578685 Y38.04822335025381
G2 X54.266497461928935 Y38.182741116751274 I0.6015228426395939 J0.3553299492385787
G1 X54.17005076142132 Y38.474619289340104
G2 X54.139593908629436 Y38.61675126903553 I0.6649746192893401 J0.22081218274111675
G1 X54.10406091370558 Y38.92639593908629
G2 X54.09898477157361 Y39.00253807106599 I0.6954314720812182 J0.07868020304568528
G2 X54.10406091370558 Y39.07106598984772 I0.7005076142131981 J0
G1 X54.13451776649747 Y39.380710659898476
G2 X54.15989847715736 Y39.52030456852792 I0.6979695431472082 J-0.06598984771573604
G1 X54.253807106598984 Y39.8248730964467
G2 X54.307106598984774 Y39.9492385786802 I0.6700507614213198 J-0.20558375634517764
G1 X54.45939086294416 Y40.233502538071065
G2 X54.53299492385787 Y40.34517766497462 I0.616751269035533 J-0.3299492385786802
G1 X54.73857868020304 Y40.601522842639596
G2 X54.82741116751269 Y40.692893401015226 I0.5456852791878173 J-0.4390862944162437
G1 X55.08121827411167 Y40.911167512690355
G1 X55.101522842639596 Y40.92639593908629
G2 X55.121827411167516 Y40.944162436548226 I0.4390862944162437 J-0.5456852791878173
G1 X55.10406091370559 Y40.95939086294416
G1 X55.10406091370559 Y40.95939086294416
G1 X55.09644670050761 Y40.98223350253807
G1 X55.07868020304569 Y40.97969543147208
G1 X55.05329949238579 Y40.97715736040609
G1 X54.71827411167513 Y40.944162436548226
G2 X54.59390862944162 Y40.944162436548226 I-0.06598984771573604 J0.6979695431472082
G1 X54.263959390862944 Y40.9746192893401
G2 X54.13451776649747 Y40.997461928934015 I0.06091370558375635 J0.6979695431472082
G1 X53.82233502538071 Y41.08375634517767
G2 X53.69543147208121 Y41.13451776649746 I0.18781725888324874 J0.6751269035532994
G1 X53.411167512690355 Y41.276649746192895
G2 X53.29441624365482 Y41.352791878172596 I0.3147208121827411 J0.6243654822335025
G1 X53.04822335025381 Y41.54568527918782
G2 X52.944162436548226 Y41.64720812182742 I0.434010152284264 J0.5482233502538071
G1 X52.746192893401016 Y41.88578680203045
G2 X52.664974619289346 Y42.00761421319797 I0.5380710659898478 J0.44923857868020306
G1 X52.52030456852792 Y42.28172588832487
G2 X52.46700507614214 Y42.41878172588833 I0.6192893401015229 J0.32487309644670054
G1 X52.38324873096447 Y42.71573604060913
G2 X52.36040609137056 Y42.85786802030457 I0.6751269035532994 J0.18781725888324874
G1 X52.34010152284264 Y43.170050761421315
G2 X52.337563451776646 Y43.215736040609144 I0.6979695431472082 J0.045685279187817264
G2 X52.34517766497462 Y43.31218274111676 I0.7005076142131981 J0
G1 X52.388324873096444 Y43.62690355329949
G2 X52.41878172588833 Y43.75888324873096 I0.6928934010152283 J-0.09644670050761422
G1 X52.5253807106599 Y44.065989847715734
G2 X52.57868020304569 Y44.182741116751274 I0.6624365482233502 J-0.22842639593908629
G1 X52.74111675126903 Y44.47208121827411
G2 X52.81472081218274 Y44.5761421319797 I0.6091370558375635 J-0.3451776649746193
G1 X53.03045685279188 Y44.83248730964468
G1 X53.045685279187815 Y44.85279187817259
G2 X53.06598984771574 Y44.8730964467005 I0.5203045685279188 J-0.46700507614213194
G1 X53.04314720812183 Y44.88324873096447
G1 X53.04314720812183 Y44.90862944162436
G2 X53.015228426395936 Y44.898477157360404 I-0.22588832487309643 J0.6624365482233502
G1 X52.99238578680203 Y44.89340101522843
G1 X52.66751269035532 Y44.807106598984774
G2 X52.54314720812182 Y44.78680203045685 I-0.17512690355329952 J0.6776649746192893
G1 X52.213197969543145 Y44.763959390862944
G2 X52.08121827411168 Y44.766497461928935 I-0.053299492385786795 J0.6979695431472082
G1 X51.75888324873096 Y44.80203045685279
G2 X51.62690355329949 Y44.82994923857868 I0.07868020304568528 J0.6954314720812182
G1 X51.32233502538071 Y44.92639593908629
G2 X51.19543147208121 Y44.982233502538065 I0.21065989847715735 J0.6675126903553299
G1 X50.921319796954315 Y45.13451776649746
G2 X50.8020304568528 Y45.21827411167513 I0.3401015228426396 J0.6116751269035533
G1 X50.568527918781726 Y45.42131979695432
G2 X50.46954314720813 Y45.52791878172589 I0.4593908629441624 J0.5279187817258884
G1 X50.28426395939086 Y45.7741116751269
G2 X50.20812182741117 Y45.90101522842639 I0.5583756345177665 J0.4213197969543147
G1 X50.07868020304569 Y46.18020304568528
G2 X50.030456852791886 Y46.31725888324873 I0.6345177664974619 J0.29441624365482233
G1 X49.96192893401015 Y46.621827411167516
G2 X49.944162436548226 Y46.76142131979695 I0.6827411167512689 J0.15736040609137056
G1 X49.93654822335025 Y47.08121827411168
G1 X49.93401015228426 Y47.09644670050761
G2 X49.944162436548226 Y47.21573604060914 I0.7005076142131981 J0
G1 X50 Y47.535532994923855
G2 X50.03299492385786 Y47.662436548223354 I0.6903553299492386 J-0.11928934010152284
G1 X50.1497461928934 Y47.972081218274106
G2 X50.203045685279186 Y48.08629441624365 I0.6548223350253807 J-0.2436548223350254
G1 X50.37563451776649 Y48.3756345177665
G1 X50.388324873096444 Y48.39593908629442
G1 X50.388324873096444 Y48.40101522842639
G1 X50.35279187817259 Y48.43654822335026
G1 X50.3502538071066 Y48.43654822335026
G1 X50.32994923857868 Y48.42639593908629
G1 X50.02030456852792 Y48.29187817258883
G2 X49.901015228426395 Y48.251269035533 I-0.2817258883248731 J0.6395939086294417
G1 X49.58121827411168 Y48.1751269035533
G2 X49.45177664974619 Y48.154822335025386 I-0.16243654822335027 J0.6802030456852792
G1 X49.12690355329949 Y48.13959390862944
G2 X48.98984771573603 Y48.14720812182741 I-0.03299492385786802 J0.6979695431472082
G1 X48.6751269035533 Y48.192893401015226
G2 X48.54060913705584 Y48.2258883248731 I0.10152284263959391 J0.6928934010152283
G1 X48.246192893401016 Y48.33248730964467
G2 X48.11421319796955 Y48.39593908629442 I0.23857868020304568 J0.6573604060913706
G1 X47.85279187817259 Y48.55837563451777
G2 X47.736040609137056 Y48.6497461928934 I0.3680203045685279 J0.5964467005076142
G1 X47.51269035532995 Y48.86294416243655
G2 X47.41878172588833 Y48.974619289340104 I0.4847715736040609 J0.5050761421319797
G1 X47.246192893401016 Y49.23096446700508
G2 X47.17766497461929 Y49.357868020304565 I0.5812182741116751 J0.3908629441624366
G1 X47.058375634517766 Y49.6497461928934
G2 X47.02030456852792 Y49.78426395939087 I0.6472081218274112 J0.2639593908629442
G1 X46.96192893401015 Y50.09644670050761
G2 X46.9492385786802 Y50.2258883248731 I0.6878172588832487 J0.12944162436548223
G1 X46.9492385786802 Y50.23096446700507
G1 X46.95177664974619 Y50.55583756345178
G2 X46.964467005076145 Y50.68527918781726 I0.7005076142131981 J-0.005076142131979696
G1 X47.03045685279187 Y51.01015228426397
G2 X47.06345177664975 Y51.131979695431475 I0.6878172588832487 J-0.13451776649746194
G1 X47.18781725888324 Y51.444162436548226
G1 X47.190355329949234 Y51.45177664974619
G1 X47.13705583756345 Y51.49238578680203
G1 X47.13451776649747 Y51.48984771573603
G1 X46.8502538071066 Y51.30710659898477
G2 X46.73857868020305 Y51.246192893401016 I-0.3807106598984772 J0.5862944162436547
G1 X46.434010152284266 Y51.119289340101524
G2 X46.30964467005076 Y51.08121827411168 I-0.2690355329949239 J0.6446700507614213
G1 X45.99238578680203 Y51.012690355329944
G2 X45.857868020304565 Y50.997461928934015 I-0.14720812182741116 J0.6852791878172588
G1 X45.54060913705584 Y50.99238578680203
G2 X45.398477157360404 Y51.00507614213198 I-0.012690355329949238 J0.7005076142131981
G1 X45.09137055837564 Y51.06091370558375
G2 X44.95177664974619 Y51.10406091370558 I0.12944162436548223 J0.6878172588832487
G1 X44.66751269035533 Y51.22081218274111
G2 X44.538071065989854 Y51.29187817258884 I0.2690355329949239 J0.6472081218274112
G1 X44.40862944162436 Y51.380710659898476
G1 X44.284263959390856 Y51.46700507614213
G2 X44.17766497461929 Y51.558375634517766 I0.3984771573604061 J0.5761421319796954
G1 X44.172588832487314 Y51.56345177664974
G1 X43.96192893401015 Y51.786802030456855
G2 X43.87309644670051 Y51.90355329949239 I0.5101522842639594 J0.47969543147208127
G1 X43.710659898477154 Y52.17005076142132
G2 X43.6497461928934 Y52.296954314720814 I0.5964467005076142 J0.3654822335025381
G1 X43.54060913705584 Y52.59644670050761
G2 X43.50761421319797 Y52.72842639593908 I0.6573604060913706 J0.23857868020304568
G1 X43.45939086294416 Y53.04822335025381
G2 X43.44923857868021 Y53.154822335025386 I0.6928934010152283 J0.10659898477157359
G1 X43.45177664974619 Y53.180203045685275
G1 X43.46192893401016 Y53.51015228426397
G2 X43.47715736040609 Y53.63451776649746 I0.7005076142131981 J-0.022842639593908632
G1 X43.54822335025381 Y53.96192893401015
G1 X43.54822335025381 Y53.96192893401015
G1 X43.48730964467005 Y53.997461928934015
G1 X43.23857868020305 Y53.77157360406091
G2 X43.13959390862944 Y53.69543147208121 I-0.47208121827411165 J0.5177664974619289
G1 X42.85786802030457 Y53.52030456852792
G2 X42.74111675126903 Y53.46192893401016 I-0.37055837563451777 J0.5939086294416244
G1 X42.43654822335025 Y53.34517766497462
G2 X42.307106598984774 Y53.30964467005076 I-0.25380710659898476 J0.6522842639593909
G1 X41.99492385786802 Y53.251269035533
G2 X41.85532994923858 Y53.24111675126904 I-0.12436548223350254 J0.6878172588832487
G1 X41.54060913705584 Y53.24873096446701
G2 X41.398477157360404 Y53.26903553299492 I0.017766497461928935 J0.7005076142131981
G1 X41.09644670050762 Y53.33756345177665
G1 X41.09137055837564 Y53.34010152284264
G2 X40.95685279187818 Y53.38832487309645 I0.16751269035532995 J0.6802030456852792
G1 X40.817258883248726 Y53.45431472081218
G1 X40.680203045685275 Y53.52030456852792
G2 X40.55329949238579 Y53.59644670050762 I0.29949238578680204 J0.6319796954314721
G1 X40.309644670050766 Y53.78426395939086
G2 X40.203045685279186 Y53.88324873096447 I0.42639593908629436 J0.5558375634517766
G1 X40 Y54.121827411167516
G2 X39.91878172588832 Y54.23857868020305 I0.5304568527918782 J0.45685279187817257
G1 X39.763959390862944 Y54.51522842639594
G2 X39.710659898477154 Y54.639593908629436 I0.6116751269035533 J0.3401015228426396
G1 X39.609137055837564 Y54.9492385786802
G2 X39.58121827411168 Y55.076142131979694 I0.6649746192893401 J0.21573604060913704
G1 X39.54060913705584 Y55.40355329949239
G2 X39.53299492385787 Y55.49238578680203 I0.6954314720812182 J0.08883248730964467
G2 X39.535532994923855 Y55.53045685279188 I0.7005076142131981 J0
G1 X39.55329949238579 Y55.86548223350253
G1 X39.55329949238579 Y55.870558375634516
G1 X39.48984771573604 Y55.89593908629442
G1 X39.48730964467005 Y55.890862944162436
G1 X39.276649746192895 Y55.62690355329949
G2 X39.19035532994924 Y55.53807106598985 I-0.5482233502538071 J0.4365482233502538
G1 X38.941624365482234 Y55.319796954314725
G2 X38.83502538071066 Y55.24111675126903 I-0.4619289340101523 J0.5253807106598986
G1 X38.555837563451774 Y55.07868020304569
G2 X38.434010152284266 Y55.02030456852792 I-0.3553299492385787 J0.6040609137055838
G1 X38.131979695431475 Y54.91370558375635
G2 X37.99492385786802 Y54.88071065989848 I-0.23096446700507614 J0.6598984771573604
G1 X37.68527918781726 Y54.84010152284264
G2 X37.54060913705584 Y54.835025380710654 I-0.09644670050761422 J0.6928934010152283
G1 X37.233502538071065 Y54.85532994923858
G2 X37.08629441624366 Y54.88324873096447 I0.050761421319796954 J0.6979695431472082
G1 X36.79187817258884 Y54.96700507614214
G2 X36.65482233502538 Y55.022842639593904 I0.1954314720812183 J0.6725888324873096
G1 X36.38324873096447 Y55.17005076142132
G2 X36.263959390862944 Y55.25126903553299 I0.3299492385786802 J0.616751269035533
G1 X36.02284263959391 Y55.454314720812185
G2 X35.9263959390863 Y55.55329949238579 I0.45177664974619286 J0.5355329949238579
G1 X35.72842639593909 Y55.804568527918775
G2 X35.65482233502538 Y55.91878172588832 I0.5482233502538071 J0.434010152284264
G1 X35.50761421319797 Y56.20558375634518
G2 X35.45939086294416 Y56.32741116751269 I0.6218274111675127 J0.3197969543147208
G1 X35.36548223350253 Y56.64467005076142
G2 X35.34010152284264 Y56.76903553299493 I0.6700507614213198 J0.1979695431472081
G1 X35.30456852791878 Y57.101522842639596
G1 X35.30203045685279 Y57.126903553299485
G1 X35.30203045685279 Y57.126903553299485
G1 X35.25126903553299 Y57.139593908629436
G1 X35.246192893401016 Y57.13705583756345
G1 X35.233502538071065 Y57.11675126903553
G1 X35.068527918781726 Y56.82233502538071
G2 X34.99746192893401 Y56.71827411167513 I-0.6116751269035533 J0.3426395939086294
G1 X34.786802030456855 Y56.46446700507614
G2 X34.69543147208122 Y56.37309644670051 I-0.5406091370558376 J0.4467005076142132
G1 X34.44670050761421 Y56.16497461928934
G2 X34.33502538071066 Y56.088832487309645 I-0.4467005076142132 J0.5380710659898478
G1 X34.05329949238579 Y55.93654822335026
G2 X33.923857868020306 Y55.880710659898476 I-0.3350253807106599 J0.6142131979695432
G1 X33.62436548223351 Y55.789340101522846
G2 X33.48223350253807 Y55.76142131979695 I-0.20558375634517764 J0.6700507614213198
G1 X33.1751269035533 Y55.733502538071065
G2 X33.02791878172589 Y55.736040609137056 I-0.06345177664974619 J0.6979695431472082
G1 X32.72335025380711 Y55.7741116751269
G2 X32.578680203045685 Y55.807106598984774 I0.08375634517766498 J0.6954314720812182
G1 X32.286802030456855 Y55.90609137055837
G2 X32.15482233502538 Y55.96700507614213 I0.22842639593908629 J0.6624365482233502
G1 X31.885786802030456 Y56.129441624365484
G2 X31.774111675126903 Y56.213197969543145 I0.3604060913705584 J0.6015228426395939
G1 X31.538071065989847 Y56.42893401015228
G2 X31.449238578680202 Y56.52791878172589 I0.47208121827411165 J0.5152284263959391
G1 X31.256345177664976 Y56.78934010152284
G2 X31.18781725888325 Y56.901015228426395 I0.5634517766497462 J0.416243654822335
G1 X31.04314720812183 Y57.200507614213194
G2 X31 Y57.31725888324873 I0.6294416243654822 J0.30456852791878175
G1 X30.911167512690355 Y57.64213197969543
G1 X30.903553299492387 Y57.664974619289346
G2 X30.898477157360404 Y57.692893401015226 I0.6802030456852792 J0.16243654822335027
G1 X30.875634517766496 Y57.68274111675127
G1 X30.855329949238577 Y57.69543147208122
G2 X30.847715736040612 Y57.66751269035532 I-0.6725888324873096 J0.1903553299492386
G1 X30.84010152284264 Y57.64467005076142
G1 X30.725888324873097 Y57.32741116751269
G2 X30.670050761421322 Y57.21573604060914 I-0.6573604060913706 J0.23857868020304568
G1 X30.505076142131983 Y56.92893401015229
G2 X30.428934010152282 Y56.82233502538071 I-0.6040609137055838 J0.35279187817258884
G1 X30.215736040609137 Y56.578680203045685
G2 X30.116751269035532 Y56.484771573604064 I-0.5279187817258884 J0.4593908629441624
G1 X29.86548223350254 Y56.289340101522846
G2 X29.746192893401012 Y56.21573604060914 I-0.4289340101522843 J0.5532994923857868
G1 X29.46446700507614 Y56.076142131979694
G2 X29.329949238578678 Y56.025380710659896 I-0.30964467005076146 J0.6269035532994924
G1 X29.03045685279188 Y55.94923857868021
G2 X28.883248730964468 Y55.92893401015228 I-0.17512690355329952 J0.6776649746192893
G1 X28.576142131979694 Y55.91624365482233
G2 X28.428934010152282 Y55.923857868020306 I-0.027918781725888325 J0.7005076142131981
G1 X28.1243654822335 Y55.97715736040609
G2 X27.98477157360406 Y56.01776649746193 I0.11928934010152284 J0.6903553299492386
G1 X27.695431472081218 Y56.131979695431475
G2 X27.568527918781726 Y56.19796954314721 I0.25888324873096447 J0.6497461928934011
G1 X27.30203045685279 Y56.37309644670051
G2 X27.197969543147206 Y56.45685279187817 I0.383248730964467 J0.5862944162436547
G1 X26.96446700507614 Y56.682741116751274
G2 X26.880710659898476 Y56.784263959390856 I0.48984771573604063 J0.5
G1 X26.690355329949238 Y57.05329949238578
G2 X26.629441624365484 Y57.162436548223354 I0.5736040609137056 J0.4010152284263959
G1 X26.48730964467005 Y57.469543147208114
G1 X26.477157360406093 Y57.49238578680203
G2 X26.467005076142133 Y57.517766497461935 I0.6472081218274112 J0.2690355329949239
G1 X26.449238578680202 Y57.50253807106599
G1 X26.449238578680202 Y57.50253807106599
G1 X26.423857868020306 Y57.5
G1 X26.421319796954315 Y57.48477157360406
G1 X26.418781725888323 Y57.45939086294416
G1 X26.35532994923858 Y57.129441624365484
G2 X26.31979695431472 Y57.01015228426396 I-0.6878172588832487 J0.1319796954314721
G1 X26.200507614213198 Y56.700507614213194
G2 X26.142131979695435 Y56.58375634517767 I-0.6522842639593909 J0.2512690355329949
G1 X25.97208121827411 Y56.30710659898477
G2 X25.89086294416244 Y56.200507614213194 I-0.5939086294416244 J0.3680203045685279
G1 X25.672588832487307 Y55.96700507614213
G2 X25.565989847715738 Y55.87309644670051 I-0.5126903553299492 J0.47715736040609136
G1 X25.31218274111675 Y55.692893401015226
G2 X25.185279187817258 Y55.62182741116751 I-0.40609137055837563 J0.5685279187817259
G1 X24.903553299492387 Y55.49746192893401
G2 X24.761421319796955 Y55.45177664974619 I-0.27918781725888325 J0.6421319796954316
G1 X24.45939086294416 Y55.390862944162436
G2 X24.314720812182742 Y55.37563451776649 I-0.13959390862944163 J0.6852791878172588
G1 X24.005076142131976 Y55.380710659898476
G2 X23.860406091370557 Y55.39593908629442 I0.007614213197969543 J0.7005076142131981
G1 X23.555837563451778 Y55.464467005076145
G2 X23.421319796954315 Y55.507614213197975 I0.14974619289340102 J0.6827411167512689
G1 X23.131979695431472 Y55.63705583756345
G2 X23.012690355329948 Y55.70304568527919 I0.28426395939086296 J0.6395939086294417
G1 X22.748730964467004 Y55.890862944162436
G2 X22.64720812182741 Y55.9746192893401 I0.4035532994923858 J0.5736040609137056
G1 X22.41624365482234 Y56.213197969543145
G2 X22.337563451776653 Y56.30964467005076 I0.5025380710659898 J0.4873096446700508
G1 X22.1497461928934 Y56.588832487309645
G1 X22.142131979695428 Y56.60152284263959
G1 X22.083756345177665 Y56.58375634517767
G1 X22.083756345177665 Y56.57106598984772
G1 X22.07360406091371 Y56.233502538071065
G2 X22.058375634517766 Y56.10913705583756 I-0.7005076142131981 J0.020304568527918784
G1 X21.98984771573604 Y55.78426395939086
G2 X21.95177664974619 Y55.659898477157356 I-0.6852791878172588 J0.1446700507614213
G1 X21.827411167512693 Y55.360406091370564
G2 X21.763959390862944 Y55.24111675126903 I-0.6472081218274112 J0.2690355329949239
G1 X21.586294416243653 Y54.977157360406096
G2 X21.497461928934012 Y54.86802030456853 I-0.5812182741116751 J0.3883248730964467
G1 X21.276649746192895 Y54.64720812182741
G2 X21.162436548223347 Y54.555837563451774 I-0.49238578680203043 J0.49746192893401014
G1 X20.903553299492387 Y54.38832487309645
G2 X20.77157360406091 Y54.32233502538071 I-0.3807106598984772 J0.5888324873096447
G1 X20.48223350253807 Y54.213197969543145
G2 X20.340101522842637 Y54.1751269035533 I-0.24873096446700507 J0.6548223350253807
G1 X20.035532994923855 Y54.129441624365484
G2 X19.890862944162436 Y54.121827411167516 I-0.10659898477157359 J0.6928934010152283
G1 X19.578680203045685 Y54.139593908629436
G2 X19.439086294416242 Y54.16243654822335 I0.04060913705583757 J0.6979695431472082
G1 X19.131979695431472 Y54.24365482233503
G2 X19.00507614213198 Y54.28934010152284 I0.17766497461928935 J0.6776649746192893
G1 X18.713197969543145 Y54.431472081218274
G2 X18.598984771573605 Y54.49746192893401 I0.30456852791878175 J0.6294416243654822
G1 X18.335025380710658 Y54.69543147208122
G2 X18.241116751269036 Y54.77918781725889 I0.416243654822335 J0.5609137055837563
G1 X18.01015228426396 Y55.0253807106599
G1 X18.01015228426396 Y55.0253807106599
G1 X17.946700507614214 Y54.99492385786802
G1 X17.946700507614214 Y54.99492385786802
G1 X17.99238578680203 Y54.662436548223354
G2 X17.997461928934012 Y54.568527918781726 I-0.6928934010152283 J-0.09390862944162437
G2 X17.997461928934012 Y54.535532994923855 I-0.7005076142131981 J0
G1 X17.982233502538072 Y54.20558375634518
G2 X17.96446700507614 Y54.076142131979694 I-0.7005076142131981 J0.03299492385786802
G1 X17.888324873096447 Y53.76142131979695
G2 X17.845177664974617 Y53.631979695431475 I-0.6802030456852792 J0.16243654822335027
G1 X17.713197969543145 Y53.34263959390863
G2 X17.64213197969543 Y53.22081218274111 I-0.6370558375634517 J0.2893401015228426
G1 X17.456852791878173 Y52.96700507614213
G2 X17.36040609137056 Y52.860406091370564 I-0.565989847715736 J0.4111675126903553
G1 X17.131979695431472 Y52.652284263959395
G2 X17.065989847715738 Y52.598984771573605 I-0.46954314720812185 J0.5203045685279188
G2 X17.012690355329948 Y52.56598984771574 I-0.4035532994923858 J0.5736040609137056
G1 X16.746192893401016 Y52.411167512690355
G2 X16.690355329949238 Y52.38324873096447 I-0.35025380710659904 J0.6065989847715736
G2 X16.611675126903553 Y52.35279187817259 I-0.29441624365482233 J0.6345177664974619
G1 X16.31725888324873 Y52.256345177664976
G2 X16.1751269035533 Y52.22842639593908 I-0.21573604060913704 J0.6649746192893401
G1 X15.862944162436548 Y52.19543147208122
G2 X15.723350253807107 Y52.192893401015226 I-0.07360406091370558 J0.6954314720812182
G1 X15.406091370558375 Y52.22335025380711
G2 X15.274111675126905 Y52.25126903553299 I0.06598984771573604 J0.6979695431472082
G1 X14.961928934010151 Y52.34263959390863
G2 X14.84010152284264 Y52.39340101522843 I0.20050761421319796 J0.6700507614213198
G1 X14.548223350253807 Y52.54314720812182
G2 X14.441624365482234 Y52.611675126903556 I0.3223350253807106 J0.6218274111675127
G1 X14.175126903553299 Y52.817258883248726
G1 X14.175126903553299 Y52.817258883248726
G1 X14.116751269035532 Y52.77918781725888
G1 X14.116751269035532 Y52.77664974619289
G1 X14.215736040609137 Y52.454314720812185
G2 X14.241116751269036 Y52.33248730964468 I-0.6700507614213198 J-0.20304568527918782
G1 X14.279187817258883 Y52.00253807106599
G2 X14.281725888324871 Y51.923857868020306 I-0.6954314720812182 J-0.08121827411167513
G2 X14.281725888324871 Y51.87309644670051 I-0.7005076142131981 J0
G1 X14.256345177664976 Y51.54822335025381
G2 X14.233502538071065 Y51.41624365482233 I-0.6979695431472082 J0.050761421319796954
G1 X14.152284263959391 Y51.10913705583756
G2 X14.101522842639593 Y50.97715736040609 I-0.6751269035532994 J0.18527918781725888
G1 X13.959390862944163 Y50.69796954314721
G2 X13.880710659898476 Y50.576142131979694 I-0.6243654822335025 J0.3147208121827411
G1 X13.687817258883248 Y50.33502538071066
G2 X13.583756345177665 Y50.23096446700507 I-0.5456852791878173 J0.4365482233502538
G1 X13.345177664974619 Y50.035532994923855
G2 X13.223350253807107 Y49.954314720812185 I-0.4416243654822335 J0.5431472081218274
G1 X12.946700507614214 Y49.81218274111675
G2 X12.81218274111675 Y49.76142131979695 I-0.3197969543147208 J0.6218274111675127
G1 X12.51015228426396 Y49.67766497461929
G2 X12.373096446700506 Y49.65482233502538 I-0.18274111675126906 J0.6751269035532994
G1 X12.053299492385786 Y49.63451776649747
G2 X11.918781725888326 Y49.639593908629436 I-0.045685279187817264 J0.6979695431472082
G1 X11.596446700507615 Y49.680203045685275
G2 X11.469543147208121 Y49.71065989847716 I0.09137055837563453 J0.6928934010152283
G1 X11.154822335025381 Y49.81218274111675
G2 X11.038071065989847 Y49.86294416243655 I0.2182741116751269 J0.6649746192893401
G1 X10.743654822335024 Y50.022842639593904
G1 X10.730964467005075 Y50.030456852791886
G1 X10.685279187817258 Y49.98730964467005
G1 X10.69289340101523 Y49.9746192893401
G1 X10.840101522842641 Y49.672588832487314
G2 X10.885786802030458 Y49.55329949238578 I-0.6294416243654822 J-0.3071065989847716
G1 X10.974619289340101 Y49.23604060913705
G2 X11 Y49.10659898477157 I-0.6725888324873096 J-0.1903553299492386
G1 X11.027918781725887 Y48.78426395939086
G2 X11.030456852791879 Y48.72081218274111 I-0.6979695431472082 J-0.06345177664974619
G2 X11.027918781725887 Y48.647208121827404 I-0.7005076142131981 J0
G1 X10.99492385786802 Y48.33248730964467
G2 X10.964467005076141 Y48.192893401015226 I-0.6954314720812182 J0.07360406091370558
G1 X10.870558375634518 Y47.89593908629442
G2 X10.812182741116752 Y47.76395939086294 I-0.6675126903553299 J0.21065989847715735
G1 X10.65989847715736 Y47.49492385786802
G2 X10.576142131979696 Y47.3730964467005 I-0.6091370558375635 J0.3451776649746193
G1 X10.370558375634518 Y47.14467005076142
G2 X10.261421319796955 Y47.04314720812182 I-0.5228426395939086 J0.46446700507614214
G1 X10.01269035532995 Y46.86040609137056
G2 X9.888324873096447 Y46.786802030456855 I-0.416243654822335 J0.5634517766497462
G1 X9.604060913705583 Y46.65736040609137
G2 X9.469543147208121 Y46.61167512690355 I-0.2893401015228426 J0.6370558375634517
G1 X9.159898477157359 Y46.54060913705584
G2 X9.025380710659899 Y46.52284263959391 I-0.15736040609137056 J0.6827411167512689
G1 X8.700507614213198 Y46.51269035532995
G2 X8.571065989847716 Y46.52284263959391 I-0.022842639593908632 J0.7005076142131981
G1 X8.243654822335026 Y46.57360406091371
G2 X8.121827411167512 Y46.60406091370558 I0.10913705583756345 J0.6903553299492386
G1 X7.804568527918781 Y46.713197969543145
G1 X7.781725888324873 Y46.723350253807105
G2 X7.756345177664975 Y46.73350253807107 I0.25380710659898476 J0.6522842639593909
G1 X7.751269035532995 Y46.70812182741117
G1 X7.751269035532995 Y46.70812182741117
G1 X7.736040609137056 Y46.69035532994924
G1 X7.746192893401015 Y46.67766497461929
G1 X7.761421319796954 Y46.65736040609137
G1 X7.956852791878173 Y46.38324873096447
G2 X8.02030456852792 Y46.2741116751269 I-0.5710659898477157 J-0.40609137055837563
G1 X8.15989847715736 Y45.9746192893401
G2 X8.203045685279188 Y45.850253807106604 I-0.6345177664974619 J-0.2969543147208122
G1 X8.284263959390863 Y45.53807106598985
G2 X8.304568527918782 Y45.40355329949239 I-0.6776649746192893 J-0.17258883248730966
G1 X8.32233502538071 Y45.08629441624365
G2 X8.324873096446701 Y45.045685279187815 I-0.6979695431472082 J-0.03807106598984772
G2 X8.31725888324873 Y44.944162436548226 I-0.7005076142131981 J0
G1 X8.271573604060913 Y44.63451776649747
G2 X8.236040609137056 Y44.49492385786802 I-0.6928934010152283 J0.10152284263959391
G1 X8.129441624365482 Y44.20558375634518
G2 X8.063451776649746 Y44.07360406091371 I-0.6573604060913706 J0.24111675126903553
G1 X7.898477157360406 Y43.81218274111675
G2 X7.807106598984772 Y43.69543147208121 I-0.5913705583756345 J0.3730964467005076
G1 X7.591370558375634 Y43.4746192893401
G2 X7.479695431472081 Y43.38324873096447 I-0.5 J0.48984771573604063
G1 X7.218274111675127 Y43.21065989847716
G2 X7.093908629441624 Y43.142131979695435 I-0.3883248730964467 J0.5812182741116751
G1 X6.7994923857868015 Y43.022842639593904
G2 X6.6700507614213205 Y42.98477157360406 I-0.2639593908629442 J0.6472081218274112
G1 X6.3502538071066 Y42.9238578680203
G2 X6.220812182741117 Y42.90862944162437 I-0.13451776649746194 J0.6878172588832487
G1 X5.890862944162436 Y42.90862944162437
G2 X5.766497461928934 Y42.91878172588832 I-0.005076142131979696 J0.7005076142131981
G1 X5.434010152284264 Y42.97715736040609
G1 X5.411167512690356 Y42.98223350253807
G2 X5.383248730964468 Y42.98730964467005 I0.1446700507614213 J0.6852791878172588
G1 X5.383248730964468 Y42.961928934010146
G1 X5.362944162436548 Y42.9492385786802
G2 X5.383248730964468 Y42.931472081218274 I-0.4593908629441624 J-0.5279187817258884
G1 X5.401015228426395 Y42.91370558375634
G1 X5.637055837563452 Y42.675126903553306
G2 X5.718274111675127 Y42.576142131979694 I-0.49746192893401014 J-0.49238578680203043
G1 X5.903553299492385 Y42.30456852791878
G2 X5.967005076142132 Y42.190355329949234 I-0.5786802030456852 J-0.3934010152284264
G1 X6.096446700507614 Y41.890862944162436
G2 X6.1395939086294415 Y41.763959390862944 I-0.6421319796954316 J-0.27918781725888325
G1 X6.208121827411167 Y41.45177664974619
G2 X6.223350253807106 Y41.31218274111675 I-0.6827411167512689 J-0.14974619289340102
G1 X6.228426395939087 Y41
G1 X6.228426395939087 Y40.98730964467005
G2 X6.215736040609137 Y40.85532994923858 I-0.7005076142131981 J0
G1 X6.15736040609137 Y40.5507614213198
G2 X6.114213197969543 Y40.411167512690355 I-0.6878172588832487 J0.13451776649746194
G1 X5.99238578680203 Y40.1269035532995
G2 X5.921319796954315 Y39.99746192893401 I-0.6446700507614213 J0.27411167512690354
G1 X5.743654822335026 Y39.746192893401016
G2 X5.647208121827411 Y39.63705583756345 I-0.5710659898477157 J0.4035532994923858
G1 X5.4187817258883255 Y39.423857868020306
G2 X5.307106598984772 Y39.337563451776646 I-0.47715736040609136 J0.5126903553299492
G1 X5.035532994923858 Y39.17258883248731
G2 X4.913705583756346 Y39.11421319796955 I-0.3654822335025381 J0.5964467005076142
G1 X4.6091370558375635 Y39
G2 X4.482233502538071 Y38.96700507614214 I-0.2436548223350254 J0.6573604060913706
G1 X4.15482233502538 Y38.911167512690355
G2 X4.030456852791878 Y38.90355329949239 I-0.11675126903553298 J0.6903553299492386
G1 X3.692893401015229 Y38.90609137055838
G1 X3.6700507614213196 Y38.90862944162436
G1 X3.66497461928934 Y38.90355329949239
G1 X3.652284263959391 Y38.85532994923858
G1 X3.652284263959391 Y38.85279187817259
G1 X3.6725888324873095 Y38.84010152284264
G1 X3.9441624365482237 Y38.642131979695435
G2 X4.038071065989848 Y38.558375634517766 I-0.4137055837563452 J-0.565989847715736
G1 X4.266497461928934 Y38.31725888324873
G2 X4.345177664974619 Y38.21573604060914 I-0.5076142131979695 J-0.48223350253807107
G1 X4.522842639593908 Y37.941624365482234
G2 X4.583756345177664 Y37.82233502538071 I-0.5888324873096447 J-0.3781725888324873
G1 X4.700507614213198 Y37.5253807106599
G2 X4.741116751269035 Y37.390862944162436 I-0.6497461928934011 J-0.25888324873096447
G1 X4.7944162436548226 Y37.08375634517766
G2 X4.807106598984772 Y36.95939086294416 I-0.6878172588832487 J-0.12436548223350254
G1 X4.804568527918781 Y36.93908629441624
G1 X4.7969543147208125 Y36.629441624365484
G2 X4.776649746192893 Y36.48223350253807 I-0.7005076142131981 J0.020304568527918784
G1 X4.7030456852791875 Y36.18527918781726
G2 X4.652284263959391 Y36.045685279187815 I-0.6802030456852792 J0.16751269035532995
G1 X4.517766497461929 Y35.76903553299492
G2 X4.441624365482234 Y35.64467005076142 I-0.6294416243654822 J0.3071065989847716
G1 X4.248730964467005 Y35.398477157360404
G2 X4.152284263959391 Y35.29441624365482 I-0.5532994923857868 J0.4289340101522843
G1 X3.911167512690356 Y35.088832487309645
G2 X3.799492385786802 Y35.01015228426396 I-0.45685279187817257 J0.5304568527918782
G1 X3.517766497461929 Y34.8502538071066
G2 X3.3984771573604062 Y34.796954314720814 I-0.3451776649746193 J0.6091370558375635
G1 X3.0837563451776653 Y34.69035532994924
G2 X2.9619289340101522 Y34.65989847715736 I-0.22588832487309643 J0.6624365482233502
G1 X2.6294416243654823 Y34.61167512690355
G1 X2.6218274111675126 Y34.609137055837564
G1 X2.6142131979695433 Y34.54314720812183
G1 X2.6167512690355332 Y34.54060913705584
G1 X2.9187817258883246 Y34.38832487309645
G2 X3.025380710659898 Y34.32233502538071 I-0.31725888324873097 J-0.6243654822335025
G1 X3.286802030456853 Y34.12182741116751
G2 X3.383248730964467 Y34.03299492385787 I-0.42385786802030456 J-0.5558375634517766
G1 X3.6015228426395938 Y33.79187817258883
G2 X3.682741116751269 Y33.68274111675127 I-0.5203045685279188 J-0.46954314720812185
G1 X3.8451776649746194 Y33.411167512690355
G2 X3.9060913705583755 Y33.28172588832487 I-0.6015228426395939 J-0.3604060913705584
G1 X4.00761421319797 Y32.98730964467005
G2 X4.043147208121828 Y32.84517766497462 I-0.6598984771573604 J-0.23096446700507614
G1 X4.083756345177665 Y32.54060913705584
G2 X4.088832487309645 Y32.4492385786802 I-0.6928934010152283 J-0.09137055837563453
G2 X4.086294416243655 Y32.39340101522843 I-0.7005076142131981 J0
G1 X4.073604060913706 Y32.236040609137056
G1 X4.060913705583756 Y32.08629441624366
G2 X4.035532994923858 Y31.94670050761421 I-0.6979695431472082 J0.05583756345177665
G1 X4.035532994923858 Y31.941624365482234
G1 X3.9441624365482237 Y31.644670050761423
G2 X3.8883248730964466 Y31.51015228426396 I-0.6700507614213198 J0.20050761421319796
G1 X3.7411167512690358 Y31.236040609137056
G2 X3.659898477157361 Y31.11928934010152 I-0.6142131979695432 J0.3350253807106599
G1 X3.4543147208121825 Y30.875634517766496
G2 X3.3578680203045685 Y30.78172588832487 I-0.5355329949238579 J0.45177664974619286
G1 X3.1040609137055837 Y30.578680203045685
G2 X2.99492385786802 Y30.507614213197968 I-0.4390862944162437 J0.5456852791878173
G1 X2.703045685279188 Y30.35279187817259
G2 X2.5888324873096447 Y30.302030456852794 I-0.3299492385786802 J0.616751269035533
G1 X2.269035532994924 Y30.200507614213198
G1 X2.269035532994924 Y30.129441624365484
G1 X2.5888324873096447 Y30.027918781725887
G2 X2.703045685279188 Y29.977157360406093 I-0.21319796954314718 J-0.6675126903553299
G1 X2.99492385786802 Y29.82233502538071
G2 X3.1040609137055837 Y29.751269035532996 I-0.3299492385786802 J-0.616751269035533
G1 X3.3578680203045685 Y29.548223350253807
G2 X3.4543147208121825 Y29.45177664974619 I-0.4390862944162437 J-0.5456852791878173
G1 X3.659898477157361 Y29.210659898477157
G2 X3.7411167512690358 Y29.093908629441625 I-0.5355329949238579 J-0.45177664974619286
G1 X3.8883248730964466 Y28.81979695431472
G2 X3.9441624365482237 Y28.68527918781726 I-0.6142131979695432 J-0.3350253807106599
G1 X4.035532994923858 Y28.388324873096447
G1 X4.035532994923858 Y28.383248730964468
G2 X4.060913705583756 Y28.243654822335028 I-0.6725888324873096 J-0.1954314720812183
G1 X4.073604060913706 Y28.093908629441625
G1 X4.086294416243655 Y27.936548223350254
G2 X4.088832487309645 Y27.880710659898476 I-0.6979695431472082 J-0.05583756345177665
G2 X4.083756345177665 Y27.789340101522843 I-0.7005076142131981 J0
G1 X4.043147208121828 Y27.482233502538072
G2 X4.00761421319797 Y27.34263959390863 I-0.6928934010152283 J0.09137055837563453
G1 X3.9060913705583755 Y27.048223350253807
G2 X3.8451776649746194 Y26.918781725888326 I-0.6598984771573604 J0.23096446700507614
G1 X3.682741116751269 Y26.64720812182741
G2 X3.6015228426395938 Y26.538071065989847 I-0.6015228426395939 J0.3604060913705584
G1 X3.383248730964467 Y26.29695431472081
G2 X3.286802030456853 Y26.20812182741117 I-0.5203045685279188 J0.46954314720812185
G1 X3.025380710659898 Y26.00761421319797
G2 X2.9187817258883246 Y25.941624365482234 I-0.42385786802030456 J0.5558375634517766
G1 X2.6167512690355332 Y25.789340101522843
G1 X2.6142131979695433 Y25.786802030456855
G1 X2.6218274111675126 Y25.720812182741113
G1 X2.6294416243654823 Y25.71827411167513
G1 X2.9619289340101522 Y25.670050761421322
G2 X3.0837563451776653 Y25.639593908629443 I-0.10406091370558375 J-0.6928934010152283
G1 X3.3984771573604062 Y25.532994923857867
G2 X3.517766497461929 Y25.47969543147208 I-0.22588832487309643 J-0.6624365482233502
G1 X3.799492385786802 Y25.31979695431472
G2 X3.911167512690356 Y25.241116751269036 I-0.3451776649746193 J-0.6091370558375635
G1 X4.152284263959391 Y25.03299492385787
G2 X4.248730964467005 Y24.931472081218274 I-0.45685279187817257 J-0.5304568527918782
G1 X4.441624365482234 Y24.685279187817258
G2 X4.517766497461929 Y24.560913705583758 I-0.5532994923857868 J-0.4289340101522843
G1 X4.652284263959391 Y24.284263959390863
G2 X4.7030456852791875 Y24.144670050761423 I-0.6294416243654822 J-0.3071065989847716
G1 X4.776649746192893 Y23.845177664974617
G2 X4.7969543147208125 Y23.700507614213198 I-0.6802030456852792 J-0.16751269035532995
G1 X4.804568527918781 Y23.39086294416244
G1 X4.807106598984772 Y23.370558375634516
G2 X4.7944162436548226 Y23.246192893401016 I-0.7005076142131981 J0
G1 X4.741116751269035 Y22.939086294416242
G2 X4.700507614213198 Y22.804568527918782 I-0.6878172588832487 J0.12436548223350254
G1 X4.583756345177664 Y22.50761421319797
G2 X4.522842639593908 Y22.388324873096444 I-0.6497461928934011 J0.25888324873096447
G1 X4.345177664974619 Y22.114213197969544
G2 X4.266497461928934 Y22.01269035532995 I-0.5888324873096447 J0.3781725888324873
G1 X4.038071065989848 Y21.771573604060915
G2 X3.9441624365482237 Y21.68781725888325 I-0.5076142131979695 J0.48223350253807107
G1 X3.6725888324873095 Y21.48984771573604
G1 X3.652284263959391 Y21.4746192893401
G1 X3.652284263959391 Y21.4746192893401
G1 X3.66497461928934 Y21.426395939086294
G1 X3.6700507614213196 Y21.421319796954315
G1 X3.692893401015229 Y21.423857868020306
G1 X4.030456852791878 Y21.426395939086294
G2 X4.15482233502538 Y21.416243654822335 I0.010152284263959392 J-0.7005076142131981
G1 X4.482233502538071 Y21.36294416243655
G2 X4.6091370558375635 Y21.32994923857868 I-0.11675126903553298 J-0.6903553299492386
G1 X4.913705583756346 Y21.215736040609137
G2 X5.035532994923858 Y21.15736040609137 I-0.2436548223350254 J-0.6573604060913706
G1 X5.307106598984772 Y20.992385786802032
G2 X5.4187817258883255 Y20.906091370558375 I-0.3654822335025381 J-0.5964467005076142
G1 X5.647208121827411 Y20.69289340101523
G2 X5.743654822335026 Y20.583756345177665 I-0.47715736040609136 J-0.5126903553299492
G1 X5.921319796954315 Y20.33248730964467
G2 X5.99238578680203 Y20.20304568527919 I-0.5710659898477157 J-0.4035532994923858
G1 X6.114213197969543 Y19.918781725888326
G2 X6.15736040609137 Y19.779187817258883 I-0.6446700507614213 J-0.27411167512690354
G1 X6.215736040609137 Y19.4746192893401
G2 X6.228426395939087 Y19.34263959390863 I-0.6878172588832487 J-0.13451776649746194
G1 X6.228426395939087 Y19.32994923857868
G1 X6.223350253807106 Y19.01776649746193
G2 X6.208121827411167 Y18.878172588832488 I-0.7005076142131981 J0.010152284263959392
G1 X6.137055837563452 Y18.565989847715734
G2 X6.096446700507614 Y18.439086294416242 I-0.6827411167512689 J0.14974619289340102
G1 X5.967005076142132 Y18.13959390862944
G2 X5.903553299492385 Y18.0253807106599 I-0.6421319796954316 J0.27918781725888325
G1 X5.718274111675127 Y17.753807106598984
G2 X5.637055837563452 Y17.65482233502538 I-0.5786802030456852 J0.3934010152284264
G1 X5.401015228426395 Y17.416243654822335
G1 X5.383248730964468 Y17.398477157360407
G2 X5.362944162436548 Y17.380710659898476 I-0.48223350253807107 J0.5076142131979695
G1 X5.383248730964468 Y17.36548223350254
G1 X5.383248730964468 Y17.34263959390863
G2 X5.411167512690356 Y17.34771573604061 I0.17258883248730966 J-0.6776649746192893
G1 X5.434010152284264 Y17.35279187817259
G1 X5.766497461928934 Y17.411167512690355
G2 X5.890862944162436 Y17.421319796954315 I0.1218274111675127 J-0.6903553299492386
G1 X6.220812182741117 Y17.421319796954315
G2 X6.3502538071066 Y17.406091370558375 I-0.005076142131979696 J-0.7005076142131981
G1 X6.6700507614213205 Y17.34517766497462
G2 X6.7994923857868015 Y17.30710659898477 I-0.13451776649746194 J-0.6878172588832487
G1 X7.093908629441624 Y17.185279187817258
G2 X7.218274111675127 Y17.119289340101524 I-0.2639593908629442 J-0.6472081218274112
G1 X7.479695431472081 Y16.946700507614214
G2 X7.591370558375634 Y16.855329949238577 I-0.3883248730964467 J-0.5812182741116751
G1 X7.807106598984772 Y16.63451776649746
G2 X7.898477157360406 Y16.51776649746193 I-0.5 J-0.48984771573604063
G1 X8.063451776649746 Y16.256345177664976
G2 X8.129441624365482 Y16.124365482233504 I-0.5913705583756345 J-0.3730964467005076
G1 X8.236040609137056 Y15.83502538071066
G2 X8.271573604060913 Y15.695431472081218 I-0.6573604060913706 J-0.24111675126903553
G1 X8.31725888324873 Y15.385786802030456
G2 X8.324873096446701 Y15.284263959390863 I-0.6928934010152283 J-0.10152284263959391
G2 X8.32233502538071 Y15.243654822335024 I-0.7005076142131981 J0
G1 X8.304568527918782 Y14.926395939086294
G2 X8.284263959390863 Y14.791878172588833 I-0.6979695431472082 J0.04060913705583757
G1 X8.203045685279188 Y14.477157360406093
G2 X8.15989847715736 Y14.355329949238577 I-0.6776649746192893 J0.17258883248730966
G1 X8.02030456852792 Y14.055837563451776
G2 X7.956852791878173 Y13.946700507614214 I-0.6345177664974619 J0.2969543147208122
G1 X7.761421319796954 Y13.672588832487309
G1 X7.746192893401015 Y13.652284263959391
G2 X7.730964467005076 Y13.631979695431474 I-0.5558375634517766 J0.42385786802030456
G1 X7.751269035532995 Y13.621827411167512
G1 X7.751269035532995 Y13.619289340101524
G1 X7.7664974619289335 Y13.601522842639593
G1 X7.781725888324873 Y13.606598984771574
G1 X7.804568527918781 Y13.616751269035532
G1 X8.121827411167512 Y13.725888324873097
G2 X8.243654822335026 Y13.756345177664976 I0.23096446700507614 J-0.6598984771573604
G1 X8.571065989847716 Y13.80710659898477
G2 X8.700507614213198 Y13.81725888324873 I0.10913705583756345 J-0.6903553299492386
G1 X9.025380710659899 Y13.80710659898477
G2 X9.159898477157359 Y13.789340101522843 I-0.022842639593908632 J-0.7005076142131981
G1 X9.469543147208121 Y13.718274111675125
G2 X9.604060913705583 Y13.672588832487309 I-0.15736040609137056 J-0.6827411167512689
G1 X9.888324873096447 Y13.543147208121828
G2 X10.01269035532995 Y13.469543147208123 I-0.2893401015228426 J-0.6370558375634517
G1 X10.261421319796955 Y13.286802030456853
G2 X10.370558375634518 Y13.185279187817258 I-0.416243654822335 J-0.5634517766497462
G1 X10.576142131979696 Y12.956852791878173
G2 X10.65989847715736 Y12.835025380710661 I-0.5228426395939086 J-0.46446700507614214
G1 X10.812182741116752 Y12.565989847715734
G2 X10.870558375634518 Y12.434010152284266 I-0.6091370558375635 J-0.3451776649746193
G1 X10.964467005076141 Y12.134517766497462
G2 X10.99492385786802 Y11.99746192893401 I-0.6675126903553299 J-0.21065989847715735
G1 X11.027918781725887 Y11.68020304568528
G2 X11.030456852791879 Y11.609137055837564 I-0.6954314720812182 J-0.07360406091370558
G2 X11.027918781725887 Y11.545685279187817 I-0.7005076142131981 J0
G1 X11 Y11.223350253807107
G2 X10.974619289340101 Y11.093908629441625 I-0.6979695431472082 J0.06345177664974619
G1 X10.885786802030458 Y10.776649746192895
G2 X10.840101522842641 Y10.65736040609137 I-0.6725888324873096 J0.1903553299492386
G1 X10.69289340101523 Y10.355329949238579
G1 X10.685279187817258 Y10.342639593908629
G1 X10.730964467005075 Y10.299492385786802
G1 X10.743654822335024 Y10.307106598984772
G1 X11.038071065989847 Y10.467005076142133
G2 X11.154822335025381 Y10.51776649746193 I0.33248730964467005 J-0.616751269035533
G1 X11.469543147208121 Y10.619289340101524
G2 X11.596446700507615 Y10.649746192893401 I0.2182741116751269 J-0.6649746192893401
G1 X11.918781725888326 Y10.69035532994924
G2 X12.053299492385786 Y10.695431472081218 I0.09137055837563453 J-0.6928934010152283
G1 X12.370558375634516 Y10.6751269035533
G2 X12.51015228426396 Y10.652284263959391 I-0.045685279187817264 J-0.6979695431472082
G1 X12.81218274111675 Y10.568527918781726
G2 X12.946700507614214 Y10.51522842639594 I-0.18527918781725888 J-0.6751269035532994
G1 X13.223350253807107 Y10.375634517766496
G2 X13.345177664974619 Y10.294416243654823 I-0.3197969543147208 J-0.6218274111675127
G1 X13.583756345177665 Y10.098984771573605
G2 X13.687817258883248 Y9.99492385786802 I-0.4416243654822335 J-0.5431472081218274
G1 X13.880710659898476 Y9.753807106598986
G2 X13.959390862944163 Y9.631979695431472 I-0.5456852791878173 J-0.4365482233502538
G1 X14.101522842639593 Y9.352791878172589
G2 X14.152284263959391 Y9.220812182741117 I-0.6243654822335025 J-0.3147208121827411
G1 X14.233502538071065 Y8.913705583756345
G2 X14.256345177664976 Y8.781725888324873 I-0.6751269035532994 J-0.18274111675126906
G1 X14.281725888324871 Y8.456852791878172
G2 X14.281725888324871 Y8.406091370558377 I-0.6979695431472082 J-0.050761421319796954
G2 X14.279187817258883 Y8.32741116751269 I-0.7005076142131981 J0
G1 X14.241116751269036 Y7.99746192893401
G2 X14.215736040609137 Y7.875634517766498 I-0.6954314720812182 J0.08121827411167513
G1 X14.116751269035532 Y7.553299492385786
G1 X14.116751269035532 Y7.550761421319797
G1 X14.175126903553299 Y7.5126903553299496
G1 X14.175126903553299 Y7.5126903553299496
G1 X14.441624365482234 Y7.718274111675127
G2 X14.548223350253807 Y7.784263959390863 I0.42639593908629436 J-0.5532994923857868
G1 X14.842639593908629 Y7.936548223350254
G2 X14.961928934010151 Y7.9873096446700504 I0.3223350253807106 J-0.6218274111675127
G1 X15.274111675126905 Y8.078680203045685
G2 X15.406091370558375 Y8.106598984771573 I0.20050761421319796 J-0.6700507614213198
G1 X15.723350253807107 Y8.137055837563452
G2 X15.862944162436548 Y8.134517766497462 I0.06852791878172589 J-0.6979695431472082
G1 X16.1751269035533 Y8.101522842639593
G2 X16.31725888324873 Y8.073604060913706 I-0.07360406091370558 J-0.6954314720812182
G1 X16.611675126903553 Y7.977157360406092
G2 X16.690355329949238 Y7.946700507614213 I-0.21573604060913704 J-0.6649746192893401
G2 X16.746192893401016 Y7.9187817258883255 I-0.2969543147208122 J-0.6345177664974619
G1 X17.012690355329948 Y7.7639593908629445
G2 X17.063451776649746 Y7.730964467005076 I-0.35025380710659904 J-0.6065989847715736
G2 X17.131979695431472 Y7.677664974619289 I-0.4010152284263959 J-0.5736040609137056
G1 X17.36040609137056 Y7.469543147208122
G2 X17.456852791878173 Y7.3629441624365475 I-0.46954314720812185 J-0.5203045685279188
G1 X17.64213197969543 Y7.1091370558375635
G2 X17.713197969543145 Y6.987309644670051 I-0.565989847715736 J-0.4111675126903553
G1 X17.845177664974617 Y6.697969543147209
G2 X17.888324873096447 Y6.568527918781726 I-0.6370558375634517 J-0.2893401015228426
G1 X17.96446700507614 Y6.253807106598986
G2 X17.982233502538072 Y6.124365482233502 I-0.6802030456852792 J-0.16243654822335027
G1 X17.997461928934012 Y5.794416243654822
G2 X17.997461928934012 Y5.761421319796955 I-0.7005076142131981 J-0.03299492385786802
G2 X17.99238578680203 Y5.66751269035533 I-0.7005076142131981 J0
G1 X17.946700507614214 Y5.335025380710659
G1 X17.946700507614214 Y5.335025380710659
G1 X18.01015228426396 Y5.304568527918781
G1 X18.01015228426396 Y5.304568527918781
G1 X18.241116751269036 Y5.550761421319796
G2 X18.335025380710658 Y5.634517766497462 I0.5101522842639594 J-0.47715736040609136
G1 X18.598984771573605 Y5.8299492385786795
G2 X18.710659898477157 Y5.898477157360405 I0.416243654822335 J-0.5609137055837563
G1 X19.00253807106599 Y6.040609137055838
G2 X19.131979695431472 Y6.086294416243655 I0.30456852791878175 J-0.6294416243654822
G1 X19.439086294416242 Y6.167512690355331
G2 X19.578680203045685 Y6.190355329949239 I0.17766497461928935 J-0.6776649746192893
G1 X19.890862944162436 Y6.208121827411167
G2 X20.035532994923855 Y6.200507614213198 I0.03807106598984772 J-0.6979695431472082
G1 X20.340101522842637 Y6.154822335025381
G2 X20.48223350253807 Y6.116751269035533 I-0.10659898477157359 J-0.6928934010152283
G1 X20.77157360406091 Y6.00761421319797
G2 X20.903553299492387 Y5.941624365482233 I-0.24873096446700507 J-0.6548223350253807
G1 X21.162436548223347 Y5.774111675126904
G2 X21.274111675126903 Y5.682741116751268 I-0.3807106598984772 J-0.5888324873096447
G1 X21.497461928934012 Y5.461928934010151
G2 X21.586294416243653 Y5.352791878172589 I-0.49238578680203043 J-0.49746192893401014
G1 X21.763959390862944 Y5.088832487309645
G2 X21.827411167512693 Y4.969543147208122 I-0.5812182741116751 J-0.3883248730964467
G1 X21.95177664974619 Y4.67005076142132
G2 X21.98984771573604 Y4.5456852791878175 I-0.6472081218274112 J-0.2690355329949239
G1 X22.058375634517766 Y4.220812182741117
G2 X22.07360406091371 Y4.096446700507615 I-0.6852791878172588 J-0.1446700507614213
G1 X22.083756345177665 Y3.7588832487309642
G1 X22.083756345177665 Y3.746192893401015
G1 X22.142131979695428 Y3.728426395939086
G1 X22.1497461928934 Y3.7411167512690358
G1 X22.337563451776653 Y4.020304568527918
G2 X22.418781725888323 Y4.116751269035533 I0.5812182741116751 J-0.3908629441624366
G1 X22.64720812182741 Y4.355329949238579
G2 X22.748730964467004 Y4.439086294416244 I0.5025380710659898 J-0.4873096446700508
G1 X23.012690355329948 Y4.626903553299492
G2 X23.131979695431472 Y4.692893401015229 I0.4035532994923858 J-0.5736040609137056
G1 X23.421319796954315 Y4.822335025380711
G2 X23.555837563451778 Y4.865482233502538 I0.28426395939086296 J-0.6395939086294417
G1 X23.860406091370557 Y4.934010152284264
G2 X24.005076142131976 Y4.949238578680203 I0.14974619289340102 J-0.6827411167512689
G1 X24.314720812182742 Y4.954314720812183
G2 X24.461928934010153 Y4.939086294416244 I0.007614213197969543 J-0.7005076142131981
G1 X24.761421319796955 Y4.878172588832487
G2 X24.903553299492387 Y4.83248730964467 I-0.13959390862944163 J-0.6852791878172588
G1 X25.185279187817258 Y4.708121827411167
G2 X25.31218274111675 Y4.637055837563452 I-0.2817258883248731 J-0.6421319796954316
G1 X25.565989847715738 Y4.456852791878172
G2 X25.672588832487307 Y4.362944162436548 I-0.40609137055837563 J-0.5685279187817259
G1 X25.89086294416244 Y4.129441624365483
G2 X25.97208121827411 Y4.022842639593909 I-0.5126903553299492 J-0.47715736040609136
G1 X26.142131979695435 Y3.746192893401015
G2 X26.200507614213198 Y3.629441624365482 I-0.5939086294416244 J-0.3680203045685279
G1 X26.31979695431472 Y3.3197969543147208
G2 X26.35532994923858 Y3.2005076142131976 I-0.6522842639593909 J-0.2512690355329949
G1 X26.418781725888323 Y2.868020304568528
G1 X26.421319796954315 Y2.845177664974619
G2 X26.426395939086294 Y2.817258883248731 I-0.6928934010152283 J-0.10659898477157359
G1 X26.449238578680202 Y2.8274111675126905
G1 X26.449238578680202 Y2.8248730964467006
G1 X26.472081218274113 Y2.8223350253807107
G1 X26.479695431472084 Y2.8375634517766497
G1 X26.48730964467005 Y2.860406091370558
G1 X26.629441624365484 Y3.1675126903553297
G2 X26.690355329949238 Y3.276649746192893 I0.6370558375634517 J-0.2918781725888325
G1 X26.880710659898476 Y3.5456852791878175
G2 X26.96446700507614 Y3.6472081218274113 I0.5736040609137056 J-0.4010152284263959
G1 X27.197969543147206 Y3.8730964467005076
G2 X27.30203045685279 Y3.9568527918781724 I0.48984771573604063 J-0.5
G1 X27.568527918781726 Y4.131979695431472
G2 X27.695431472081218 Y4.197969543147208 I0.383248730964467 J-0.5862944162436547
G1 X27.98477157360406 Y4.312182741116751
G2 X28.1243654822335 Y4.352791878172589 I0.25888324873096447 J-0.6497461928934011
G1 X28.428934010152282 Y4.403553299492386
G2 X28.576142131979694 Y4.413705583756345 I0.11928934010152284 J-0.6903553299492386
G1 X28.883248730964468 Y4.401015228426396
G2 X29.03045685279188 Y4.380710659898478 I-0.027918781725888325 J-0.7005076142131981
G1 X29.329949238578678 Y4.304568527918782
G2 X29.46446700507614 Y4.253807106598985 I-0.17512690355329952 J-0.6776649746192893
G1 X29.746192893401012 Y4.114213197969542
G2 X29.86548223350254 Y4.040609137055838 I-0.30964467005076146 J-0.6269035532994924
G1 X30.116751269035532 Y3.8451776649746194
G2 X30.215736040609137 Y3.751269035532995 I-0.4289340101522843 J-0.5532994923857868
G1 X30.428934010152282 Y3.5076142131979693
G2 X30.505076142131983 Y3.401015228426396 I-0.5279187817258884 J-0.4593908629441624
G1 X30.670050761421322 Y3.1142131979695433
G2 X30.725888324873097 Y3.00253807106599 I-0.6040609137055838 J-0.35279187817258884
G1 X30.84010152284264 Y2.685279187817259
G1 X30.847715736040612 Y2.6624365482233503
G2 X30.855329949238577 Y2.6345177664974617 I-0.6649746192893401 J-0.21573604060913704
G1 X30.875634517766496 Y2.6472081218274113
G1 X30.898477157360404 Y2.6370558375634516
G2 X30.903553299492387 Y2.66497461928934 I0.6878172588832487 J-0.13451776649746194
G1 X30.911167512690355 Y2.687817258883249
G1 X31 Y3.0126903553299496
G2 X31.04314720812183 Y3.129441624365482 I0.6751269035532994 J-0.18527918781725888
G1 X31.18781725888325 Y3.4289340101522843
G2 X31.256345177664976 Y3.5406091370558372 I0.6294416243654822 J-0.30456852791878175
G1 X31.449238578680202 Y3.802030456852792
G2 X31.538071065989847 Y3.901015228426396 I0.5634517766497462 J-0.416243654822335
G1 X31.774111675126903 Y4.116751269035533
G2 X31.885786802030456 Y4.200507614213198 I0.47208121827411165 J-0.5177664974619289
G1 X32.15482233502538 Y4.3604060913705585
G2 X32.286802030456855 Y4.4238578680203045 I0.3604060913705584 J-0.6015228426395939
G1 X32.578680203045685 Y4.522842639593908
G2 X32.72335025380711 Y4.555837563451776 I0.22842639593908629 J-0.6624365482233502
G1 X33.02791878172589 Y4.593908629441624
G2 X33.1751269035533 Y4.596446700507614 I0.08375634517766498 J-0.6954314720812182
G1 X33.48223350253807 Y4.568527918781726
G2 X33.62436548223351 Y4.540609137055838 I-0.06345177664974619 J-0.6979695431472082
G1 X33.923857868020306 Y4.449238578680203
G2 X34.05329949238579 Y4.393401015228426 I-0.20558375634517764 J-0.6700507614213198
G1 X34.33502538071066 Y4.241116751269035
G2 X34.44670050761421 Y4.16497461928934 I-0.3350253807106599 J-0.6142131979695432
G1 X34.69543147208122 Y3.9568527918781724
G2 X34.786802030456855 Y3.865482233502538 I-0.4467005076142132 J-0.5380710659898478
G1 X34.99746192893401 Y3.6091370558375635
G2 X35.068527918781726 Y3.5076142131979693 I-0.5406091370558376 J-0.4467005076142132
G1 X35.233502538071065 Y3.213197969543147
G1 X35.246192893401016 Y3.190355329949239
G1 X35.25126903553299 Y3.190355329949239
G1 X35.30203045685279 Y3.2030456852791875
G1 X35.30203045685279 Y3.2030456852791875
G1 X35.30456852791878 Y3.228426395939086
G1 X35.34010152284264 Y3.5609137055837565
G2 X35.36548223350253 Y3.6852791878172586 I0.6954314720812182 J-0.07614213197969544
G1 X35.45939086294416 Y4.00253807106599
G2 X35.50761421319797 Y4.124365482233502 I0.6700507614213198 J-0.1979695431472081
G1 X35.65482233502538 Y4.411167512690356
G2 X35.72842639593909 Y4.525380710659899 I0.6218274111675127 J-0.3197969543147208
G1 X35.9263959390863 Y4.776649746192893
G2 X36.02284263959391 Y4.878172588832487 I0.5482233502538071 J-0.434010152284264
G1 X36.263959390862944 Y5.0786802030456855
G2 X36.38324873096447 Y5.159898477157361 I0.45177664974619286 J-0.5355329949238579
G1 X36.65482233502538 Y5.307106598984772
G2 X36.79187817258884 Y5.362944162436548 I0.3299492385786802 J-0.616751269035533
G1 X37.08629441624366 Y5.446700507614213
G2 X37.233502538071065 Y5.474619289340101 I0.1954314720812183 J-0.6725888324873096
G1 X37.54060913705584 Y5.49492385786802
G2 X37.68527918781726 Y5.48984771573604 I0.050761421319796954 J-0.6979695431472082
G1 X37.99492385786802 Y5.449238578680204
G2 X38.131979695431475 Y5.416243654822335 I-0.09644670050761422 J-0.6928934010152283
G1 X38.434010152284266 Y5.309644670050762
G2 X38.555837563451774 Y5.251269035532995 I-0.23096446700507614 J-0.6598984771573604
G1 X38.83502538071066 Y5.088832487309645
G2 X38.941624365482234 Y5.010152284263959 I-0.3553299492385787 J-0.6040609137055838
G1 X39.19035532994924 Y4.791878172588833
G2 X39.276649746192895 Y4.7030456852791875 I-0.4619289340101523 J-0.5253807106598986
G1 X39.48730964467005 Y4.439086294416244
G1 X39.48984771573604 Y4.434010152284264
G1 X39.55329949238579 Y4.459390862944162
G1 X39.55329949238579 Y4.464467005076142
G1 X39.535532994923855 Y4.799492385786802
G2 X39.53299492385787 Y4.837563451776649 I0.6979695431472082 J0.03807106598984772
G2 X39.54060913705584 Y4.926395939086294 I0.7005076142131981 J0
G1 X39.58121827411168 Y5.253807106598984
G2 X39.609137055837564 Y5.380710659898477 I0.6954314720812182 J-0.08883248730964467
G1 X39.710659898477154 Y5.690355329949238
G2 X39.763959390862944 Y5.814720812182741 I0.6649746192893401 J-0.21573604060913704
G1 X39.91878172588832 Y6.091370558375635
G2 X40 Y6.208121827411167 I0.6116751269035533 J-0.3401015228426396
G1 X40.203045685279186 Y6.446700507614214
G2 X40.309644670050766 Y6.5456852791878175 I0.5304568527918782 J-0.45685279187817257
G1 X40.55329949238579 Y6.733502538071066
G2 X40.680203045685275 Y6.809644670050762 I0.42639593908629436 J-0.5558375634517766
G1 X40.81979695431472 Y6.875634517766498
G1 X40.95685279187818 Y6.941624365482234
G2 X41.09137055837564 Y6.98984771573604 I0.29949238578680204 J-0.6319796954314721
G1 X41.09644670050762 Y6.98984771573604
G1 X41.398477157360404 Y7.060913705583757
G2 X41.54060913705584 Y7.0812182741116745 I0.1598984771573604 J-0.6802030456852792
G1 X41.85532994923858 Y7.088832487309644
G2 X41.99492385786802 Y7.0761421319796955 I0.017766497461928935 J-0.7005076142131981
G1 X42.307106598984774 Y7.020304568527918
G2 X42.43908629441624 Y6.9847715736040605 I-0.12436548223350254 J-0.6878172588832487
G1 X42.74111675126903 Y6.868020304568528
G2 X42.85786802030457 Y6.809644670050762 I-0.25380710659898476 J-0.6522842639593909
G1 X43.13959390862944 Y6.634517766497462
G2 X43.23857868020305 Y6.558375634517767 I-0.37055837563451777 J-0.5939086294416244
G1 X43.48730964467005 Y6.332487309644669
G1 X43.54822335025381 Y6.368020304568528
G1 X43.47715736040609 Y6.695431472081218
G2 X43.46192893401016 Y6.819796954314721 I0.6852791878172588 J0.14720812182741116
G1 X43.45177664974619 Y7.149746192893401
G1 X43.44923857868021 Y7.175126903553299
G2 X43.45939086294416 Y7.279187817258883 I0.7005076142131981 J0
G1 X43.50761421319797 Y7.601522842639595
G2 X43.54060913705584 Y7.7335025380710665 I0.6928934010152283 J-0.10659898477157359
G1 X43.6497461928934 Y8.032994923857867
G2 X43.710659898477154 Y8.15989847715736 I0.6573604060913706 J-0.23857868020304568
G1 X43.87309644670051 Y8.426395939086294
G2 X43.96192893401015 Y8.540609137055839 I0.5964467005076142 J-0.3654822335025381
G1 X44.172588832487314 Y8.766497461928934
G1 X44.17766497461929 Y8.771573604060913
G2 X44.284263959390856 Y8.862944162436548 I0.5050761421319797 J-0.4847715736040609
G1 X44.40862944162436 Y8.949238578680204
G1 X44.538071065989854 Y9.038071065989847
G2 X44.66751269035533 Y9.109137055837564 I0.3984771573604061 J-0.5761421319796954
G1 X44.95177664974619 Y9.225888324873097
G2 X45.09137055837564 Y9.269035532994923 I0.2690355329949239 J-0.6472081218274112
G1 X45.398477157360404 Y9.324873096446701
G2 X45.54060913705584 Y9.33756345177665 I0.12944162436548223 J-0.6878172588832487
G1 X45.857868020304565 Y9.33248730964467
G2 X45.99238578680203 Y9.317258883248732 I-0.010152284263959392 J-0.7005076142131981
G1 X46.30964467005076 Y9.248730964467004
G2 X46.434010152284266 Y9.210659898477157 I-0.14720812182741116 J-0.6852791878172588
G1 X46.74111675126903 Y9.083756345177665
G2 X46.8502538071066 Y9.02284263959391 I-0.2690355329949239 J-0.6446700507614213
G1 X47.13451776649747 Y8.84010152284264
G1 X47.13705583756345 Y8.83756345177665
G1 X47.190355329949234 Y8.878172588832488
G1 X47.18781725888324 Y8.885786802030456
G1 X47.06345177664975 Y9.19796954314721
G2 X47.03045685279187 Y9.319796954314722 I0.6522842639593909 J0.2563451776649746
G1 X46.964467005076145 Y9.644670050761421
G2 X46.95177664974619 Y9.774111675126903 I0.6878172588832487 J0.13705583756345177
G1 X46.9492385786802 Y10.098984771573605
G1 X46.9492385786802 Y10.104060913705585
G2 X46.96192893401015 Y10.233502538071066 I0.7005076142131981 J0
G1 X47.02030456852792 Y10.545685279187818
G2 X47.058375634517766 Y10.680203045685278 I0.6878172588832487 J-0.12944162436548223
G1 X47.17766497461929 Y10.972081218274113
G2 X47.246192893401016 Y11.098984771573603 I0.6472081218274112 J-0.2639593908629442
G1 X47.41878172588833 Y11.35532994923858
G2 X47.51269035532995 Y11.467005076142131 I0.5812182741116751 J-0.3908629441624366
G1 X47.736040609137056 Y11.68020304568528
G2 X47.85279187817259 Y11.771573604060915 I0.4847715736040609 J-0.5050761421319797
G1 X48.11421319796955 Y11.934010152284264
G2 X48.246192893401016 Y11.99746192893401 I0.3680203045685279 J-0.5964467005076142
G1 X48.54060913705584 Y12.104060913705583
G2 X48.67766497461929 Y12.137055837563452 I0.23857868020304568 J-0.6573604060913706
G1 X48.99238578680203 Y12.18274111675127
G2 X49.12690355329949 Y12.190355329949238 I0.10152284263959391 J-0.6928934010152283
G1 X49.45177664974619 Y12.175126903553299
G2 X49.58121827411168 Y12.154822335025381 I-0.03553299492385787 J-0.6979695431472082
G1 X49.901015228426395 Y12.078680203045685
G2 X50.02030456852792 Y12.038071065989849 I-0.16243654822335027 J-0.6802030456852792
G1 X50.32994923857868 Y11.903553299492387
G1 X50.3502538071066 Y11.890862944162437
G1 X50.35279187817259 Y11.893401015228427
G1 X50.388324873096444 Y11.928934010152282
G1 X50.388324873096444 Y11.934010152284264
G1 X50.37563451776649 Y11.954314720812182
G1 X50.203045685279186 Y12.243654822335026
G2 X50.1497461928934 Y12.357868020304569 I0.6015228426395939 J0.35786802030456855
G1 X50.03299492385786 Y12.667512690355329
G2 X50 Y12.794416243654823 I0.6548223350253807 J0.2436548223350254
G1 X49.944162436548226 Y13.114213197969544
G2 X49.93401015228426 Y13.230964467005075 I0.6903553299492386 J0.11928934010152284
G1 X49.93654822335025 Y13.248730964467006
G1 X49.944162436548226 Y13.568527918781726
G2 X49.96192893401015 Y13.70812182741117 I0.7005076142131981 J-0.017766497461928935
G1 X50.030456852791886 Y14.012690355329948
G2 X50.07868020304569 Y14.149746192893403 I0.6827411167512689 J-0.15736040609137056
G1 X50.20812182741117 Y14.428934010152282
G2 X50.28426395939086 Y14.555837563451776 I0.6345177664974619 J-0.29441624365482233
G1 X50.46700507614213 Y14.802030456852792
G2 X50.568527918781726 Y14.908629441624367 I0.5609137055837563 J-0.4213197969543147
G1 X50.8020304568528 Y15.111675126903554
G2 X50.921319796954315 Y15.195431472081218 I0.4593908629441624 J-0.5279187817258884
G1 X51.19289340101523 Y15.34771573604061
G2 X51.32233502538071 Y15.403553299492385 I0.3401015228426396 J-0.6116751269035533
G1 X51.62690355329949 Y15.5
G2 X51.75888324873096 Y15.527918781725889 I0.21065989847715735 J-0.6675126903553299
G1 X52.08121827411168 Y15.563451776649746
G2 X52.213197969543145 Y15.565989847715736 I0.07868020304568528 J-0.6954314720812182
G1 X52.54314720812182 Y15.543147208121828
G2 X52.66751269035532 Y15.522842639593907 I-0.053299492385786795 J-0.6979695431472082
G1 X52.99238578680203 Y15.436548223350254
G1 X53.015228426395936 Y15.431472081218274
G2 X53.04314720812183 Y15.421319796954315 I-0.20050761421319796 J-0.6700507614213198
G1 X53.04314720812183 Y15.446700507614214
G1 X53.06598984771574 Y15.456852791878173
G2 X53.045685279187815 Y15.47715736040609 I0.5025380710659898 J0.4873096446700508
G1 X53.03045685279188 Y15.497461928934012
G1 X52.81472081218274 Y15.753807106598984
G2 X52.74111675126903 Y15.857868020304569 I0.5355329949238579 J0.44923857868020306
G1 X52.57868020304569 Y16.14467005076142
G2 X52.5253807106599 Y16.263959390862944 I0.6091370558375635 J0.3451776649746193
G1 X52.41878172588833 Y16.571065989847714
G2 X52.388324873096444 Y16.703045685279186 I0.6624365482233502 J0.22842639593908629
G1 X52.34517766497462 Y17.017766497461928
G2 X52.337563451776646 Y17.114213197969544 I0.6928934010152283 J0.09644670050761422
G2 X52.34010152284264 Y17.15989847715736 I0.7005076142131981 J0
G1 X52.36040609137056 Y17.472081218274113
G2 X52.38324873096447 Y17.614213197969544 I0.6979695431472082 J-0.045685279187817264
G1 X52.46700507614214 Y17.911167512690355
G2 X52.52030456852792 Y18.048223350253807 I0.6751269035532994 J-0.18781725888324874
G1 X52.664974619289346 Y18.32233502538071
G2 X52.746192893401016 Y18.444162436548226 I0.6192893401015229 J-0.32487309644670054
G1 X52.944162436548226 Y18.68274111675127
G2 X53.04822335025381 Y18.784263959390863 I0.5380710659898478 J-0.44923857868020306
G1 X53.29441624365482 Y18.977157360406093
G2 X53.411167512690355 Y19.053299492385786 I0.434010152284264 J-0.5482233502538071
G1 X53.69543147208121 Y19.195431472081218
G2 X53.82233502538071 Y19.246192893401016 I0.3147208121827411 J-0.6243654822335025
G1 X54.13451776649747 Y19.33248730964467
G2 X54.263959390862944 Y19.355329949238577 I0.18781725888324874 J-0.6751269035532994
G1 X54.59390862944162 Y19.385786802030456
G2 X54.71827411167513 Y19.383248730964468 I0.06091370558375635 J-0.6979695431472082
G1 X55.05329949238579 Y19.35279187817259
G1 X55.07868020304569 Y19.350253807106597
G2 X55.10659898477157 Y19.34517766497462 I-0.08883248730964467 J-0.6954314720812182
G1 X55.10406091370559 Y19.370558375634516
G1 X55.10406091370559 Y19.370558375634516
G1 X55.111675126903556 Y19.393401015228427
G1 X55.101522842639596 Y19.403553299492387
G1 X55.08121827411167 Y19.418781725888326
G1 X54.82741116751269 Y19.63705583756345
G2 X54.73857868020304 Y19.72842639593909 I0.45685279187817257 J0.5304568527918782
G1 X54.53299492385787 Y19.98477157360406
G2 X54.45939086294416 Y20.093908629441625 I0.5456852791878173 J0.4390862944162437
G1 X54.307106598984774 Y20.380710659898476
G2 X54.253807106598984 Y20.505076142131983 I0.616751269035533 J0.3299492385786802
G1 X54.15989847715736 Y20.809644670050762
G2 X54.13451776649747 Y20.949238578680202 I0.6700507614213198 J0.20558375634517764
G1 X54.10406091370558 Y21.258883248730967
G2 X54.09898477157361 Y21.32741116751269 I0.6979695431472082 J0.06598984771573604
G2 X54.10406091370558 Y21.403553299492387 I0.7005076142131981 J0
G1 X54.139593908629436 Y21.710659898477157
G2 X54.17005076142132 Y21.855329949238577 I0.6954314720812182 J-0.07868020304568528
G1 X54.266497461928935 Y22.14720812182741
G2 X54.329949238578685 Y22.281725888324875 I0.6649746192893401 J-0.22081218274111675
G1 X54.48730964467005 Y22.548223350253807
G2 X54.57360406091371 Y22.66497461928934 I0.6015228426395939 J-0.3553299492385787
G1 X54.78426395939087 Y22.895939086294415
G2 X54.888324873096444 Y22.98984771573604 I0.5177664974619289 J-0.47208121827411165
G1 X55.14720812182741 Y23.177664974619287
G2 X55.26395939086294 Y23.246192893401016 I0.4111675126903553 J-0.565989847715736
G1 X55.55583756345178 Y23.380710659898476
G2 X55.680203045685275 Y23.426395939086294 I0.29441624365482233 J-0.6345177664974619
G1 X56.002538071065985 Y23.50761421319797
G2 X56.1243654822335 Y23.5253807106599 I0.17258883248730966 J-0.6776649746192893
G1 X56.46192893401015 Y23.548223350253807
G1 X56.47715736040609 Y23.550761421319798
G1 X56.48984771573603 Y23.611675126903556
G1 X56.47715736040609 Y23.616751269035532
G1 X56.19035532994924 Y23.794416243654823
G2 X56.09137055837564 Y23.870558375634516 I0.3654822335025381 J0.5964467005076142
G1 X55.84517766497462 Y24.091370558375633
G2 X55.75634517766497 Y24.185279187817258 I0.46700507614213194 J0.5203045685279188
G1 X55.55837563451776 Y24.444162436548226
G2 X55.48730964467005 Y24.558375634517766 I0.5558375634517766 J0.42639593908629436
G1 X55.34517766497462 Y24.845177664974617
G2 X55.296954314720814 Y24.977157360406093 I0.6269035532994924 J0.30964467005076146
G1 X55.21573604060913 Y25.27918781725888
G2 X55.19543147208122 Y25.421319796954315 I0.6776649746192893 J0.17766497461928935
G1 X55.180203045685275 Y25.730964467005077
G2 X55.17766497461929 Y25.766497461928935 I0.6979695431472082 J0.03553299492385787
G2 X55.18781725888325 Y25.878172588832488 I0.7005076142131981 J0
G1 X55.236040609137056 Y26.18274111675127
G2 X55.2741116751269 Y26.32233502538071 I0.6903553299492386 J-0.1116751269035533
G1 X55.388324873096444 Y26.611675126903553
G2 X55.454314720812185 Y26.741116751269036 I0.6522842639593909 J-0.25380710659898476
G1 X55.62690355329949 Y27.002538071065988
G2 X55.713197969543145 Y27.111675126903553 I0.5862944162436547 J-0.383248730964467
G1 X55.93908629441624 Y27.337563451776653
G2 X56.04314720812183 Y27.423857868020303 I0.49746192893401014 J-0.49238578680203043
G1 X56.31218274111675 Y27.606598984771576
G2 X56.4263959390863 Y27.67005076142132 I0.3934010152284264 J-0.5786802030456852
G1 X56.72842639593909 Y27.802030456852794
G2 X56.847715736040605 Y27.840101522842637 I0.27918781725888325 J-0.6421319796954316
G1 X57.175126903553306 Y27.916243654822335
G1 X57.17766497461929 Y27.916243654822335
G1 X57.182741116751274 Y27.98730964467005
G1 X57.182741116751274 Y27.98730964467005
G1 X56.870558375634516 Y28.114213197969544
G2 X56.75888324873096 Y28.172588832487307 I0.26649746192893403 J0.6472081218274112
G1 X56.47969543147208 Y28.35279187817259
G2 X56.37817258883249 Y28.431472081218274 I0.3781725888324873 J0.5888324873096447
G1 X56.142131979695435 Y28.654822335025383
G2 X56.05329949238579 Y28.756345177664976 I0.47969543147208127 J0.5101522842639594
G1 X55.868020304568525 Y29.01522842639594
G2 X55.796954314720814 Y29.13959390862944 I0.5685279187817259 J0.40609137055837563
G1 X55.670050761421315 Y29.423857868020306
G2 X55.62690355329949 Y29.563451776649746 I0.6395939086294417 J0.28426395939086296
G1 X55.56091370558376 Y29.86548223350254
G2 X55.54822335025381 Y29.949238578680202 I0.6852791878172588 J0.14720812182741116
G2 X55.545685279187815 Y30.01015228426396 I0.6979695431472082 J0.06091370558375635
G1 X55.545685279187815 Y30.31979695431472
G2 X55.54822335025381 Y30.380710659898476 I0.7005076142131981 J0
G1 X55.56091370558376 Y30.213197969543145
G2 X55.56091370558376 Y30.16497461928934 I-0.6979695431472082 J-0.04822335025380711
G2 X55.56091370558376 Y30.116751269035532 I-0.7005076142131981 J0
G1 X55.54822335025381 Y29.949238578680202
G1 X55.31472081218274 Y26.624365482233504
G2 X55.30203045685279 Y26.52791878172589 I-0.6979695431472082 J0.04822335025380711
G1 X54.57360406091371 Y23.101522842639596
G2 X54.54822335025381 Y23.007614213197968 I-0.6852791878172588 J0.1446700507614213
G1 X53.350253807106604 Y19.71827411167513
G2 X53.30964467005076 Y19.629441624365484 I-0.6573604060913706 J0.23857868020304568
G1 X51.66751269035533 Y16.538071065989847
G2 X51.61421319796954 Y16.45685279187817 I-0.6192893401015229 J0.32741116751269034
G1 X49.558375634517766 Y13.624365482233502
G2 X49.49492385786802 Y13.548223350253807 I-0.565989847715736 J0.4111675126903553
G1 X47.06345177664975 Y11.030456852791879
G2 X46.98984771573605 Y10.964467005076141 I-0.5025380710659898 J0.4873096446700508
G1 X44.40862944162436 Y8.949238578680204
G1 X44.23096446700508 Y8.809644670050762
G2 X44.17766497461929 Y8.771573604060913 I-0.4314720812182741 J0.5507614213197969
G2 X44.149746192893396 Y8.753807106598986 I-0.3781725888324873 J0.5888324873096447
G1 X41.119289340101524 Y7.00507614213198
G2 X41.09137055837564 Y6.98984771573604 I-0.35025380710659904 J0.6065989847715736
G2 X41.03045685279188 Y6.961928934010152 I-0.3223350253807106 J0.6218274111675127
G1 X40.81979695431472 Y6.875634517766498
G1 X37.78426395939086 Y5.649746192893401
G2 X37.69289340101523 Y5.619289340101523 I-0.2614213197969543 J0.6497461928934011
G1 X34.29441624365482 Y4.774111675126903
G2 X34.19796954314721 Y4.756345177664975 I-0.1700507614213198 J0.6802030456852792
G1 X30.715736040609137 Y4.3908629441624365
G2 X30.619289340101524 Y4.385786802030457 I-0.07360406091370558 J0.6954314720812182
G1 X27.121827411167516 Y4.51015228426396
G2 X27.02284263959391 Y4.520304568527918 I0.025380710659898477 J0.7005076142131981
G1 X23.576142131979694 Y5.126903553299492
G2 X23.482233502538072 Y5.149746192893401 I0.1218274111675127 J0.6903553299492386
G1 X20.15228426395939 Y6.2335025380710665
G2 X20.060913705583758 Y6.269035532994924 I0.21573604060913704 J0.6649746192893401
G1 X17.063451776649746 Y7.730964467005076
G1 X16.913705583756343 Y7.804568527918781
G2 X16.82994923857868 Y7.852791878172589 I0.3071065989847716 J0.6294416243654822
G1 X16.690355329949238 Y7.946700507614213
G1 X13.926395939086294 Y9.809644670050762
G2 X13.850253807106599 Y9.870558375634516 I0.3908629441624366 J0.5812182741116751
G1 X11.248730964467004 Y12.213197969543149
G2 X11.18020304568528 Y12.284263959390863 I0.46954314720812185 J0.5203045685279188
G1 X8.931472081218274 Y14.964467005076143
G2 X8.873096446700508 Y15.043147208121827 I0.5355329949238579 J0.44923857868020306
G1 X7.017766497461929 Y18.01269035532995
G2 X6.972081218274112 Y18.098984771573605 I0.5939086294416244 J0.37055837563451777
G1 X5.5482233502538065 Y21.29695431472081
G2 X5.5152284263959395 Y21.388324873096444 I0.6395939086294417 J0.28426395939086296
G1 X4.550761421319797 Y24.753807106598984
G2 X4.530456852791878 Y24.850253807106597 I0.6725888324873096 J0.19289340101522845
G1 X4.073604060913706 Y28.093908629441625
G1 X4.043147208121828 Y28.317258883248734
G2 X4.035532994923858 Y28.383248730964468 I0.6928934010152283 J0.09644670050761422
G2 X4.035532994923858 Y28.413705583756347 I0.7005076142131981 J0.03299492385786802
G1 X4.035532994923858 Y31.916243654822335
G2 X4.035532994923858 Y31.94670050761421 I0.7005076142131981 J0
G2 X4.043147208121828 Y32.01269035532995 I0.7005076142131981 J-0.03299492385786802
G1 X4.073604060913706 Y32.236040609137056
G1 X4.530456852791878 Y35.47969543147208
G2 X4.550761421319797 Y35.576142131979694 I0.6928934010152283 J-0.09644670050761422
G1 X5.5152284263959395 Y38.93908629441624
G2 X5.5482233502538065 Y39.03299492385787 I0.6725888324873096 J-0.19289340101522845
G1 X6.972081218274112 Y42.23096446700508
G2 X7.017766497461929 Y42.31725888324873 I0.6395939086294417 J-0.28426395939086296
G1 X8.873096446700508 Y45.286802030456855
G2 X8.931472081218274 Y45.36548223350253 I0.5939086294416244 J-0.37055837563451777
G1 X11.18020304568528 Y48.045685279187815
G2 X11.248730964467004 Y48.11675126903553 I0.5355329949238579 J-0.44923857868020306
G1 X13.850253807106599 Y50.45939086294417
G2 X13.926395939086294 Y50.52030456852792 I0.46954314720812185 J-0.5203045685279188
G1 X16.690355329949238 Y52.38324873096447
G1 X16.82994923857868 Y52.477157360406096
G2 X16.913705583756343 Y52.5253807106599 I0.3908629441624366 J-0.5812182741116751
G1 X17.065989847715738 Y52.598984771573605
G1 X20.060913705583758 Y54.06091370558376
G2 X20.15228426395939 Y54.09644670050761 I0.3071065989847716 J-0.6294416243654822
G1 X23.47969543147208 Y55.180203045685275
G2 X23.576142131979694 Y55.203045685279186 I0.21573604060913704 J-0.6649746192893401
G1 X27.02284263959391 Y55.80964467005076
G2 X27.121827411167516 Y55.81979695431472 I0.1218274111675127 J-0.6903553299492386
G1 X30.619289340101524 Y55.941624365482234
G2 X30.715736040609137 Y55.93908629441624 I0.025380710659898477 J-0.7005076142131981
G1 X34.19796954314721 Y55.5736040609137
G2 X34.29441624365482 Y55.55583756345178 I-0.07360406091370558 J-0.6954314720812182
G1 X37.69289340101523 Y54.71065989847716
G2 X37.78426395939086 Y54.680203045685275 I-0.1700507614213198 J-0.6802030456852792
G1 X40.817258883248726 Y53.45431472081218
G1 X41.03045685279188 Y53.368020304568525
G2 X41.09137055837564 Y53.34010152284264 I-0.2614213197969543 J-0.6497461928934011
G2 X41.119289340101524 Y53.3248730964467 I-0.3223350253807106 J-0.6218274111675127
G1 X44.149746192893396 Y51.57360406091371
G2 X44.17766497461929 Y51.558375634517766 I-0.35025380710659904 J-0.6065989847715736
G2 X44.23096446700508 Y51.52030456852792 I-0.3781725888324873 J-0.5888324873096447
G1 X44.40862944162436 Y51.380710659898476
G1 X46.98984771573605 Y49.36548223350254
G2 X47.06345177664975 Y49.2994923857868 I-0.4314720812182741 J-0.5507614213197969
G1 X49.49492385786802 Y46.78172588832488
G2 X49.558375634517766 Y46.70558375634518 I-0.5025380710659898 J-0.4873096446700508
G1 X51.61421319796954 Y43.87309644670051
G2 X51.66751269035533 Y43.79187817258884 I-0.565989847715736 J-0.4111675126903553
G1 X53.30964467005076 Y40.7005076142132
G2 X53.350253807106604 Y40.61167512690355 I-0.6192893401015229 J-0.32741116751269034
G0 Z15
G0 X53.35 Y40.610913705583755
G1 Z-0.6 F125
G1 X54.54822335025381 Y37.31979695431472 F125
G2 X54.57360406091371 Y37.2258883248731 I-0.6573604060913706 J-0.23857868020304568
G1 X55.30203045685279 Y33.80203045685279
G2 X55.31472081218274 Y33.70558375634518 I-0.6852791878172588 J-0.1446700507614213
G1 X55.54822335025381 Y30.380710659898476
G2 X55.56091370558376 Y30.46446700507614 I0.6979695431472082 J-0.06091370558375635
G1 X55.62690355329949 Y30.766497461928935
G2 X55.670050761421315 Y30.906091370558375 I0.6852791878172588 J-0.14720812182741116
G1 X55.796954314720814 Y31.19035532994924
G2 X55.868020304568525 Y31.31472081218274 I0.6395939086294417 J-0.28426395939086296
G1 X56.05329949238579 Y31.573604060913706
G2 X56.142131979695435 Y31.675126903553302 I0.5685279187817259 J-0.40609137055837563
G1 X56.37817258883249 Y31.898477157360404
G2 X56.48223350253807 Y31.97715736040609 I0.47969543147208127 J-0.5101522842639594
G1 X56.75888324873096 Y32.15736040609137
G2 X56.870558375634516 Y32.21573604060914 I0.3781725888324873 J-0.5888324873096447
G1 X57.182741116751274 Y32.34263959390863
G1 X57.182741116751274 Y32.34263959390863
G1 X57.17766497461929 Y32.41370558375635
G1 X57.175126903553306 Y32.41370558375635
G1 X56.847715736040605 Y32.48984771573604
G2 X56.72842639593909 Y32.52791878172589 I0.1598984771573604 J0.6827411167512689
G1 X56.4263959390863 Y32.65989847715736
G2 X56.31218274111675 Y32.72335025380711 I0.27918781725888325 J0.6421319796954316
G1 X56.04314720812183 Y32.90609137055838
G2 X55.93908629441624 Y32.99238578680203 I0.3934010152284264 J0.5786802030456852
G1 X55.713197969543145 Y33.21827411167513
G2 X55.62690355329949 Y33.32741116751269 I0.49746192893401014 J0.49238578680203043
G1 X55.454314720812185 Y33.588832487309645
G2 X55.388324873096444 Y33.71827411167513 I0.5862944162436547 J0.383248730964467
G1 X55.2741116751269 Y34.005076142131976
G2 X55.236040609137056 Y34.14720812182741 I0.6522842639593909 J0.25380710659898476
G1 X55.18781725888325 Y34.45177664974619
G2 X55.17766497461929 Y34.56345177664974 I0.6903553299492386 J0.1116751269035533
G2 X55.180203045685275 Y34.598984771573605 I0.7005076142131981 J0
G1 X55.19543147208122 Y34.90609137055837
G2 X55.21573604060913 Y35.0507614213198 I0.6979695431472082 J-0.03553299492385787
G1 X55.296954314720814 Y35.35279187817259
G2 X55.34517766497462 Y35.484771573604064 I0.6776649746192893 J-0.17766497461928935
G1 X55.48730964467005 Y35.77157360406091
G2 X55.55837563451776 Y35.88578680203045 I0.6269035532994924 J-0.30964467005076146
G1 X55.75634517766497 Y36.14467005076142
G2 X55.84517766497462 Y36.23857868020305 I0.5558375634517766 J-0.42639593908629436
G1 X56.09137055837564 Y36.45939086294416
G2 X56.19035532994924 Y36.535532994923855 I0.46700507614213194 J-0.5203045685279188
G1 X56.47715736040609 Y36.713197969543145
G1 X56.48984771573603 Y36.71827411167513
G1 X56.47715736040609 Y36.77918781725889
G1 X56.45939086294416 Y36.77918781725889
G1 X56.1243654822335 Y36.80456852791878
G2 X56.002538071065985 Y36.82233502538071 I0.04822335025380711 J0.6979695431472082
G1 X55.680203045685275 Y36.90355329949239
G2 X55.55837563451776 Y36.94670050761421 I0.17258883248730966 J0.6776649746192893
G1 X55.26395939086294 Y37.08375634517766
G2 X55.14720812182741 Y37.152284263959395 I0.29441624365482233 J0.6345177664974619
G1 X54.888324873096444 Y37.34010152284264
G2 X54.78426395939087 Y37.434010152284266 I0.4111675126903553 J0.565989847715736
G1 X54.57106598984772 Y37.66497461928934
G2 X54.48730964467005 Y37.78172588832487 I0.5177664974619289 J0.47208121827411165
G1 X54.329949238578685 Y38.04822335025381
G2 X54.266497461928935 Y38.182741116751274 I0.6015228426395939 J0.3553299492385787
G1 X54.17005076142132 Y38.474619289340104
G2 X54.139593908629436 Y38.61675126903553 I0.6649746192893401 J0.22081218274111675
G1 X54.10406091370558 Y38.92639593908629
G2 X54.09898477157361 Y39.00253807106599 I0.6954314720812182 J0.07868020304568528
G2 X54.10406091370558 Y39.07106598984772 I0.7005076142131981 J0
G1 X54.13451776649747 Y39.380710659898476
G2 X54.15989847715736 Y39.52030456852792 I0.6979695431472082 J-0.06598984771573604
G1 X54.253807106598984 Y39.8248730964467
G2 X54.307106598984774 Y39.9492385786802 I0.6700507614213198 J-0.20558375634517764
G1 X54.45939086294416 Y40.233502538071065
G2 X54.53299492385787 Y40.34517766497462 I0.616751269035533 J-0.3299492385786802
G1 X54.73857868020304 Y40.601522842639596
G2 X54.82741116751269 Y40.692893401015226 I0.5456852791878173 J-0.4390862944162437
G1 X55.08121827411167 Y40.911167512690355
G1 X55.101522842639596 Y40.92639593908629
G2 X55.121827411167516 Y40.944162436548226 I0.4390862944162437 J-0.5456852791878173
G1 X55.10406091370559 Y40.95939086294416
G1 X55.10406091370559 Y40.95939086294416
G1 X55.09644670050761 Y40.98223350253807
G1 X55.07868020304569 Y40.97969543147208
G1 X55.05329949238579 Y40.97715736040609
G1 X54.71827411167513 Y40.944162436548226
G2 X54.59390862944162 Y40.944162436548226 I-0.06598984771573604 J0.6979695431472082
G1 X54.263959390862944 Y40.9746192893401
G2 X54.13451776649747 Y40.997461928934015 I0.06091370558375635 J0.6979695431472082
G1 X53.82233502538071 Y41.08375634517767
G2 X53.69543147208121 Y41.13451776649746 I0.18781725888324874 J0.6751269035532994
G1 X53.411167512690355 Y41.276649746192895
G2 X53.29441624365482 Y41.352791878172596 I0.3147208121827411 J0.6243654822335025
G1 X53.04822335025381 Y41.54568527918782
G2 X52.944162436548226 Y41.64720812182742 I0.434010152284264 J0.5482233502538071
G1 X52.746192893401016 Y41.88578680203045
G2 X52.664974619289346 Y42.00761421319797 I0.5380710659898478 J0.44923857868020306
G1 X52.52030456852792 Y42.28172588832487
G2 X52.46700507614214 Y42.41878172588833 I0.6192893401015229 J0.32487309644670054
G1 X52.38324873096447 Y42.71573604060913
G2 X52.36040609137056 Y42.85786802030457 I0.6751269035532994 J0.18781725888324874
G1 X52.34010152284264 Y43.170050761421315
G2 X52.337563451776646 Y43.215736040609144 I0.6979695431472082 J0.045685279187817264
G2 X52.34517766497462 Y43.31218274111676 I0.7005076142131981 J0
G1 X52.388324873096444 Y43.62690355329949
G2 X52.41878172588833 Y43.75888324873096 I0.6928934010152283 J-0.09644670050761422
G1 X52.5253807106599 Y44.065989847715734
G2 X52.57868020304569 Y44.182741116751274 I0.6624365482233502 J-0.22842639593908629
G1 X52.74111675126903 Y44.47208121827411
G2 X52.81472081218274 Y44.5761421319797 I0.6091370558375635 J-0.3451776649746193
G1 X53.03045685279188 Y44.83248730964468
G1 X53.045685279187815 Y44.85279187817259
G2 X53.06598984771574 Y44.8730964467005 I0.5203045685279188 J-0.46700507614213194
G1 X53.04314720812183 Y44.88324873096447
G1 X53.04314720812183 Y44.90862944162436
G2 X53.015228426395936 Y44.898477157360404 I-0.22588832487309643 J0.6624365482233502
G1 X52.99238578680203 Y44.89340101522843
G1 X52.66751269035532 Y44.807106598984774
G2 X52.54314720812182 Y44.78680203045685 I-0.17512690355329952 J0.6776649746192893
G1 X52.213197969543145 Y44.763959390862944
G2 X52.08121827411168 Y44.766497461928935 I-0.053299492385786795 J0.6979695431472082
G1 X51.75888324873096 Y44.80203045685279
G2 X51.62690355329949 Y44.82994923857868 I0.07868020304568528 J0.6954314720812182
G1 X51.32233502538071 Y44.92639593908629
G2 X51.19543147208121 Y44.982233502538065 I0.21065989847715735 J0.6675126903553299
G1 X50.921319796954315 Y45.13451776649746
G2 X50.8020304568528 Y45.21827411167513 I0.3401015228426396 J0.6116751269035533
G1 X50.568527918781726 Y45.42131979695432
G2 X50.46954314720813 Y45.52791878172589 I0.4593908629441624 J0.5279187817258884
G1 X50.28426395939086 Y45.7741116751269
G2 X50.20812182741117 Y45.90101522842639 I0.5583756345177665 J0.4213197969543147
G1 X50.07868020304569 Y46.18020304568528
G2 X50.030456852791886 Y46.31725888324873 I0.6345177664974619 J0.29441624365482233
G1 X49.96192893401015 Y46.621827411167516
G2 X49.944162436548226 Y46.76142131979695 I0.6827411167512689 J0.15736040609137056
G1 X49.93654822335025 Y47.08121827411168
G1 X49.93401015228426 Y47.09644670050761
G2 X49.944162436548226 Y47.21573604060914 I0.7005076142131981 J0
G1 X50 Y47.535532994923855
G2 X50.03299492385786 Y47.662436548223354 I0.6903553299492386 J-0.11928934010152284
G1 X50.1497461928934 Y47.972081218274106
G2 X50.203045685279186 Y48.08629441624365 I0.6548223350253807 J-0.2436548223350254
G1 X50.37563451776649 Y48.3756345177665
G1 X50.388324873096444 Y48.39593908629442
G1 X50.388324873096444 Y48.40101522842639
G1 X50.35279187817259 Y48.43654822335026
G1 X50.3502538071066 Y48.43654822335026
G1 X50.32994923857868 Y48.42639593908629
G1 X50.02030456852792 Y48.29187817258883
G2 X49.901015228426395 Y48.251269035533 I-0.2817258883248731 J0.6395939086294417
G1 X49.58121827411168 Y48.1751269035533
G2 X49.45177664974619 Y48.154822335025386 I-0.16243654822335027 J0.6802030456852792
G1 X49.12690355329949 Y48.13959390862944
G2 X48.98984771573603 Y48.14720812182741 I-0.03299492385786802 J0.6979695431472082
G1 X48.6751269035533 Y48.192893401015226
G2 X48.54060913705584 Y48.2258883248731 I0.10152284263959391 J0.6928934010152283
G1 X48.246192893401016 Y48.33248730964467
G2 X48.11421319796955 Y48.39593908629442 I0.23857868020304568 J0.6573604060913706
G1 X47.85279187817259 Y48.55837563451777
G2 X47.736040609137056 Y48.6497461928934 I0.3680203045685279 J0.5964467005076142
G1 X47.51269035532995 Y48.86294416243655
G2 X47.41878172588833 Y48.974619289340104 I0.4847715736040609 J0.5050761421319797
G1 X47.246192893401016 Y49.23096446700508
G2 X47.17766497461929 Y49.357868020304565 I0.5812182741116751 J0.3908629441624366
G1 X47.058375634517766 Y49.6497461928934
G2 X47.02030456852792 Y49.78426395939087 I0.6472081218274112 J0.2639593908629442
G1 X46.96192893401015 Y50.09644670050761
G2 X46.9492385786802 Y50.2258883248731 I0.6878172588832487 J0.12944162436548223
G1 X46.9492385786802 Y50.23096446700507
G1 X46.95177664974619 Y50.55583756345178
G2 X46.964467005076145 Y50.68527918781726 I0.7005076142131981 J-0.005076142131979696
G1 X47.03045685279187 Y51.01015228426397
G2 X47.06345177664975 Y51.131979695431475 I0.6878172588832487 J-0.13451776649746194
G1 X47.18781725888324 Y51.444162436548226
G1 X47.190355329949234 Y51.45177664974619
G1 X47.13705583756345 Y51.49238578680203
G1 X47.13451776649747 Y51.48984771573603
G1 X46.8502538071066 Y51.30710659898477
G2 X46.73857868020305 Y51.246192893401016 I-0.3807106598984772 J0.5862944162436547
G1 X46.434010152284266 Y51.119289340101524
G2 X46.30964467005076 Y51.08121827411168 I-0.2690355329949239 J0.6446700507614213
G1 X45.99238578680203 Y51.012690355329944
G2 X45.857868020304565 Y50.997461928934015 I-0.14720812182741116 J0.6852791878172588
G1 X45.54060913705584 Y50.99238578680203
G2 X45.398477157360404 Y51.00507614213198 I-0.012690355329949238 J0.7005076142131981
G1 X45.09137055837564 Y51.06091370558375
G2 X44.95177664974619 Y51.10406091370558 I0.12944162436548223 J0.6878172588832487
G1 X44.66751269035533 Y51.22081218274111
G2 X44.538071065989854 Y51.29187817258884 I0.2690355329949239 J0.6472081218274112
G1 X44.40862944162436 Y51.380710659898476
G1 X44.284263959390856 Y51.46700507614213
G2 X44.17766497461929 Y51.558375634517766 I0.3984771573604061 J0.5761421319796954
G1 X44.172588832487314 Y51.56345177664974
G1 X43.96192893401015 Y51.786802030456855
G2 X43.87309644670051 Y51.90355329949239 I0.5101522842639594 J0.47969543147208127
G1 X43.710659898477154 Y52.17005076142132
G2 X43.6497461928934 Y52.296954314720814 I0.5964467005076142 J0.3654822335025381
G1 X43.54060913705584 Y52.59644670050761
G2 X43.50761421319797 Y52.72842639593908 I0.6573604060913706 J0.23857868020304568
G1 X43.45939086294416 Y53.04822335025381
G2 X43.44923857868021 Y53.154822335025386 I0.6928934010152283 J0.10659898477157359
G1 X43.45177664974619 Y53.180203045685275
G1 X43.46192893401016 Y53.51015228426397
G2 X43.47715736040609 Y53.63451776649746 I0.7005076142131981 J-0.022842639593908632
G1 X43.54822335025381 Y53.96192893401015
G1 X43.54822335025381 Y53.96192893401015
G1 X43.48730964467005 Y53.997461928934015
G1 X43.23857868020305 Y53.77157360406091
G2 X43.13959390862944 Y53.69543147208121 I-0.47208121827411165 J0.5177664974619289
G1 X42.85786802030457 Y53.52030456852792
G2 X42.74111675126903 Y53.46192893401016 I-0.37055837563451777 J0.5939086294416244
G1 X42.43654822335025 Y53.34517766497462
G2 X42.307106598984774 Y53.30964467005076 I-0.25380710659898476 J0.6522842639593909
G1 X41.99492385786802 Y53.251269035533
G2 X41.85532994923858 Y53.24111675126904 I-0.12436548223350254 J0.6878172588832487
G1 X41.54060913705584 Y53.24873096446701
G2 X41.398477157360404 Y53.26903553299492 I0.017766497461928935 J0.7005076142131981
G1 X41.09644670050762 Y53.33756345177665
G1 X41.09137055837564 Y53.34010152284264
G2 X40.95685279187818 Y53.38832487309645 I0.16751269035532995 J0.6802030456852792
G1 X40.817258883248726 Y53.45431472081218
G1 X40.680203045685275 Y53.52030456852792
G2 X40.55329949238579 Y53.59644670050762 I0.29949238578680204 J0.6319796954314721
G1 X40.309644670050766 Y53.78426395939086
G2 X40.203045685279186 Y53.88324873096447 I0.42639593908629436 J0.5558375634517766
G1 X40 Y54.121827411167516
G2 X39.91878172588832 Y54.23857868020305 I0.5304568527918782 J0.45685279187817257
G1 X39.763959390862944 Y54.51522842639594
G2 X39.710659898477154 Y54.639593908629436 I0.6116751269035533 J0.3401015228426396
G1 X39.609137055837564 Y54.9492385786802
G2 X39.58121827411168 Y55.076142131979694 I0.6649746192893401 J0.21573604060913704
G1 X39.54060913705584 Y55.40355329949239
G2 X39.53299492385787 Y55.49238578680203 I0.6954314720812182 J0.08883248730964467
G2 X39.535532994923855 Y55.53045685279188 I0.7005076142131981 J0
G1 X39.55329949238579 Y55.86548223350253
G1 X39.55329949238579 Y55.870558375634516
G1 X39.48984771573604 Y55.89593908629442
G1 X39.48730964467005 Y55.890862944162436
G1 X39.276649746192895 Y55.62690355329949
G2 X39.19035532994924 Y55.53807106598985 I-0.5482233502538071 J0.4365482233502538
G1 X38.941624365482234 Y55.319796954314725
G2 X38.83502538071066 Y55.24111675126903 I-0.4619289340101523 J0.5253807106598986
G1 X38.555837563451774 Y55.07868020304569
G2 X38.434010152284266 Y55.02030456852792 I-0.3553299492385787 J0.6040609137055838
G1 X38.131979695431475 Y54.91370558375635
G2 X37.99492385786802 Y54.88071065989848 I-0.23096446700507614 J0.6598984771573604
G1 X37.68527918781726 Y54.84010152284264
G2 X37.54060913705584 Y54.835025380710654 I-0.09644670050761422 J0.6928934010152283
G1 X37.233502538071065 Y54.85532994923858
G2 X37.08629441624366 Y54.88324873096447 I0.050761421319796954 J0.6979695431472082
G1 X36.79187817258884 Y54.96700507614214
G2 X36.65482233502538 Y55.022842639593904 I0.1954314720812183 J0.6725888324873096
G1 X36.38324873096447 Y55.17005076142132
G2 X36.263959390862944 Y55.25126903553299 I0.3299492385786802 J0.616751269035533
G1 X36.02284263959391 Y55.454314720812185
G2 X35.9263959390863 Y55.55329949238579 I0.45177664974619286 J0.5355329949238579
G1 X35.72842639593909 Y55.804568527918775
G2 X35.65482233502538 Y55.91878172588832 I0.5482233502538071 J0.434010152284264
G1 X35.50761421319797 Y56.20558375634518
G2 X35.45939086294416 Y56.32741116751269 I0.6218274111675127 J0.3197969543147208
G1 X35.36548223350253 Y56.64467005076142
G2 X35.34010152284264 Y56.76903553299493 I0.6700507614213198 J0.1979695431472081
G1 X35.30456852791878 Y57.101522842639596
G1 X35.30203045685279 Y57.126903553299485
G1 X35.30203045685279 Y57.126903553299485
G1 X35.25126903553299 Y57.139593908629436
G1 X35.246192893401016 Y57.13705583756345
G1 X35.233502538071065 Y57.11675126903553
G1 X35.068527918781726 Y56.82233502538071
G2 X34.99746192893401 Y56.71827411167513 I-0.6116751269035533 J0.3426395939086294
G1 X34.786802030456855 Y56.46446700507614
G2 X34.69543147208122 Y56.37309644670051 I-0.5406091370558376 J0.4467005076142132
G1 X34.44670050761421 Y56.16497461928934
G2 X34.33502538071066 Y56.088832487309645 I-0.4467005076142132 J0.5380710659898478
G1 X34.05329949238579 Y55.93654822335026
G2 X33.923857868020306 Y55.880710659898476 I-0.3350253807106599 J0.6142131979695432
G1 X33.62436548223351 Y55.789340101522846
G2 X33.48223350253807 Y55.76142131979695 I-0.20558375634517764 J0.6700507614213198
G1 X33.1751269035533 Y55.733502538071065
G2 X33.02791878172589 Y55.736040609137056 I-0.06345177664974619 J0.6979695431472082
G1 X32.72335025380711 Y55.7741116751269
G2 X32.578680203045685 Y55.807106598984774 I0.08375634517766498 J0.6954314720812182
G1 X32.286802030456855 Y55.90609137055837
G2 X32.15482233502538 Y55.96700507614213 I0.22842639593908629 J0.6624365482233502
G1 X31.885786802030456 Y56.129441624365484
G2 X31.774111675126903 Y56.213197969543145 I0.3604060913705584 J0.6015228426395939
G1 X31.538071065989847 Y56.42893401015228
G2 X31.449238578680202 Y56.52791878172589 I0.47208121827411165 J0.5152284263959391
G1 X31.256345177664976 Y56.78934010152284
G2 X31.18781725888325 Y56.901015228426395 I0.5634517766497462 J0.416243654822335
G1 X31.04314720812183 Y57.200507614213194
G2 X31 Y57.31725888324873 I0.6294416243654822 J0.30456852791878175
G1 X30.911167512690355 Y57.64213197969543
G1 X30.903553299492387 Y57.664974619289346
G2 X30.898477157360404 Y57.692893401015226 I0.6802030456852792 J0.16243654822335027
G1 X30.875634517766496 Y57.68274111675127
G1 X30.855329949238577 Y57.69543147208122
G2 X30.847715736040612 Y57.66751269035532 I-0.6725888324873096 J0.1903553299492386
G1 X30.84010152284264 Y57.64467005076142
G1 X30.725888324873097 Y57.32741116751269
G2 X30.670050761421322 Y57.21573604060914 I-0.6573604060913706 J0.23857868020304568
G1 X30.505076142131983 Y56.92893401015229
G2 X30.428934010152282 Y56.82233502538071 I-0.6040609137055838 J0.35279187817258884
G1 X30.215736040609137 Y56.578680203045685
G2 X30.116751269035532 Y56.484771573604064 I-0.5279187817258884 J0.4593908629441624
G1 X29.86548223350254 Y56.289340101522846
G2 X29.746192893401012 Y56.21573604060914 I-0.4289340101522843 J0.5532994923857868
G1 X29.46446700507614 Y56.076142131979694
G2 X29.329949238578678 Y56.025380710659896 I-0.30964467005076146 J0.6269035532994924
G1 X29.03045685279188 Y55.94923857868021
G2 X28.883248730964468 Y55.92893401015228 I-0.17512690355329952 J0.6776649746192893
G1 X28.576142131979694 Y55.91624365482233
G2 X28.428934010152282 Y55.923857868020306 I-0.027918781725888325 J0.7005076142131981
G1 X28.1243654822335 Y55.97715736040609
G2 X27.98477157360406 Y56.01776649746193 I0.11928934010152284 J0.6903553299492386
G1 X27.695431472081218 Y56.131979695431475
G2 X27.568527918781726 Y56.19796954314721 I0.25888324873096447 J0.6497461928934011
G1 X27.30203045685279 Y56.37309644670051
G2 X27.197969543147206 Y56.45685279187817 I0.383248730964467 J0.5862944162436547
G1 X26.96446700507614 Y56.682741116751274
G2 X26.880710659898476 Y56.784263959390856 I0.48984771573604063 J0.5
G1 X26.690355329949238 Y57.05329949238578
G2 X26.629441624365484 Y57.162436548223354 I0.5736040609137056 J0.4010152284263959
G1 X26.48730964467005 Y57.469543147208114
G1 X26.477157360406093 Y57.49238578680203
G2 X26.467005076142133 Y57.517766497461935 I0.6472081218274112 J0.2690355329949239
G1 X26.449238578680202 Y57.50253807106599
G1 X26.449238578680202 Y57.50253807106599
G1 X26.423857868020306 Y57.5
G1 X26.421319796954315 Y57.48477157360406
G1 X26.418781725888323 Y57.45939086294416
G1 X26.35532994923858 Y57.129441624365484
G2 X26.31979695431472 Y57.01015228426396 I-0.6878172588832487 J0.1319796954314721
G1 X26.200507614213198 Y56.700507614213194
G2 X26.142131979695435 Y56.58375634517767 I-0.6522842639593909 J0.2512690355329949
G1 X25.97208121827411 Y56.30710659898477
G2 X25.89086294416244 Y56.200507614213194 I-0.5939086294416244 J0.3680203045685279
G1 X25.672588832487307 Y55.96700507614213
G2 X25.565989847715738 Y55.87309644670051 I-0.5126903553299492 J0.47715736040609136
G1 X25.31218274111675 Y55.692893401015226
G2 X25.185279187817258 Y55.62182741116751 I-0.40609137055837563 J0.5685279187817259
G1 X24.903553299492387 Y55.49746192893401
G2 X24.761421319796955 Y55.45177664974619 I-0.27918781725888325 J0.6421319796954316
G1 X24.45939086294416 Y55.390862944162436
G2 X24.314720812182742 Y55.37563451776649 I-0.13959390862944163 J0.6852791878172588
G1 X24.005076142131976 Y55.380710659898476
G2 X23.860406091370557 Y55.39593908629442 I0.007614213197969543 J0.7005076142131981
G1 X23.555837563451778 Y55.464467005076145
G2 X23.421319796954315 Y55.507614213197975 I0.14974619289340102 J0.6827411167512689
G1 X23.131979695431472 Y55.63705583756345
G2 X23.012690355329948 Y55.70304568527919 I0.28426395939086296 J0.6395939086294417
G1 X22.748730964467004 Y55.890862944162436
G2 X22.64720812182741 Y55.9746192893401 I0.4035532994923858 J0.5736040609137056
G1 X22.41624365482234 Y56.213197969543145
G2 X22.337563451776653 Y56.30964467005076 I0.5025380710659898 J0.4873096446700508
G1 X22.1497461928934 Y56.588832487309645
G1 X22.142131979695428 Y56.60152284263959
G1 X22.083756345177665 Y56.58375634517767
G1 X22.083756345177665 Y56.57106598984772
G1 X22.07360406091371 Y56.233502538071065
G2 X22.058375634517766 Y56.10913705583756 I-0.7005076142131981 J0.020304568527918784
G1 X21.98984771573604 Y55.78426395939086
G2 X21.95177664974619 Y55.659898477157356 I-0.6852791878172588 J0.1446700507614213
G1 X21.827411167512693 Y55.360406091370564
G2 X21.763959390862944 Y55.24111675126903 I-0.6472081218274112 J0.2690355329949239
G1 X21.586294416243653 Y54.977157360406096
G2 X21.497461928934012 Y54.86802030456853 I-0.5812182741116751 J0.3883248730964467
G1 X21.276649746192895 Y54.64720812182741
