(Generated by PartKam Version 0.05)

G21 G90 G40

(outer cut)
G0 Z15
T0 M6
G17
M3
G0 X57.66065989847716 Y26.501522842639595
G1 Z-0.3 F125
G3 X58.299492385786806 Y26.931472081218274 I-0.04060913705583757 J0.748730964467005 F125
G1 X58.33502538071066 Y27.007614213197968
G1 X58.48730964467005 Y27.241116751269033
G3 X58.60913705583756 Y27.601522842639593 I-0.6269035532994924 J0.4111675126903553
G1 X58.64467005076143 Y28.096446700507617
G3 X58.64467005076143 Y28.14720812182741 I-0.748730964467005 J0.053299492385786795
G3 X58.58121827411168 Y28.451776649746193 I-0.751269035532995 J0
G1 X58.47208121827411 Y28.700507614213198
G1 X58.44670050761422 Y28.781725888324875
G3 X57.88578680203046 Y29.30710659898477 I-0.7208121827411168 J-0.2081218274111675
G1 X57.67258883248731 Y29.35279187817259
G1 X57.48477157360406 Y29.431472081218274
G1 X57.32233502538071 Y29.53553299492386
G1 X57.190355329949234 Y29.659898477157363
G1 X57.09137055837563 Y29.79695431472081
G1 X57.027918781725894 Y29.941624365482234
G1 X56.99492385786802 Y30.091370558375633
G1 X56.99492385786802 Y30.238578680203045
G1 X57.027918781725894 Y30.388324873096447
G1 X57.09137055837563 Y30.532994923857867
G1 X57.190355329949234 Y30.670050761421322
G1 X57.32233502538071 Y30.794416243654823
G1 X57.48477157360406 Y30.898477157360404
G1 X57.67258883248731 Y30.977157360406093
G1 X57.88578680203046 Y31.022842639593907
G3 X58.44670050761422 Y31.548223350253807 I-0.1598984771573604 J0.7335025380710659
G1 X58.47208121827411 Y31.629441624365484
G1 X58.58121827411168 Y31.8756345177665
G3 X58.64467005076143 Y32.182741116751274 I-0.6852791878172588 J0.30456852791878175
G3 X58.64467005076143 Y32.233502538071065 I-0.751269035532995 J0
G1 X58.60913705583756 Y32.72842639593909
G3 X58.48730964467005 Y33.088832487309645 I-0.748730964467005 J-0.053299492385786795
G1 X58.33502538071066 Y33.32233502538071
G1 X58.299492385786806 Y33.398477157360404
G3 X57.65989847715736 Y33.827411167512686 I-0.6802030456852792 J-0.31725888324873097
G1 X57.441624365482234 Y33.84010152284264
G1 X57.243654822335024 Y33.88578680203046
G1 X57.065989847715734 Y33.96192893401015
G1 X56.91624365482234 Y34.06345177664975
G1 X56.79695431472081 Y34.18527918781726
G1 X56.710659898477154 Y34.317258883248726
G1 X56.65482233502538 Y34.45939086294416
G1 X56.631979695431475 Y34.60659898477157
G1 X56.639593908629436 Y34.75888324873096
G1 X56.68020304568528 Y34.911167512690355
G1 X56.753807106598984 Y35.06345177664975
G1 X56.86548223350254 Y35.20812182741117
G1 X57.00761421319797 Y35.33502538071066
G1 X57.180203045685275 Y35.441624365482234
G1 X57.38578680203045 Y35.52284263959391
G3 X57.85532994923858 Y36.13197969543147 I-0.2766497461928934 J0.6979695431472082
G1 X57.86548223350253 Y36.21573604060914
G1 X57.93654822335025 Y36.49238578680203
G3 X57.961928934010146 Y36.68274111675127 I-0.7258883248730964 J0.1903553299492386
G3 X57.94670050761422 Y36.840101522842644 I-0.751269035532995 J0
G1 X57.85279187817259 Y37.27918781725889
G3 X57.67258883248731 Y37.63197969543147 I-0.7335025380710659 J-0.15482233502538073
G1 X57.45939086294416 Y37.86294416243655
G1 X57.411167512690355 Y37.934010152284266
G3 X56.710659898477154 Y38.256345177664976 I-0.6192893401015229 J-0.42385786802030456
G1 X56.49238578680203 Y38.23096446700508
G1 X56.29187817258884 Y38.246192893401016
G1 X56.10406091370558 Y38.29187817258883
G1 X55.93908629441624 Y38.368020304568525
G1 X55.8020304568528 Y38.46954314720812
G1 X55.69543147208122 Y38.58629441624365
G1 X55.61675126903553 Y38.71573604060914
G1 X55.57106598984771 Y38.857868020304565
G1 X55.55329949238579 Y39.00761421319797
G1 X55.568527918781726 Y39.16751269035533
G1 X55.61928934010152 Y39.32741116751269
G1 X55.70558375634518 Y39.48730964467005
G1 X55.8248730964467 Y39.63959390862944
G1 X55.97969543147208 Y39.77157360406091
G1 X56.16751269035533 Y39.88324873096447
G3 X56.53553299492386 Y40.52791878172589 I-0.383248730964467 J0.6446700507614213
G3 X56.53299492385787 Y40.56091370558376 I-0.751269035532995 J0
G1 X56.53045685279188 Y40.64467005076142
G1 X56.56345177664974 Y40.97715736040609
G3 X56.565989847715734 Y41.05076142131979 I-0.7461928934010152 J0.07360406091370558
G3 X56.52030456852792 Y41.30710659898477 I-0.751269035532995 J0
G1 X56.398477157360404 Y41.642131979695435
G3 X56.15736040609137 Y41.974619289340104 I-0.7055837563451777 J-0.2563451776649746
G1 X55.86548223350253 Y42.20558375634518
G1 X55.804568527918775 Y42.26903553299493
G3 X55.06598984771574 Y42.47208121827411 I-0.5406091370558376 J-0.5177664974619289
G1 X54.85279187817259 Y42.41370558375635
G1 X54.65228426395939 Y42.39593908629441
G1 X54.45939086294416 Y42.411167512690355
G1 X54.284263959390856 Y42.46192893401015
G1 X54.13451776649747 Y42.53807106598985
G1 X54.00761421319797 Y42.63705583756345
G1 X53.911167512690355 Y42.75126903553299
G1 X53.84263959390863 Y42.88324873096447
G1 X53.80203045685279 Y43.03045685279188
G1 X53.79187817258884 Y43.18781725888325
G1 X53.81472081218274 Y43.35532994923858
G1 X53.87309644670051 Y43.52791878172589
G1 X53.96954314720812 Y43.69543147208121
G1 X54.09898477157361 Y43.8502538071066
G1 X54.266497461928935 Y43.99238578680203
G3 X54.535532994923855 Y44.565989847715734 I-0.48223350253807107 J0.5736040609137056
G3 X54.52030456852792 Y44.71827411167513 I-0.751269035532995 J0
G1 X54.50253807106599 Y44.80203045685279
G1 X54.474619289340104 Y45.21319796954315
G3 X54.33502538071066 Y45.60406091370559 I-0.748730964467005 J-0.04822335025380711
G1 X54.16243654822335 Y45.84010152284264
G3 X53.921319796954315 Y46.055837563451774 I-0.6065989847715736 J-0.4416243654822335
G1 X53.59390862944163 Y46.236040609137056
G1 X53.52791878172589 Y46.286802030456855
G3 X52.76395939086294 Y46.370558375634516 I-0.45177664974619286 J-0.5989847715736041
G1 X52.56345177664975 Y46.27918781725889
G1 X52.36802030456853 Y46.22842639593909
G1 X52.175126903553306 Y46.213197969543145
G1 X51.99492385786802 Y46.233502538071065
G1 X51.83248730964466 Y46.286802030456855
G1 X51.692893401015226 Y46.36294416243655
G1 X51.578680203045685 Y46.46192893401015
G1 X51.48984771573603 Y46.58121827411168
G1 X51.4263959390863 Y46.71827411167513
G1 X51.39086294416244 Y46.87309644670051
G1 X51.38578680203046 Y47.04314720812182
G1 X51.41878172588832 Y47.22081218274112
G1 X51.484771573604064 Y47.40355329949239
G1 X51.588832487309645 Y47.576142131979694
G1 X51.73096446700508 Y47.743654822335024
G3 X51.91370558375635 Y48.233502538071065 I-0.5685279187817259 J0.48984771573604063
G3 X51.86548223350254 Y48.5 I-0.751269035532995 J0
G1 X51.83502538071066 Y48.578680203045685
G1 X51.756345177664976 Y48.91370558375635
G3 X51.565989847715734 Y49.266497461928935 I-0.7309644670050762 J-0.16751269035532995
G1 X51.28172588832487 Y49.56091370558376
G3 X50.997461928934015 Y49.746192893401016 I-0.5406091370558376 J-0.5203045685279188
G1 X50.70812182741116 Y49.8502538071066
G1 X50.63451776649746 Y49.890862944162436
G3 X49.86548223350254 Y49.8502538071066 I-0.35025380710659904 J-0.6624365482233502
G1 X49.682741116751274 Y49.72842639593908
G1 X49.49746192893401 Y49.64467005076142
G1 X49.30964467005076 Y49.601522842639596
G1 X49.129441624365484 Y49.59137055837563
G1 X48.96192893401015 Y49.61675126903553
G1 X48.81218274111675 Y49.67005076142132
G1 X48.68274111675127 Y49.74873096446701
G1 X48.576142131979694 Y49.85279187817259
G1 X48.48984771573604 Y49.97969543147208
G1 X48.431472081218274 Y50.1269035532995
G1 X48.39847715736041 Y50.29187817258883
G1 X48.40101522842639 Y50.4746192893401
G1 X48.43908629441624 Y50.662436548223354
G1 X48.512690355329944 Y50.85279187817258
G1 X48.62690355329949 Y51.03807106598985
G3 X48.73857868020305 Y51.431472081218274 I-0.6395939086294417 J0.3934010152284264
G3 X48.63705583756345 Y51.807106598984774 I-0.751269035532995 J0
G1 X48.59390862944163 Y51.88071065989848
G1 X48.48223350253807 Y52.15482233502538
G3 X48.251269035533 Y52.46192893401015 I-0.6954314720812182 J-0.2817258883248731
G1 X47.873096446700515 Y52.75888324873097
G3 X47.54822335025381 Y52.90355329949239 I-0.4619289340101523 J-0.5913705583756345
G1 X47.27918781725889 Y52.954314720812185
G1 X47.200507614213194 Y52.98223350253807
G3 X46.44923857868021 Y52.819796954314725 I-0.23857868020304568 J-0.7106598984771574
G1 X46.286802030456855 Y52.67005076142132
G1 X46.11675126903553 Y52.558375634517766
G1 X45.93908629441624 Y52.48477157360406
G1 X45.76142131979695 Y52.44670050761421
G1 X45.59137055837564 Y52.444162436548226
G1 X45.43654822335025 Y52.47208121827411
G1 X45.296954314720814 Y52.530456852791886
G1 X45.17258883248731 Y52.61421319796955
G1 X45.07106598984771 Y52.7258883248731
G1 X44.98730964467005 Y52.860406091370564
G1 X44.92893401015229 Y53.02030456852792
G1 X44.901015228426395 Y53.2005076142132
G1 X44.90862944162436 Y53.39340101522843
G1 X44.95177664974619 Y53.59137055837564
G1 X45.035532994923855 Y53.79441624365482
G3 X45.09137055837564 Y54.078680203045685 I-0.6928934010152283 J0.28426395939086296
G3 X44.92131979695431 Y54.55329949238578 I-0.751269035532995 J0
G1 X44.86802030456853 Y54.619289340101524
G1 X44.7258883248731 Y54.85279187817259
G3 X44.45939086294416 Y55.111675126903556 I-0.6395939086294417 J-0.3908629441624366
G1 X44.0253807106599 Y55.360406091370564
G3 X43.66751269035533 Y55.461928934010146 I-0.3756345177664975 J-0.6497461928934011
G1 X43.39593908629442 Y55.46954314720813
G1 X43.31218274111676 Y55.48223350253807
G3 X42.598984771573605 Y55.2005076142132 I-0.1218274111675127 J-0.7411167512690355
G1 X42.464467005076145 Y55.02791878172589
G1 X42.31218274111675 Y54.890862944162436
G1 X42.1497461928934 Y54.78934010152284
G1 X41.97969543147208 Y54.72335025380711
G1 X41.81472081218274 Y54.692893401015226
G1 X41.65482233502538 Y54.69796954314721
G1 X41.50761421319797 Y54.73096446700508
G1 X41.37309644670051 Y54.79441624365482
G1 X41.253807106598984 Y54.888324873096444
G1 X41.1497461928934 Y55.00761421319797
G1 X41.065989847715734 Y55.15736040609137
G1 X41.01015228426397 Y55.32994923857868
G1 X40.98730964467005 Y55.52030456852792
G1 X40.997461928934015 Y55.723350253807105
G1 X41.04822335025381 Y55.93654822335026
G3 X41.065989847715734 Y56.10659898477158 I-0.7309644670050762 J0.1700507614213198
G3 X40.81218274111676 Y56.67005076142132 I-0.751269035532995 J0
G1 X40.74873096446701 Y56.7258883248731
G1 X40.57106598984771 Y56.93401015228426
G3 X40.28172588832487 Y57.139593908629436 I-0.5685279187817259 J-0.4873096446700508
G1 X39.83756345177665 Y57.319796954314725
G3 X39.454314720812185 Y57.36802030456853 I-0.2817258883248731 J-0.6954314720812182
G1 X39.162436548223354 Y57.32741116751269
G1 X39.076142131979694 Y57.32741116751269
G3 X38.41624365482233 Y56.93401015228426 I-0.002538071065989848 J-0.748730964467005
G1 X38.31218274111675 Y56.74111675126903
G1 X38.18527918781726 Y56.58375634517767
G1 X38.03807106598985 Y56.45685279187817
G1 X37.88324873096447 Y56.36294416243655
G1 X37.72335025380711 Y56.30710659898477
G1 X37.565989847715734 Y56.286802030456855
G1 X37.41370558375635 Y56.29695431472081
G1 X37.27157360406091 Y56.33756345177665
G1 X37.13705583756345 Y56.411167512690355
G1 X37.01776649746193 Y56.51269035532995
G1 X36.911167512690355 Y56.64467005076142
G1 X36.82994923857868 Y56.807106598984774
G1 X36.7741116751269 Y56.992385786802025
G1 X36.75126903553299 Y57.192893401015226
G1 X36.766497461928935 Y57.411167512690355
G3 X36.76903553299492 Y57.46192893401015 I-0.748730964467005 J0.050761421319796954
G3 X36.41878172588832 Y58.09644670050761 I-0.751269035532995 J0
G1 X36.345177664974614 Y58.142131979695435
G1 X36.111675126903556 Y58.34010152284264
G3 X35.80964467005076 Y58.494923857868024 I-0.4847715736040609 J-0.5736040609137056
G1 X35.411167512690355 Y58.59390862944163
G3 X35.01015228426396 Y58.58375634517767 I-0.1802030456852792 J-0.7284263959390863
G1 X34.682741116751274 Y58.48223350253807
G1 X34.598984771573605 Y58.46954314720812
G3 X34.01015228426396 Y57.9746192893401 I0.11675126903553298 J-0.7411167512690355
G1 X33.93654822335026 Y57.76903553299492
G1 X33.83756345177665 Y57.59137055837564
G1 X33.71573604060914 Y57.441624365482234
G1 X33.576142131979694 Y57.32741116751269
G1 X33.4263959390863 Y57.246192893401016
G1 X33.2741116751269 Y57.19796954314721
G1 X33.1243654822335 Y57.18527918781726
G1 X32.974619289340104 Y57.203045685279186
G1 X32.83248730964467 Y57.25126903553299
G1 X32.69543147208122 Y57.335025380710654
G1 X32.57106598984771 Y57.4492385786802
G1 X32.464467005076145 Y57.59390862944162
G1 X32.380710659898476 Y57.76903553299492
G1 X32.3248730964467 Y57.964467005076145
G1 X32.30456852791878 Y58.18274111675127
G3 X31.850253807106597 Y58.80203045685279 I-0.7461928934010152 J-0.07106598984771574
G1 X31.771573604060915 Y58.83502538071066
G1 X31.454314720812185 Y59.02791878172589
G3 X31.14720812182741 Y59.129441624365484 I-0.3857868020304569 J-0.6446700507614213
G1 X30.85786802030457 Y59.15989847715736
G3 X30.446700507614214 Y59.08629441624366 I-0.07868020304568528 J-0.7461928934010152
G1 X30.076142131979697 Y58.90355329949238
G1 X29.99746192893401 Y58.87817258883249
G3 X29.492385786802032 Y58.29441624365482 I0.23604060913705582 J-0.7131979695431472
G1 X29.45431472081218 Y58.078680203045685
G1 X29.385786802030456 Y57.888324873096444
G1 X29.289340101522843 Y57.72081218274111
G1 X29.17005076142132 Y57.58629441624365
G1 X29.035532994923855 Y57.482233502538065
G1 X28.893401015228427 Y57.411167512690355
G1 X28.746192893401016 Y57.3730964467005
G1 X28.596446700507613 Y57.36802030456853
G1 X28.44670050761421 Y57.39340101522843
G1 X28.299492385786806 Y57.45177664974619
G1 X28.15989847715736 Y57.545685279187815
G1 X28.027918781725887 Y57.67258883248731
G1 X27.918781725888326 Y57.82994923857868
G1 X27.83248730964467 Y58.015228426395936
G1 X27.77918781725888 Y58.2258883248731
G3 X27.230964467005077 Y58.766497461928935 I-0.7258883248730964 J-0.1903553299492386
G1 X27.14720812182741 Y58.786802030456855
G1 X26.7994923857868 Y58.923857868020306
G3 X26.393401015228427 Y58.96700507614213 I-0.2766497461928934 J-0.6979695431472082
G1 X26.04060913705584 Y58.90355329949238
G3 X25.736040609137056 Y58.776649746192895 I0.12944162436548223 J-0.7385786802030457
G1 X25.461928934010153 Y58.58121827411168
G1 X25.388324873096447 Y58.54314720812183
G3 X24.984771573604057 Y57.888324873096444 I0.3477157360406091 J-0.6649746192893401
G1 X24.982233502538072 Y57.66751269035532
G1 X24.944162436548222 Y57.469543147208114
G1 X24.873096446700508 Y57.28934010152284
G1 X24.779187817258883 Y57.13451776649747
G1 X24.66243654822335 Y57.01015228426396
G1 X24.532994923857867 Y56.91878172588832
G1 X24.39593908629442 Y56.857868020304565
G1 X24.248730964467008 Y56.82741116751269
G1 X24.096446700507613 Y56.829949238578685
G1 X23.941624365482234 Y56.86294416243655
G1 X23.786802030456855 Y56.931472081218274
G1 X23.639593908629443 Y57.035532994923855
G1 X23.50507614213198 Y57.175126903553306
G1 X23.39086294416244 Y57.34263959390863
G1 X23.30203045685279 Y57.54314720812182
G3 X22.6751269035533 Y57.98730964467005 I-0.6852791878172588 J-0.3020304568527919
G1 X22.591370558375633 Y57.994923857868024
G1 X22.281725888324875 Y58.06345177664974
G3 X21.888324873096447 Y58.04314720812183 I-0.16243654822335027 J-0.7335025380710659
G1 X21.45939086294416 Y57.90355329949239
G3 X21.162436548223347 Y57.72335025380711 I0.23096446700507614 J-0.7131979695431472
G1 X20.961928934010153 Y57.522842639593904
G1 X20.893401015228427 Y57.47208121827411
G3 X20.591370558375633 Y56.870558375634516 I0.4467005076142132 J-0.6015228426395939
G3 X20.598984771573605 Y56.76142131979695 I0.751269035532995 J0
G1 X20.631979695431472 Y56.54314720812182
G1 X20.626903553299492 Y56.340101522842644
G1 X20.586294416243653 Y56.15228426395939
G1 X20.51776649746193 Y55.984771573604064
G1 X20.423857868020306 Y55.84263959390863
G1 X20.30964467005076 Y55.73096446700507
G1 X20.182741116751266 Y55.6497461928934
G1 X20.043147208121827 Y55.59644670050761
G1 X19.893401015228427 Y55.5736040609137
G1 X19.736040609137056 Y55.58375634517766
G1 X19.571065989847718 Y55.62690355329949
G1 X19.408629441624367 Y55.70558375634518
G1 X19.253807106598984 Y55.81979695431472
G1 X19.114213197969544 Y55.96954314720812
G1 X18.99492385786802 Y56.15228426395939
G3 X18.304568527918782 Y56.48984771573603 I-0.6294416243654822 J-0.4086294416243655
G1 X18.21827411167513 Y56.48223350253807
G1 X17.939086294416246 Y56.5
G3 X17.568527918781726 Y56.423857868020306 I-0.043147208121827416 J-0.748730964467005
G1 X17.121827411167512 Y56.20558375634518
G3 X16.84517766497462 Y55.9746192893401 I0.3299492385786802 J-0.6751269035532994
G1 X16.685279187817258 Y55.75634517766497
G1 X16.626903553299492 Y55.69543147208122
G3 X16.416243654822335 Y55.17258883248731 I0.5380710659898478 J-0.5228426395939086
G3 X16.451776649746193 Y54.94670050761421 I0.748730964467005 J0
G1 X16.51776649746193 Y54.73604060913706
G1 X16.545685279187815 Y54.535532994923855
G1 X16.53553299492386 Y54.34263959390863
G1 X16.49492385786802 Y54.16751269035533
G1 X16.423857868020303 Y54.01269035532995
G1 X16.32994923857868 Y53.88324873096447
G1 X16.218274111675125 Y53.78172588832487
G1 X16.088832487309645 Y53.70812182741116
G1 X15.946700507614214 Y53.659898477157356
G1 X15.786802030456853 Y53.64467005076143
G1 X15.619289340101524 Y53.659898477157356
G1 X15.444162436548224 Y53.713197969543145
G1 X15.274111675126905 Y53.80203045685279
G1 X15.111675126903554 Y53.9263959390863
G1 X14.964467005076143 Y54.088832487309645
G3 X14.228426395939087 Y54.30964467005076 I-0.5532994923857868 J-0.5050761421319797
G1 X14.147208121827411 Y54.28934010152284
G1 X13.878172588832488 Y54.26142131979695
G3 X13.538071065989847 Y54.13705583756345 I0.07868020304568528 J-0.7461928934010152
G1 X13.126903553299492 Y53.86040609137056
G3 X12.875634517766496 Y53.576142131979694 I0.41878172588832485 J-0.6218274111675127
G1 X12.751269035532996 Y53.3248730964467
G1 X12.7005076142132 Y53.25634517766497
G3 X12.568527918781726 Y52.827411167512686 I0.616751269035533 J-0.42639593908629436
G3 X12.649746192893401 Y52.48984771573604 I0.748730964467005 J0
G1 X12.748730964467006 Y52.29187817258883
G1 X12.807106598984772 Y52.098984771573605
G1 X12.82994923857868 Y51.90609137055837
G1 X12.81725888324873 Y51.7258883248731
G1 X12.771573604060913 Y51.56345177664974
G1 X12.7005076142132 Y51.421319796954315
G1 X12.606598984771573 Y51.30203045685279
G1 X12.48984771573604 Y51.20812182741116
G1 X12.355329949238579 Y51.13959390862944
G1 X12.203045685279188 Y51.09644670050762
G1 X12.032994923857867 Y51.08629441624365
G1 X11.852791878172589 Y51.10913705583756
G1 X11.67005076142132 Y51.17005076142132
G1 X11.49238578680203 Y51.266497461928935
G1 X11.31979695431472 Y51.40355329949238
G3 X10.555837563451778 Y51.505076142131976 I-0.46700507614213194 J-0.5862944162436547
G1 X10.47969543147208 Y51.47208121827411
G1 X10.20304568527919 Y51.39593908629442
G3 X9.898477157360405 Y51.23096446700508 I0.1979695431472081 J-0.7233502538071066
G1 X9.563451776649746 Y50.92893401015228
G3 X9.350253807106599 Y50.598984771573605 I0.5025380710659898 J-0.5583756345177665
G1 X9.256345177664974 Y50.296954314720814
G1 X9.218274111675127 Y50.22081218274111
G3 X9.144670050761421 Y49.89593908629441 I0.6776649746192893 J-0.3223350253807106
G3 X9.289340101522843 Y49.454314720812185 I0.748730964467005 J0
G1 X9.418781725888325 Y49.276649746192895
G1 X9.50761421319797 Y49.09390862944163
G1 X9.560913705583756 Y48.90862944162436
G1 X9.576142131979696 Y48.72842639593909
G1 X9.560913705583756 Y48.55837563451777
G1 X9.51269035532995 Y48.40862944162437
G1 X9.436548223350254 Y48.276649746192895
G1 X9.33756345177665 Y48.16497461928934
G1 X9.215736040609137 Y48.0736040609137
G1 X9.071065989847716 Y48.007614213197975
G1 X8.906091370558375 Y47.972081218274106
G1 X8.725888324873097 Y47.964467005076145
G1 X8.535532994923859 Y47.994923857868024
G1 X8.342639593908629 Y48.06091370558376
G1 X8.152284263959391 Y48.16751269035534
G3 X7.383248730964467 Y48.14720812182741 I-0.3654822335025381 J-0.6548223350253807
G1 X7.312182741116752 Y48.101522842639596
G1 X7.007614213197969 Y47.961928934010146
G3 X6.743654822335026 Y47.76142131979696 I0.30964467005076146 J-0.6827411167512689
G1 X6.5126903553299496 Y47.48984771573604
G3 X6.345177664974619 Y47.11421319796954 I0.5736040609137056 J-0.48223350253807107
G1 X6.291878172588833 Y46.74365482233503
G1 X6.269035532994924 Y46.66243654822335
G3 X6.238578680203045 Y46.45177664974619 I0.7208121827411168 J-0.21065989847715735
G3 X6.461928934010153 Y45.91878172588832 I0.748730964467005 J0
G1 X6.616751269035533 Y45.76395939086295
G1 X6.733502538071066 Y45.598984771573605
G1 X6.817258883248732 Y45.4238578680203
G1 X6.8604060913705585 Y45.24873096446701
G1 X6.870558375634518 Y45.07868020304569
G1 X6.847715736040609 Y44.92131979695431
G1 X6.7944162436548226 Y44.77918781725889
G1 X6.715736040609137 Y44.65482233502538
G1 X6.609137055837564 Y44.545685279187815
G1 X6.477157360406092 Y44.45685279187817
G1 X6.31979695431472 Y44.39340101522842
G1 X6.1421319796954315 Y44.36040609137056
G1 X5.949238578680203 Y44.357868020304565
G1 X5.748730964467005 Y44.39340101522842
G1 X5.543147208121827 Y44.46700507614213
G3 X4.789340101522843 Y44.3248730964467 I-0.2563451776649746 J-0.7055837563451777
G1 X4.725888324873097 Y44.266497461928935
G1 X4.383248730964467 Y44.03807106598984
G3 X4.114213197969542 Y43.72081218274111 I0.416243654822335 J-0.6243654822335025
G1 X3.99492385786802 Y43.45431472081218
G3 X3.9289340101522843 Y43.14720812182741 I0.6852791878172588 J-0.30456852791878175
G1 X3.9289340101522843 Y43.13705583756345
G1 X3.9365482233502536 Y42.76395939086294
G1 X3.9263959390862944 Y42.680203045685275
G3 X3.918781725888325 Y42.588832487309645 I0.7436548223350253 J-0.09137055837563453
G3 X4.2360406091370555 Y41.977157360406096 I0.751269035532995 J0
G1 X4.413705583756345 Y41.8502538071066
G1 X4.555837563451776 Y41.70558375634518
G1 X4.66497461928934 Y41.54568527918782
G1 X4.738578680203045 Y41.37817258883249
G1 X4.774111675126903 Y41.213197969543145
G1 X4.776649746192893 Y41.05329949238579
G1 X4.748730964467005 Y40.90609137055837
G1 X4.690355329949238 Y40.76903553299492
G1 X4.601522842639594 Y40.64467005076142
G1 X4.4873096446700504 Y40.535532994923855
G1 X4.342639593908629 Y40.4492385786802
G1 X4.1725888324873095 Y40.38578680203046
G1 X3.982233502538071 Y40.35279187817259
G1 X3.779187817258883 Y40.35532994923858
G1 X3.5634517766497464 Y40.39593908629442
G3 X2.8401015228426396 Y40.13197969543147 I-0.13959390862944163 J-0.7360406091370558
G1 X2.786802030456853 Y40.06598984771574
G1 X2.535532994923858 Y39.83248730964467
G3 X2.3248730964467006 Y39.48984771573604 I0.5101522842639594 J-0.5482233502538071
G1 X2.213197969543147 Y39.09644670050761
G3 X2.182741116751269 Y38.890862944162436 I0.7208121827411168 J-0.20558375634517764
G3 X2.1954314720812182 Y38.75888324873097 I0.751269035532995 J0
G1 X2.248730964467005 Y38.45685279187818
G1 X2.253807106598985 Y38.37309644670051
G3 X2.67258883248731 Y37.72842639593909 I0.748730964467005 J0.027918781725888325
G1 X2.868020304568528 Y37.629441624365484
G1 X3.032994923857868 Y37.51015228426396
G1 X3.16497461928934 Y37.370558375634516
G1 X3.2639593908629445 Y37.21827411167513
G1 X3.3248730964467006 Y37.06091370558376
G1 X3.352791878172589 Y36.90355329949239
G1 X3.350253807106599 Y36.753807106598984
G1 X3.314720812182741 Y36.609137055837564
G1 X3.246192893401015 Y36.47208121827411
G1 X3.149746192893401 Y36.34771573604061
G1 X3.020304568527919 Y36.236040609137056
G1 X2.8629441624365484 Y36.14720812182741
G1 X2.6802030456852792 Y36.08375634517766
G1 X2.479695431472081 Y36.055837563451774
G1 X2.261421319796954 Y36.06091370558376
G3 X1.5913705583756346 Y35.68527918781726 I-0.020304568527918784 J-0.748730964467005
G1 X1.548223350253807 Y35.61167512690355
G1 X1.3654822335025378 Y35.378172588832484
G3 X1.215736040609137 Y35.022842639593904 I0.5913705583756345 J-0.4593908629441624
G1 X1.1497461928934012 Y34.54822335025381
G3 X1.1421319796954315 Y34.444162436548226 I0.7436548223350253 J-0.10406091370558375
G3 X1.1852791878172588 Y34.192893401015226 I0.751269035532995 J0
G1 X1.2766497461928932 Y33.93654822335026
G1 X1.2918781725888326 Y33.85279187817259
G3 X1.8096446700507616 Y33.28426395939086 I0.7360406091370558 J0.14720812182741116
G1 X2.020304568527919 Y33.21827411167513
G1 X2.200507614213198 Y33.12690355329949
G1 X2.3527918781725887 Y33.01015228426396
G1 X2.4746192893401013 Y32.8756345177665
G1 X2.563451776649746 Y32.73096446700507
G1 X2.6142131979695433 Y32.58121827411168
G1 X2.6345177664974617 Y32.42893401015229
G1 X2.6218274111675126 Y32.28172588832487
G1 X2.578680203045685 Y32.13705583756345
G1 X2.50253807106599 Y31.99746192893401
G1 X2.3934010152284264 Y31.868020304568528
G1 X2.251269035532995 Y31.753807106598984
G1 X2.0812182741116754 Y31.66243654822335
G1 X1.8883248730964466 Y31.601522842639596
G1 X1.6700507614213198 Y31.571065989847718
G3 X1.0685279187817258 Y31.09390862944162 I0.10152284263959391 J-0.7436548223350253
G1 X1.0406091370558377 Y31.01269035532995
G1 X0.9086294416243655 Y30.774111675126903
G3 X0.817258883248731 Y30.416243654822335 I0.6573604060913706 J-0.3604060913705584
G1 X0.817258883248731 Y29.913705583756347
G3 X0.9086294416243655 Y29.555837563451774 I0.751269035532995 J0
G1 X1.0406091370558377 Y29.31725888324873
G1 X1.0685279187817258 Y29.236040609137056
G3 X1.6700507614213198 Y28.758883248730967 I0.7030456852791878 J0.2639593908629442
G1 X1.8883248730964466 Y28.72842639593909
G1 X2.0812182741116754 Y28.667512690355327
G1 X2.251269035532995 Y28.576142131979694
G1 X2.3934010152284264 Y28.461928934010153
G1 X2.50253807106599 Y28.33248730964467
G1 X2.578680203045685 Y28.19289340101523
G1 X2.6218274111675126 Y28.04822335025381
G1 X2.6345177664974617 Y27.898477157360407
G1 X2.6142131979695433 Y27.748730964467004
G1 X2.563451776649746 Y27.598984771573605
G1 X2.4746192893401013 Y27.45431472081218
G1 X2.3527918781725887 Y27.319796954314718
G1 X2.200507614213198 Y27.203045685279186
G1 X2.020304568527919 Y27.111675126903553
G1 X1.8096446700507616 Y27.045685279187815
G3 X1.2918781725888326 Y26.477157360406093 I0.2182741116751269 J-0.7182741116751269
G1 X1.2766497461928932 Y26.393401015228427
G1 X1.1852791878172588 Y26.134517766497463
G3 X1.1421319796954315 Y25.885786802030456 I0.7081218274111676 J-0.24873096446700507
G3 X1.1497461928934012 Y25.78172588832487 I0.751269035532995 J0
G1 X1.215736040609137 Y25.307106598984774
G3 X1.3654822335025378 Y24.951776649746193 I0.7436548223350253 J0.10406091370558375
G1 X1.548223350253807 Y24.71827411167513
G1 X1.5913705583756346 Y24.64467005076142
G3 X2.261421319796954 Y24.269035532994923 I0.6497461928934011 J0.3730964467005076
G1 X2.479695431472081 Y24.274111675126903
G1 X2.6802030456852792 Y24.243654822335024
G1 X2.8629441624365484 Y24.182741116751266
G1 X3.020304568527919 Y24.093908629441625
G1 X3.149746192893401 Y23.982233502538072
G1 X3.246192893401015 Y23.857868020304565
G1 X3.314720812182741 Y23.720812182741117
G1 X3.350253807106599 Y23.576142131979694
G1 X3.352791878172589 Y23.423857868020303
G1 X3.3248730964467006 Y23.26903553299492
G1 X3.2639593908629445 Y23.111675126903553
G1 X3.16497461928934 Y22.95939086294416
G1 X3.032994923857868 Y22.81979695431472
G1 X2.868020304568528 Y22.69796954314721
G1 X2.67258883248731 Y22.601522842639593
G3 X2.253807106598985 Y21.956852791878173 I0.3299492385786802 J-0.6725888324873096
G1 X2.248730964467005 Y21.873096446700508
G1 X2.1954314720812182 Y21.571065989847718
G3 X2.182741116751269 Y21.439086294416242 I0.7385786802030457 J-0.1319796954314721
G3 X2.213197969543147 Y21.230964467005077 I0.751269035532995 J0
G1 X2.3248730964467006 Y20.83756345177665
G3 X2.535532994923858 Y20.497461928934012 I0.7208121827411168 J0.20558375634517764
G1 X2.786802030456853 Y20.263959390862944
G1 X2.8401015228426396 Y20.19796954314721
G3 X3.5634517766497464 Y19.934010152284266 I0.5812182741116751 J0.47208121827411165
G1 X3.779187817258883 Y19.9746192893401
G1 X3.982233502538071 Y19.97715736040609
G1 X4.1725888324873095 Y19.944162436548222
G1 X4.342639593908629 Y19.880710659898476
G1 X4.4873096446700504 Y19.794416243654823
G1 X4.601522842639594 Y19.685279187817258
G1 X4.690355329949238 Y19.560913705583754
G1 X4.748730964467005 Y19.423857868020306
G1 X4.776649746192893 Y19.274111675126903
G1 X4.774111675126903 Y19.116751269035532
G1 X4.738578680203045 Y18.951776649746193
G1 X4.66497461928934 Y18.784263959390863
G1 X4.555837563451776 Y18.624365482233504
G1 X4.413705583756345 Y18.47969543147208
G1 X4.2360406091370555 Y18.35279187817259
G3 X3.918781725888325 Y17.741116751269036 I0.434010152284264 J-0.6116751269035533
G3 X3.9263959390862944 Y17.6497461928934 I0.751269035532995 J0
G1 X3.9365482233502536 Y17.565989847715734
G1 X3.9289340101522843 Y17.192893401015226
G1 X3.9289340101522843 Y17.18020304568528
G3 X3.99492385786802 Y16.8756345177665 I0.751269035532995 J0
G1 X4.114213197969542 Y16.609137055837564
G3 X4.383248730964467 Y16.29187817258883 I0.6852791878172588 J0.30456852791878175
G1 X4.725888324873097 Y16.063451776649746
G1 X4.789340101522843 Y16.007614213197968
G3 X5.543147208121827 Y15.862944162436548 I0.5 J0.5609137055837563
G1 X5.748730964467005 Y15.936548223350254
G1 X5.949238578680203 Y15.972081218274113
G1 X6.1421319796954315 Y15.969543147208123
G1 X6.31979695431472 Y15.936548223350254
G1 X6.477157360406092 Y15.873096446700508
G1 X6.609137055837564 Y15.784263959390863
G1 X6.715736040609137 Y15.6751269035533
G1 X6.7944162436548226 Y15.550761421319796
G1 X6.847715736040609 Y15.408629441624367
G1 X6.870558375634518 Y15.251269035532996
G1 X6.8604060913705585 Y15.081218274111674
G1 X6.817258883248732 Y14.906091370558377
G1 X6.733502538071066 Y14.730964467005077
G1 X6.616751269035533 Y14.565989847715738
G1 X6.461928934010153 Y14.411167512690355
G3 X6.238578680203045 Y13.878172588832488 I0.5279187817258884 J-0.5329949238578681
G3 X6.269035532994924 Y13.66751269035533 I0.748730964467005 J0
G1 X6.291878172588833 Y13.586294416243653
G1 X6.345177664974619 Y13.213197969543147
G3 X6.5126903553299496 Y12.84010152284264 I0.7411167512690355 J0.10913705583756345
G1 X6.743654822335026 Y12.568527918781726
G3 X7.007614213197969 Y12.368020304568528 I0.5736040609137056 J0.48223350253807107
G1 X7.312182741116752 Y12.228426395939087
G1 X7.383248730964467 Y12.18274111675127
G3 X8.152284263959391 Y12.15989847715736 I0.4035532994923858 J0.6319796954314721
G1 X8.342639593908629 Y12.269035532994923
G1 X8.535532994923859 Y12.335025380710661
G1 X8.725888324873097 Y12.365482233502538
G1 X8.906091370558375 Y12.357868020304569
G1 X9.071065989847716 Y12.32233502538071
G1 X9.215736040609137 Y12.256345177664976
G1 X9.33756345177665 Y12.164974619289339
G1 X9.436548223350254 Y12.053299492385786
G1 X9.51269035532995 Y11.921319796954315
G1 X9.560913705583756 Y11.771573604060915
G1 X9.576142131979696 Y11.601522842639593
G1 X9.560913705583756 Y11.421319796954315
G1 X9.50761421319797 Y11.236040609137056
G1 X9.418781725888325 Y11.053299492385786
G1 X9.289340101522843 Y10.875634517766496
G3 X9.144670050761421 Y10.434010152284262 I0.6065989847715736 J-0.4416243654822335
G3 X9.218274111675127 Y10.109137055837563 I0.748730964467005 J0
G1 X9.256345177664974 Y10.032994923857867
G1 X9.350253807106599 Y9.730964467005077
G3 X9.563451776649746 Y9.401015228426395 I0.7157360406091371 J0.22588832487309643
G1 X9.898477157360405 Y9.098984771573605
G3 X10.20304568527919 Y8.934010152284264 I0.5025380710659898 J0.5583756345177665
G1 X10.47969543147208 Y8.857868020304569
G1 X10.558375634517766 Y8.8248730964467
G3 X11.31979695431472 Y8.926395939086294 I0.2969543147208122 J0.6903553299492386
G1 X11.49238578680203 Y9.063451776649746
G1 X11.67005076142132 Y9.159898477157359
G1 X11.852791878172589 Y9.220812182741117
G1 X12.032994923857867 Y9.243654822335026
G1 X12.203045685279188 Y9.233502538071065
G1 X12.355329949238579 Y9.19035532994924
G1 X12.48984771573604 Y9.121827411167512
G1 X12.606598984771573 Y9.027918781725889
G1 X12.7005076142132 Y8.908629441624365
G1 X12.771573604060913 Y8.766497461928934
G1 X12.81725888324873 Y8.604060913705583
G1 X12.82994923857868 Y8.423857868020304
G1 X12.807106598984772 Y8.230964467005077
G1 X12.748730964467006 Y8.035532994923857
G1 X12.649746192893401 Y7.840101522842639
G3 X12.568527918781726 Y7.50253807106599 I0.6675126903553299 J-0.3401015228426396
G3 X12.70304568527919 Y7.073604060913706 I0.748730964467005 J0
G1 X12.751269035532996 Y7.00507614213198
G1 X12.875634517766496 Y6.753807106598985
G3 X13.126903553299492 Y6.469543147208122 I0.6700507614213198 J0.3375634517766497
G1 X13.538071065989847 Y6.192893401015228
G3 X13.878172588832488 Y6.068527918781726 I0.41878172588832485 J0.6218274111675127
G1 X14.147208121827411 Y6.040609137055838
G1 X14.228426395939087 Y6.020304568527919
G3 X14.964467005076143 Y6.241116751269036 I0.1802030456852792 J0.7284263959390863
G1 X15.114213197969544 Y6.403553299492386
G1 X15.274111675126905 Y6.527918781725889
G1 X15.444162436548224 Y6.616751269035533
G1 X15.619289340101524 Y6.6700507614213205
G1 X15.786802030456853 Y6.685279187817259
G1 X15.944162436548224 Y6.6700507614213205
G1 X16.088832487309645 Y6.621827411167512
G1 X16.218274111675125 Y6.5482233502538065
G1 X16.32994923857868 Y6.446700507614214
G1 X16.423857868020303 Y6.317258883248731
G1 X16.49492385786802 Y6.16243654822335
G1 X16.53553299492386 Y5.9873096446700504
G1 X16.545685279187815 Y5.794416243654822
G1 X16.51776649746193 Y5.593908629441624
G1 X16.451776649746193 Y5.383248730964468
G3 X16.416243654822335 Y5.15736040609137 I0.7157360406091371 J-0.22842639593908629
G3 X16.626903553299492 Y4.634517766497462 I0.748730964467005 J0
G1 X16.685279187817258 Y4.573604060913706
G1 X16.84517766497462 Y4.355329949238579
G3 X17.121827411167512 Y4.121827411167513 I0.6065989847715736 J0.4416243654822335
G1 X17.568527918781726 Y3.9060913705583755
G3 X17.939086294416246 Y3.8299492385786804 I0.3299492385786802 J0.6751269035532994
G1 X18.21827411167513 Y3.847715736040609
G1 X18.304568527918782 Y3.840101522842639
G3 X18.99492385786802 Y4.177664974619289 I0.06345177664974619 J0.7461928934010152
G1 X19.114213197969544 Y4.3604060913705585
G1 X19.253807106598984 Y4.51015228426396
G1 X19.408629441624367 Y4.624365482233502
G1 X19.571065989847718 Y4.7030456852791875
G1 X19.736040609137056 Y4.746192893401015
G1 X19.893401015228427 Y4.756345177664975
G1 X20.043147208121827 Y4.7335025380710665
G1 X20.182741116751266 Y4.680203045685279
G1 X20.30964467005076 Y4.598984771573605
G1 X20.423857868020306 Y4.4873096446700504
G1 X20.51776649746193 Y4.345177664974619
G1 X20.586294416243653 Y4.177664974619289
G1 X20.626903553299492 Y3.989847715736041
G1 X20.631979695431472 Y3.786802030456853
G1 X20.598984771573605 Y3.568527918781726
G3 X20.591370558375633 Y3.4593908629441623 I0.7411167512690355 J-0.10913705583756345
G3 X20.893401015228427 Y2.8578680203045685 I0.751269035532995 J0
G1 X20.95939086294416 Y2.8071065989847717
G1 X21.162436548223347 Y2.6065989847715736
G3 X21.45939086294416 Y2.4238578680203045 I0.5279187817258884 J0.5329949238578681
G1 X21.888324873096447 Y2.286802030456853
G3 X22.281725888324875 Y2.266497461928934 I0.23096446700507614 J0.7131979695431472
G1 X22.591370558375633 Y2.33502538071066
G1 X22.6751269035533 Y2.3426395939086295
G3 X23.30203045685279 Y2.786802030456853 I-0.05837563451776649 J0.748730964467005
G1 X23.39086294416244 Y2.987309644670051
G1 X23.50507614213198 Y3.1548223350253806
G1 X23.639593908629443 Y3.2944162436548226
G1 X23.786802030456855 Y3.3984771573604062
G1 X23.941624365482234 Y3.4670050761421316
G1 X24.096446700507613 Y3.5
G1 X24.248730964467008 Y3.50253807106599
G1 X24.39593908629442 Y3.472081218274112
G1 X24.532994923857867 Y3.411167512690355
G1 X24.66243654822335 Y3.3197969543147208
G1 X24.779187817258883 Y3.1954314720812182
G1 X24.873096446700508 Y3.0406091370558377
G1 X24.944162436548222 Y2.860406091370558
G1 X24.982233502538072 Y2.6624365482233503
G1 X24.984771573604057 Y2.4416243654822334
G3 X25.388324873096447 Y1.7868020304568528 I0.748730964467005 J0.010152284263959392
G1 X25.461928934010153 Y1.748730964467005
G1 X25.736040609137056 Y1.5532994923857868
G3 X26.04060913705584 Y1.4263959390862944 I0.4365482233502538 J0.6091370558375635
G1 X26.390862944162436 Y1.3629441624365481
G3 X26.7994923857868 Y1.4060913705583755 I0.12944162436548223 J0.7385786802030457
G1 X27.14720812182741 Y1.5431472081218276
G1 X27.230964467005077 Y1.5634517766497464
G3 X27.77918781725888 Y2.1040609137055837 I-0.17766497461928935 J0.7284263959390863
G1 X27.83248730964467 Y2.314720812182741
G1 X27.918781725888326 Y2.5
G1 X28.027918781725887 Y2.657360406091371
G1 X28.15736040609137 Y2.784263959390863
G1 X28.299492385786806 Y2.878172588832487
G1 X28.44670050761421 Y2.936548223350254
G1 X28.596446700507613 Y2.9619289340101522
G1 X28.746192893401016 Y2.956852791878173
G1 X28.893401015228427 Y2.9187817258883246
G1 X29.035532994923855 Y2.847715736040609
G1 X29.17005076142132 Y2.7436548223350252
G1 X29.289340101522843 Y2.6065989847715736
G1 X29.385786802030456 Y2.4416243654822334
G1 X29.45431472081218 Y2.251269035532995
G1 X29.492385786802032 Y2.032994923857868
G3 X29.99746192893401 Y1.4517766497461928 I0.7385786802030457 J0.12944162436548223
G1 X30.076142131979697 Y1.4263959390862944
G1 X30.446700507614214 Y1.2436548223350254
G3 X30.855329949238577 Y1.1700507614213198 I0.33248730964467005 J0.6725888324873096
G1 X31.14720812182741 Y1.2005076142131978
G3 X31.454314720812185 Y1.3020304568527918 I-0.07868020304568528 J0.7461928934010152
G1 X31.771573604060915 Y1.4949238578680202
G1 X31.850253807106597 Y1.5279187817258881
G3 X32.30456852791878 Y2.1472081218274113 I-0.2918781725888325 J0.6903553299492386
G1 X32.3248730964467 Y2.365482233502538
G1 X32.380710659898476 Y2.560913705583756
G1 X32.464467005076145 Y2.736040609137056
G1 X32.57106598984771 Y2.8807106598984773
G1 X32.69543147208122 Y2.99492385786802
G1 X32.83248730964467 Y3.0761421319796955
G1 X32.97715736040609 Y3.126903553299493
G1 X33.1243654822335 Y3.1446700507614214
G1 X33.2741116751269 Y3.1319796954314723
G1 X33.4263959390863 Y3.0837563451776653
G1 X33.576142131979694 Y3.00253807106599
G1 X33.71573604060914 Y2.8883248730964466
G1 X33.83756345177665 Y2.738578680203046
G1 X33.93654822335026 Y2.560913705583756
G1 X34.01015228426396 Y2.3553299492385786
G3 X34.598984771573605 Y1.8604060913705585 I0.7081218274111676 J0.24619289340101522
G1 X34.682741116751274 Y1.8477157360406091
G1 X35.01015228426396 Y1.7461928934010151
G3 X35.41370558375634 Y1.736040609137056 I0.22081218274111675 J0.7157360406091371
G1 X35.80964467005076 Y1.8350253807106598
G3 X36.111675126903556 Y1.9898477157360406 I-0.1802030456852792 J0.7284263959390863
G1 X36.345177664974614 Y2.1878172588832485
G1 X36.41878172588832 Y2.230964467005076
G3 X36.76903553299492 Y2.868020304568528 I-0.3984771573604061 J0.6345177664974619
G3 X36.766497461928935 Y2.916243654822335 I-0.751269035532995 J0
G1 X36.75126903553299 Y3.1370558375634516
G1 X36.7741116751269 Y3.3375634517766493
G1 X36.82994923857868 Y3.5228426395939088
G1 X36.911167512690355 Y3.6852791878172586
G1 X37.01776649746193 Y3.817258883248731
G1 X37.13705583756345 Y3.918781725888325
G1 X37.27157360406091 Y3.9923857868020307
G1 X37.41370558375635 Y4.032994923857868
G1 X37.565989847715734 Y4.043147208121828
G1 X37.72335025380711 Y4.022842639593909
G1 X37.88324873096447 Y3.967005076142132
G1 X38.04060913705584 Y3.8730964467005076
G1 X38.18527918781726 Y3.746192893401015
G1 X38.31218274111675 Y3.588832487309644
G1 X38.41624365482233 Y3.3959390862944163
G3 X39.076142131979694 Y3.00253807106599 I0.6598984771573604 J0.35786802030456855
G1 X39.162436548223354 Y3.00253807106599
G1 X39.454314720812185 Y2.9619289340101522
G3 X39.83756345177665 Y3.0101522842639596 I0.10152284263959391 J0.7436548223350253
G1 X40.28172588832487 Y3.190355329949239
G3 X40.57106598984771 Y3.3959390862944163 I-0.2817258883248731 J0.6954314720812182
G1 X40.74873096446701 Y3.604060913705584
G1 X40.81218274111676 Y3.659898477157361
G3 X41.065989847715734 Y4.223350253807107 I-0.49492385786802034 J0.5634517766497462
G3 X41.04822335025381 Y4.393401015228426 I-0.751269035532995 J0
G1 X40.997461928934015 Y4.606598984771574
G1 X40.98730964467005 Y4.809644670050762
G1 X41.01015228426397 Y5
G1 X41.065989847715734 Y5.1725888324873095
G1 X41.1497461928934 Y5.322335025380712
G1 X41.253807106598984 Y5.441624365482234
G1 X41.37309644670051 Y5.532994923857868
G1 X41.50761421319797 Y5.598984771573604
G1 X41.65482233502538 Y5.631979695431472
G1 X41.81472081218274 Y5.637055837563452
G1 X41.97969543147208 Y5.606598984771574
G1 X42.1497461928934 Y5.540609137055838
G1 X42.31218274111675 Y5.439086294416243
G1 X42.464467005076145 Y5.302030456852792
G1 X42.598984771573605 Y5.129441624365483
G3 X43.31472081218274 Y4.847715736040609 I0.5939086294416244 J0.4593908629441624
G1 X43.39847715736041 Y4.8604060913705585
G1 X43.66751269035533 Y4.868020304568528
G3 X44.0253807106599 Y4.967005076142132 I-0.017766497461928935 J0.748730964467005
G1 X44.45939086294416 Y5.218274111675127
G3 X44.7258883248731 Y5.477157360406092 I-0.3756345177664975 J0.6497461928934011
G1 X44.86802030456853 Y5.710659898477157
G1 X44.92131979695431 Y5.774111675126904
G3 X45.09137055837564 Y6.251269035532995 I-0.5786802030456852 J0.47715736040609136
G3 X45.035532994923855 Y6.535532994923859 I-0.751269035532995 J0
G1 X44.95177664974619 Y6.738578680203045
G1 X44.90862944162436 Y6.936548223350254
G1 X44.901015228426395 Y7.129441624365482
G1 X44.92893401015229 Y7.309644670050761
G1 X44.98730964467005 Y7.469543147208122
G1 X45.07106598984771 Y7.604060913705584
G1 X45.175126903553306 Y7.715736040609137
G1 X45.296954314720814 Y7.7994923857868015
G1 X45.43654822335025 Y7.8578680203045685
G1 X45.59390862944163 Y7.885786802030457
G1 X45.76142131979695 Y7.883248730964468
G1 X45.93908629441624 Y7.84517766497462
G1 X46.11675126903553 Y7.771573604060914
G1 X46.286802030456855 Y7.659898477157361
G1 X46.44923857868021 Y7.510152284263959
G3 X47.200507614213194 Y7.347715736040609 I0.5126903553299492 J0.5482233502538071
G1 X47.27918781725889 Y7.375634517766497
G1 X47.54822335025381 Y7.426395939086294
G3 X47.873096446700515 Y7.571065989847716 I-0.13705583756345177 J0.7360406091370558
G1 X48.24873096446701 Y7.865482233502537
G3 X48.48223350253807 Y8.175126903553299 I-0.4619289340101523 J0.5913705583756345
G1 X48.59390862944163 Y8.449238578680202
G1 X48.63705583756345 Y8.522842639593907
G3 X48.73857868020305 Y8.898477157360405 I-0.6497461928934011 J0.3756345177664975
G3 X48.62690355329949 Y9.291878172588833 I-0.751269035532995 J0
G1 X48.512690355329944 Y9.47715736040609
G1 X48.43908629441624 Y9.66751269035533
G1 X48.40101522842639 Y9.855329949238579
G1 X48.39847715736041 Y10.038071065989849
G1 X48.431472081218274 Y10.20304568527919
G1 X48.48984771573604 Y10.3502538071066
G1 X48.576142131979694 Y10.47715736040609
G1 X48.68274111675127 Y10.578680203045685
G1 X48.81218274111675 Y10.65989847715736
G1 X48.96192893401015 Y10.713197969543147
G1 X49.129441624365484 Y10.738578680203046
G1 X49.30964467005076 Y10.728426395939085
G1 X49.49746192893401 Y10.685279187817258
G1 X49.682741116751274 Y10.601522842639595
G1 X49.86548223350254 Y10.47969543147208
G3 X50.63451776649746 Y10.439086294416244 I0.41878172588832485 J0.6218274111675127
G1 X50.70812182741116 Y10.47969543147208
G1 X50.997461928934015 Y10.583756345177664
G3 X51.28172588832487 Y10.769035532994923 I-0.25380710659898476 J0.7055837563451777
G1 X51.565989847715734 Y11.063451776649746
G3 X51.756345177664976 Y11.416243654822335 I-0.5406091370558376 J0.5203045685279188
G1 X51.83502538071066 Y11.748730964467004
G1 X51.86548223350254 Y11.829949238578681
G3 X51.91370558375635 Y12.096446700507615 I-0.7005076142131981 J0.2690355329949239
G3 X51.73096446700508 Y12.586294416243655 I-0.751269035532995 J0
G1 X51.588832487309645 Y12.753807106598984
G1 X51.484771573604064 Y12.926395939086294
G1 X51.41878172588832 Y13.109137055837563
G1 X51.38578680203046 Y13.286802030456853
G1 X51.39086294416244 Y13.456852791878173
G1 X51.4263959390863 Y13.611675126903553
G1 X51.48984771573603 Y13.748730964467004
G1 X51.578680203045685 Y13.868020304568526
G1 X51.692893401015226 Y13.967005076142131
G1 X51.83248730964466 Y14.043147208121827
G1 X51.99492385786802 Y14.096446700507615
G1 X52.175126903553306 Y14.116751269035532
G1 X52.36802030456853 Y14.101522842639593
G1 X52.56345177664975 Y14.050761421319798
G1 X52.76395939086294 Y13.959390862944163
G3 X53.52791878172589 Y14.043147208121827 I0.31218274111675126 J0.6827411167512689
G1 X53.59644670050762 Y14.093908629441625
G1 X53.921319796954315 Y14.274111675126903
G3 X54.16243654822335 Y14.489847715736042 I-0.3654822335025381 J0.6548223350253807
G1 X54.33502538071066 Y14.723350253807105
G3 X54.474619289340104 Y15.116751269035532 I-0.6065989847715736 J0.4416243654822335
G1 X54.50253807106599 Y15.527918781725889
G1 X54.52030456852792 Y15.611675126903553
G3 X54.535532994923855 Y15.763959390862945 I-0.7335025380710659 J0.15228426395939088
G3 X54.266497461928935 Y16.33756345177665 I-0.751269035532995 J0
G1 X54.09898477157361 Y16.47969543147208
G1 X53.96954314720812 Y16.63451776649746
G1 X53.87309644670051 Y16.80203045685279
G1 X53.81472081218274 Y16.972081218274113
G1 X53.79187817258884 Y17.14213197969543
G1 X53.80203045685279 Y17.299492385786802
G1 X53.84263959390863 Y17.446700507614214
G1 X53.911167512690355 Y17.578680203045685
G1 X54.00761421319797 Y17.69289340101523
G1 X54.131979695431475 Y17.791878172588834
G1 X54.284263959390856 Y17.868020304568528
G1 X54.45939086294416 Y17.918781725888323
G1 X54.65228426395939 Y17.934010152284262
G1 X54.85279187817259 Y17.916243654822335
G1 X55.06345177664975 Y17.85786802030457
G3 X55.804568527918775 Y18.060913705583758 I0.1979695431472081 J0.7233502538071066
G1 X55.86548223350253 Y18.1243654822335
G1 X56.159898477157356 Y18.35532994923858
G3 X56.398477157360404 Y18.68781725888325 I-0.46446700507614214 J0.5888324873096447
G1 X56.52030456852792 Y19.022842639593907
G3 X56.565989847715734 Y19.279187817258883 I-0.7055837563451777 J0.2563451776649746
G3 X56.56345177664974 Y19.35279187817259 I-0.751269035532995 J0
G1 X56.53045685279188 Y19.685279187817258
G1 X56.53299492385787 Y19.769035532994923
G3 X56.53553299492386 Y19.802030456852794 I-0.748730964467005 J0.03299492385786802
G3 X56.16751269035533 Y20.446700507614214 I-0.751269035532995 J0
G1 X55.97969543147208 Y20.558375634517766
G1 X55.8248730964467 Y20.690355329949238
G1 X55.70558375634518 Y20.84263959390863
G1 X55.61928934010152 Y21.002538071065988
G1 X55.568527918781726 Y21.162436548223347
G1 X55.55329949238579 Y21.32233502538071
G1 X55.57106598984771 Y21.472081218274113
G1 X55.61675126903553 Y21.614213197969544
G1 X55.69543147208122 Y21.743654822335024
G1 X55.8020304568528 Y21.860406091370557
G1 X55.93908629441624 Y21.961928934010153
G1 X56.10406091370558 Y22.038071065989847
G1 X56.29187817258884 Y22.083756345177665
G1 X56.49238578680203 Y22.0989847715736
G1 X56.710659898477154 Y22.07360406091371
G3 X57.411167512690355 Y22.395939086294415 I0.08121827411167513 J0.7461928934010152
G1 X57.45939086294416 Y22.46700507614213
G1 X57.67258883248731 Y22.700507614213198
G3 X57.85279187817259 Y23.050761421319798 I-0.5532994923857868 J0.5076142131979695
G1 X57.94670050761422 Y23.48984771573604
G3 X57.961928934010146 Y23.64467005076142 I-0.7335025380710659 J0.15482233502538073
G3 X57.93654822335025 Y23.837563451776653 I-0.751269035532995 J0
G1 X57.86548223350253 Y24.114213197969544
G1 X57.85532994923858 Y24.19796954314721
G3 X57.38578680203045 Y24.80710659898477 I-0.7436548223350253 J-0.08883248730964467
G1 X57.180203045685275 Y24.888324873096444
G1 X57.00761421319797 Y24.99492385786802
G1 X56.86548223350254 Y25.121827411167512
G1 X56.753807106598984 Y25.266497461928935
G1 X56.68020304568528 Y25.418781725888326
G1 X56.639593908629436 Y25.571065989847718
G1 X56.631979695431475 Y25.723350253807105
G1 X56.65482233502538 Y25.870558375634516
G1 X56.710659898477154 Y26.01269035532995
G1 X56.79695431472081 Y26.14467005076142
G1 X56.91624365482234 Y26.263959390862944
G1 X57.065989847715734 Y26.368020304568528
G1 X57.243654822335024 Y26.444162436548222
G1 X57.441624365482234 Y26.48984771573604
G1 X57.65989847715736 Y26.50253807106599
G1 Z-0.6 F125
G3 X58.299492385786806 Y26.931472081218274 I-0.04060913705583757 J0.748730964467005 F125
G1 X58.33502538071066 Y27.007614213197968
G1 X58.48730964467005 Y27.241116751269033
G3 X58.60913705583756 Y27.601522842639593 I-0.6269035532994924 J0.4111675126903553
G1 X58.64467005076143 Y28.096446700507617
G3 X58.64467005076143 Y28.14720812182741 I-0.748730964467005 J0.053299492385786795
G3 X58.58121827411168 Y28.451776649746193 I-0.751269035532995 J0
G1 X58.47208121827411 Y28.700507614213198
G1 X58.44670050761422 Y28.781725888324875
G3 X57.88578680203046 Y29.30710659898477 I-0.7208121827411168 J-0.2081218274111675
G1 X57.67258883248731 Y29.35279187817259
G1 X57.48477157360406 Y29.431472081218274
G1 X57.32233502538071 Y29.53553299492386
G1 X57.190355329949234 Y29.659898477157363
G1 X57.09137055837563 Y29.79695431472081
G1 X57.027918781725894 Y29.941624365482234
G1 X56.99492385786802 Y30.091370558375633
G1 X56.99492385786802 Y30.238578680203045
G1 X57.027918781725894 Y30.388324873096447
G1 X57.09137055837563 Y30.532994923857867
G1 X57.190355329949234 Y30.670050761421322
G1 X57.32233502538071 Y30.794416243654823
G1 X57.48477157360406 Y30.898477157360404
G1 X57.67258883248731 Y30.977157360406093
G1 X57.88578680203046 Y31.022842639593907
G3 X58.44670050761422 Y31.548223350253807 I-0.1598984771573604 J0.7335025380710659
G1 X58.47208121827411 Y31.629441624365484
G1 X58.58121827411168 Y31.8756345177665
G3 X58.64467005076143 Y32.182741116751274 I-0.6852791878172588 J0.30456852791878175
G3 X58.64467005076143 Y32.233502538071065 I-0.751269035532995 J0
G1 X58.60913705583756 Y32.72842639593909
G3 X58.48730964467005 Y33.088832487309645 I-0.748730964467005 J-0.053299492385786795
G1 X58.33502538071066 Y33.32233502538071
G1 X58.299492385786806 Y33.398477157360404
G3 X57.65989847715736 Y33.827411167512686 I-0.6802030456852792 J-0.31725888324873097
G1 X57.441624365482234 Y33.84010152284264
G1 X57.243654822335024 Y33.88578680203046
G1 X57.065989847715734 Y33.96192893401015
G1 X56.91624365482234 Y34.06345177664975
G1 X56.79695431472081 Y34.18527918781726
G1 X56.710659898477154 Y34.317258883248726
G1 X56.65482233502538 Y34.45939086294416
G1 X56.631979695431475 Y34.60659898477157
G1 X56.639593908629436 Y34.75888324873096
G1 X56.68020304568528 Y34.911167512690355
G1 X56.753807106598984 Y35.06345177664975
G1 X56.86548223350254 Y35.20812182741117
G1 X57.00761421319797 Y35.33502538071066
G1 X57.180203045685275 Y35.441624365482234
G1 X57.38578680203045 Y35.52284263959391
G3 X57.85532994923858 Y36.13197969543147 I-0.2766497461928934 J0.6979695431472082
G1 X57.86548223350253 Y36.21573604060914
G1 X57.93654822335025 Y36.49238578680203
G3 X57.961928934010146 Y36.68274111675127 I-0.7258883248730964 J0.1903553299492386
G3 X57.94670050761422 Y36.840101522842644 I-0.751269035532995 J0
G1 X57.85279187817259 Y37.27918781725889
G3 X57.67258883248731 Y37.63197969543147 I-0.7335025380710659 J-0.15482233502538073
G1 X57.45939086294416 Y37.86294416243655
G1 X57.411167512690355 Y37.934010152284266
G3 X56.710659898477154 Y38.256345177664976 I-0.6192893401015229 J-0.42385786802030456
G1 X56.49238578680203 Y38.23096446700508
G1 X56.29187817258884 Y38.246192893401016
G1 X56.10406091370558 Y38.29187817258883
G1 X55.93908629441624 Y38.368020304568525
G1 X55.8020304568528 Y38.46954314720812
G1 X55.69543147208122 Y38.58629441624365
G1 X55.61675126903553 Y38.71573604060914
G1 X55.57106598984771 Y38.857868020304565
G1 X55.55329949238579 Y39.00761421319797
G1 X55.568527918781726 Y39.16751269035533
G1 X55.61928934010152 Y39.32741116751269
G1 X55.70558375634518 Y39.48730964467005
G1 X55.8248730964467 Y39.63959390862944
G1 X55.97969543147208 Y39.77157360406091
G1 X56.16751269035533 Y39.88324873096447
G3 X56.53553299492386 Y40.52791878172589 I-0.383248730964467 J0.6446700507614213
G3 X56.53299492385787 Y40.56091370558376 I-0.751269035532995 J0
G1 X56.53045685279188 Y40.64467005076142
G1 X56.56345177664974 Y40.97715736040609
G3 X56.565989847715734 Y41.05076142131979 I-0.7461928934010152 J0.07360406091370558
G3 X56.52030456852792 Y41.30710659898477 I-0.751269035532995 J0
G1 X56.398477157360404 Y41.642131979695435
G3 X56.15736040609137 Y41.974619289340104 I-0.7055837563451777 J-0.2563451776649746
G1 X55.86548223350253 Y42.20558375634518
G1 X55.804568527918775 Y42.26903553299493
G3 X55.06598984771574 Y42.47208121827411 I-0.5406091370558376 J-0.5177664974619289
G1 X54.85279187817259 Y42.41370558375635
G1 X54.65228426395939 Y42.39593908629441
G1 X54.45939086294416 Y42.411167512690355
G1 X54.284263959390856 Y42.46192893401015
G1 X54.13451776649747 Y42.53807106598985
G1 X54.00761421319797 Y42.63705583756345
G1 X53.911167512690355 Y42.75126903553299
G1 X53.84263959390863 Y42.88324873096447
G1 X53.80203045685279 Y43.03045685279188
G1 X53.79187817258884 Y43.18781725888325
G1 X53.81472081218274 Y43.35532994923858
G1 X53.87309644670051 Y43.52791878172589
G1 X53.96954314720812 Y43.69543147208121
G1 X54.09898477157361 Y43.8502538071066
G1 X54.266497461928935 Y43.99238578680203
G3 X54.535532994923855 Y44.565989847715734 I-0.48223350253807107 J0.5736040609137056
G3 X54.52030456852792 Y44.71827411167513 I-0.751269035532995 J0
G1 X54.50253807106599 Y44.80203045685279
G1 X54.474619289340104 Y45.21319796954315
G3 X54.33502538071066 Y45.60406091370559 I-0.748730964467005 J-0.04822335025380711
G1 X54.16243654822335 Y45.84010152284264
G3 X53.921319796954315 Y46.055837563451774 I-0.6065989847715736 J-0.4416243654822335
G1 X53.59390862944163 Y46.236040609137056
G1 X53.52791878172589 Y46.286802030456855
G3 X52.76395939086294 Y46.370558375634516 I-0.45177664974619286 J-0.5989847715736041
G1 X52.56345177664975 Y46.27918781725889
G1 X52.36802030456853 Y46.22842639593909
G1 X52.175126903553306 Y46.213197969543145
G1 X51.99492385786802 Y46.233502538071065
G1 X51.83248730964466 Y46.286802030456855
G1 X51.692893401015226 Y46.36294416243655
G1 X51.578680203045685 Y46.46192893401015
G1 X51.48984771573603 Y46.58121827411168
G1 X51.4263959390863 Y46.71827411167513
G1 X51.39086294416244 Y46.87309644670051
G1 X51.38578680203046 Y47.04314720812182
G1 X51.41878172588832 Y47.22081218274112
G1 X51.484771573604064 Y47.40355329949239
G1 X51.588832487309645 Y47.576142131979694
G1 X51.73096446700508 Y47.743654822335024
G3 X51.91370558375635 Y48.233502538071065 I-0.5685279187817259 J0.48984771573604063
G3 X51.86548223350254 Y48.5 I-0.751269035532995 J0
G1 X51.83502538071066 Y48.578680203045685
G1 X51.756345177664976 Y48.91370558375635
G3 X51.565989847715734 Y49.266497461928935 I-0.7309644670050762 J-0.16751269035532995
G1 X51.28172588832487 Y49.56091370558376
G3 X50.997461928934015 Y49.746192893401016 I-0.5406091370558376 J-0.5203045685279188
G1 X50.70812182741116 Y49.8502538071066
G1 X50.63451776649746 Y49.890862944162436
G3 X49.86548223350254 Y49.8502538071066 I-0.35025380710659904 J-0.6624365482233502
G1 X49.682741116751274 Y49.72842639593908
G1 X49.49746192893401 Y49.64467005076142
G1 X49.30964467005076 Y49.601522842639596
G1 X49.129441624365484 Y49.59137055837563
G1 X48.96192893401015 Y49.61675126903553
G1 X48.81218274111675 Y49.67005076142132
G1 X48.68274111675127 Y49.74873096446701
G1 X48.576142131979694 Y49.85279187817259
G1 X48.48984771573604 Y49.97969543147208
G1 X48.431472081218274 Y50.1269035532995
G1 X48.39847715736041 Y50.29187817258883
G1 X48.40101522842639 Y50.4746192893401
G1 X48.43908629441624 Y50.662436548223354
G1 X48.512690355329944 Y50.85279187817258
G1 X48.62690355329949 Y51.03807106598985
G3 X48.73857868020305 Y51.431472081218274 I-0.6395939086294417 J0.3934010152284264
G3 X48.63705583756345 Y51.807106598984774 I-0.751269035532995 J0
G1 X48.59390862944163 Y51.88071065989848
G1 X48.48223350253807 Y52.15482233502538
G3 X48.251269035533 Y52.46192893401015 I-0.6954314720812182 J-0.2817258883248731
G1 X47.873096446700515 Y52.75888324873097
G3 X47.54822335025381 Y52.90355329949239 I-0.4619289340101523 J-0.5913705583756345
G1 X47.27918781725889 Y52.954314720812185
G1 X47.200507614213194 Y52.98223350253807
G3 X46.44923857868021 Y52.819796954314725 I-0.23857868020304568 J-0.7106598984771574
G1 X46.286802030456855 Y52.67005076142132
G1 X46.11675126903553 Y52.558375634517766
G1 X45.93908629441624 Y52.48477157360406
G1 X45.76142131979695 Y52.44670050761421
G1 X45.59137055837564 Y52.444162436548226
G1 X45.43654822335025 Y52.47208121827411
G1 X45.296954314720814 Y52.530456852791886
G1 X45.17258883248731 Y52.61421319796955
G1 X45.07106598984771 Y52.7258883248731
G1 X44.98730964467005 Y52.860406091370564
G1 X44.92893401015229 Y53.02030456852792
G1 X44.901015228426395 Y53.2005076142132
G1 X44.90862944162436 Y53.39340101522843
G1 X44.95177664974619 Y53.59137055837564
G1 X45.035532994923855 Y53.79441624365482
G3 X45.09137055837564 Y54.078680203045685 I-0.6928934010152283 J0.28426395939086296
G3 X44.92131979695431 Y54.55329949238578 I-0.751269035532995 J0
G1 X44.86802030456853 Y54.619289340101524
G1 X44.7258883248731 Y54.85279187817259
G3 X44.45939086294416 Y55.111675126903556 I-0.6395939086294417 J-0.3908629441624366
G1 X44.0253807106599 Y55.360406091370564
G3 X43.66751269035533 Y55.461928934010146 I-0.3756345177664975 J-0.6497461928934011
G1 X43.39593908629442 Y55.46954314720813
G1 X43.31218274111676 Y55.48223350253807
G3 X42.598984771573605 Y55.2005076142132 I-0.1218274111675127 J-0.7411167512690355
G1 X42.464467005076145 Y55.02791878172589
G1 X42.31218274111675 Y54.890862944162436
G1 X42.1497461928934 Y54.78934010152284
G1 X41.97969543147208 Y54.72335025380711
G1 X41.81472081218274 Y54.692893401015226
G1 X41.65482233502538 Y54.69796954314721
G1 X41.50761421319797 Y54.73096446700508
G1 X41.37309644670051 Y54.79441624365482
G1 X41.253807106598984 Y54.888324873096444
G1 X41.1497461928934 Y55.00761421319797
G1 X41.065989847715734 Y55.15736040609137
G1 X41.01015228426397 Y55.32994923857868
G1 X40.98730964467005 Y55.52030456852792
G1 X40.997461928934015 Y55.723350253807105
G1 X41.04822335025381 Y55.93654822335026
G3 X41.065989847715734 Y56.10659898477158 I-0.7309644670050762 J0.1700507614213198
G3 X40.81218274111676 Y56.67005076142132 I-0.751269035532995 J0
G1 X40.74873096446701 Y56.7258883248731
G1 X40.57106598984771 Y56.93401015228426
G3 X40.28172588832487 Y57.139593908629436 I-0.5685279187817259 J-0.4873096446700508
G1 X39.83756345177665 Y57.319796954314725
G3 X39.454314720812185 Y57.36802030456853 I-0.2817258883248731 J-0.6954314720812182
G1 X39.162436548223354 Y57.32741116751269
G1 X39.076142131979694 Y57.32741116751269
G3 X38.41624365482233 Y56.93401015228426 I-0.002538071065989848 J-0.748730964467005
G1 X38.31218274111675 Y56.74111675126903
G1 X38.18527918781726 Y56.58375634517767
G1 X38.03807106598985 Y56.45685279187817
G1 X37.88324873096447 Y56.36294416243655
G1 X37.72335025380711 Y56.30710659898477
G1 X37.565989847715734 Y56.286802030456855
G1 X37.41370558375635 Y56.29695431472081
G1 X37.27157360406091 Y56.33756345177665
G1 X37.13705583756345 Y56.411167512690355
G1 X37.01776649746193 Y56.51269035532995
G1 X36.911167512690355 Y56.64467005076142
G1 X36.82994923857868 Y56.807106598984774
G1 X36.7741116751269 Y56.992385786802025
G1 X36.75126903553299 Y57.192893401015226
G1 X36.766497461928935 Y57.411167512690355
G3 X36.76903553299492 Y57.46192893401015 I-0.748730964467005 J0.050761421319796954
G3 X36.41878172588832 Y58.09644670050761 I-0.751269035532995 J0
G1 X36.345177664974614 Y58.142131979695435
G1 X36.111675126903556 Y58.34010152284264
G3 X35.80964467005076 Y58.494923857868024 I-0.4847715736040609 J-0.5736040609137056
G1 X35.411167512690355 Y58.59390862944163
G3 X35.01015228426396 Y58.58375634517767 I-0.1802030456852792 J-0.7284263959390863
G1 X34.682741116751274 Y58.48223350253807
G1 X34.598984771573605 Y58.46954314720812
G3 X34.01015228426396 Y57.9746192893401 I0.11675126903553298 J-0.7411167512690355
G1 X33.93654822335026 Y57.76903553299492
G1 X33.83756345177665 Y57.59137055837564
G1 X33.71573604060914 Y57.441624365482234
G1 X33.576142131979694 Y57.32741116751269
G1 X33.4263959390863 Y57.246192893401016
G1 X33.2741116751269 Y57.19796954314721
G1 X33.1243654822335 Y57.18527918781726
G1 X32.974619289340104 Y57.203045685279186
G1 X32.83248730964467 Y57.25126903553299
G1 X32.69543147208122 Y57.335025380710654
G1 X32.57106598984771 Y57.4492385786802
G1 X32.464467005076145 Y57.59390862944162
G1 X32.380710659898476 Y57.76903553299492
G1 X32.3248730964467 Y57.964467005076145
G1 X32.30456852791878 Y58.18274111675127
G3 X31.850253807106597 Y58.80203045685279 I-0.7461928934010152 J-0.07106598984771574
G1 X31.771573604060915 Y58.83502538071066
G1 X31.454314720812185 Y59.02791878172589
G3 X31.14720812182741 Y59.129441624365484 I-0.3857868020304569 J-0.6446700507614213
G1 X30.85786802030457 Y59.15989847715736
G3 X30.446700507614214 Y59.08629441624366 I-0.07868020304568528 J-0.7461928934010152
G1 X30.076142131979697 Y58.90355329949238
G1 X29.99746192893401 Y58.87817258883249
G3 X29.492385786802032 Y58.29441624365482 I0.23604060913705582 J-0.7131979695431472
G1 X29.45431472081218 Y58.078680203045685
G1 X29.385786802030456 Y57.888324873096444
G1 X29.289340101522843 Y57.72081218274111
G1 X29.17005076142132 Y57.58629441624365
G1 X29.035532994923855 Y57.482233502538065
G1 X28.893401015228427 Y57.411167512690355
G1 X28.746192893401016 Y57.3730964467005
G1 X28.596446700507613 Y57.36802030456853
G1 X28.44670050761421 Y57.39340101522843
G1 X28.299492385786806 Y57.45177664974619
G1 X28.15989847715736 Y57.545685279187815
G1 X28.027918781725887 Y57.67258883248731
G1 X27.918781725888326 Y57.82994923857868
G1 X27.83248730964467 Y58.015228426395936
G1 X27.77918781725888 Y58.2258883248731
G3 X27.230964467005077 Y58.766497461928935 I-0.7258883248730964 J-0.1903553299492386
G1 X27.14720812182741 Y58.786802030456855
G1 X26.7994923857868 Y58.923857868020306
G3 X26.393401015228427 Y58.96700507614213 I-0.2766497461928934 J-0.6979695431472082
G1 X26.04060913705584 Y58.90355329949238
G3 X25.736040609137056 Y58.776649746192895 I0.12944162436548223 J-0.7385786802030457
G1 X25.461928934010153 Y58.58121827411168
G1 X25.388324873096447 Y58.54314720812183
G3 X24.984771573604057 Y57.888324873096444 I0.3477157360406091 J-0.6649746192893401
G1 X24.982233502538072 Y57.66751269035532
G1 X24.944162436548222 Y57.469543147208114
G1 X24.873096446700508 Y57.28934010152284
G1 X24.779187817258883 Y57.13451776649747
G1 X24.66243654822335 Y57.01015228426396
G1 X24.532994923857867 Y56.91878172588832
G1 X24.39593908629442 Y56.857868020304565
G1 X24.248730964467008 Y56.82741116751269
G1 X24.096446700507613 Y56.829949238578685
G1 X23.941624365482234 Y56.86294416243655
G1 X23.786802030456855 Y56.931472081218274
G1 X23.639593908629443 Y57.035532994923855
G1 X23.50507614213198 Y57.175126903553306
G1 X23.39086294416244 Y57.34263959390863
G1 X23.30203045685279 Y57.54314720812182
G3 X22.6751269035533 Y57.98730964467005 I-0.6852791878172588 J-0.3020304568527919
G1 X22.591370558375633 Y57.994923857868024
G1 X22.281725888324875 Y58.06345177664974
G3 X21.888324873096447 Y58.04314720812183 I-0.16243654822335027 J-0.7335025380710659
G1 X21.45939086294416 Y57.90355329949239
G3 X21.162436548223347 Y57.72335025380711 I0.23096446700507614 J-0.7131979695431472
G1 X20.961928934010153 Y57.522842639593904
G1 X20.893401015228427 Y57.47208121827411
G3 X20.591370558375633 Y56.870558375634516 I0.4467005076142132 J-0.6015228426395939
G3 X20.598984771573605 Y56.76142131979695 I0.751269035532995 J0
G1 X20.631979695431472 Y56.54314720812182
G1 X20.626903553299492 Y56.340101522842644
G1 X20.586294416243653 Y56.15228426395939
G1 X20.51776649746193 Y55.984771573604064
G1 X20.423857868020306 Y55.84263959390863
G1 X20.30964467005076 Y55.73096446700507
G1 X20.182741116751266 Y55.6497461928934
G1 X20.043147208121827 Y55.59644670050761
G1 X19.893401015228427 Y55.5736040609137
G1 X19.736040609137056 Y55.58375634517766
G1 X19.571065989847718 Y55.62690355329949
G1 X19.408629441624367 Y55.70558375634518
G1 X19.253807106598984 Y55.81979695431472
G1 X19.114213197969544 Y55.96954314720812
G1 X18.99492385786802 Y56.15228426395939
G3 X18.304568527918782 Y56.48984771573603 I-0.6294416243654822 J-0.4086294416243655
G1 X18.21827411167513 Y56.48223350253807
G1 X17.939086294416246 Y56.5
G3 X17.568527918781726 Y56.423857868020306 I-0.043147208121827416 J-0.748730964467005
G1 X17.121827411167512 Y56.20558375634518
G3 X16.84517766497462 Y55.9746192893401 I0.3299492385786802 J-0.6751269035532994
G1 X16.685279187817258 Y55.75634517766497
G1 X16.626903553299492 Y55.69543147208122
G3 X16.416243654822335 Y55.17258883248731 I0.5380710659898478 J-0.5228426395939086
G3 X16.451776649746193 Y54.94670050761421 I0.748730964467005 J0
G1 X16.51776649746193 Y54.73604060913706
G1 X16.545685279187815 Y54.535532994923855
G1 X16.53553299492386 Y54.34263959390863
G1 X16.49492385786802 Y54.16751269035533
G1 X16.423857868020303 Y54.01269035532995
G1 X16.32994923857868 Y53.88324873096447
G1 X16.218274111675125 Y53.78172588832487
G1 X16.088832487309645 Y53.70812182741116
G1 X15.946700507614214 Y53.659898477157356
G1 X15.786802030456853 Y53.64467005076143
G1 X15.619289340101524 Y53.659898477157356
G1 X15.444162436548224 Y53.713197969543145
G1 X15.274111675126905 Y53.80203045685279
G1 X15.111675126903554 Y53.9263959390863
G1 X14.964467005076143 Y54.088832487309645
G3 X14.228426395939087 Y54.30964467005076 I-0.5532994923857868 J-0.5050761421319797
G1 X14.147208121827411 Y54.28934010152284
G1 X13.878172588832488 Y54.26142131979695
G3 X13.538071065989847 Y54.13705583756345 I0.07868020304568528 J-0.7461928934010152
G1 X13.126903553299492 Y53.86040609137056
G3 X12.875634517766496 Y53.576142131979694 I0.41878172588832485 J-0.6218274111675127
G1 X12.751269035532996 Y53.3248730964467
G1 X12.7005076142132 Y53.25634517766497
G3 X12.568527918781726 Y52.827411167512686 I0.616751269035533 J-0.42639593908629436
G3 X12.649746192893401 Y52.48984771573604 I0.748730964467005 J0
G1 X12.748730964467006 Y52.29187817258883
G1 X12.807106598984772 Y52.098984771573605
G1 X12.82994923857868 Y51.90609137055837
G1 X12.81725888324873 Y51.7258883248731
G1 X12.771573604060913 Y51.56345177664974
G1 X12.7005076142132 Y51.421319796954315
G1 X12.606598984771573 Y51.30203045685279
G1 X12.48984771573604 Y51.20812182741116
G1 X12.355329949238579 Y51.13959390862944
G1 X12.203045685279188 Y51.09644670050762
G1 X12.032994923857867 Y51.08629441624365
G1 X11.852791878172589 Y51.10913705583756
G1 X11.67005076142132 Y51.17005076142132
G1 X11.49238578680203 Y51.266497461928935
G1 X11.31979695431472 Y51.40355329949238
G3 X10.555837563451778 Y51.505076142131976 I-0.46700507614213194 J-0.5862944162436547
G1 X10.47969543147208 Y51.47208121827411
G1 X10.20304568527919 Y51.39593908629442
G3 X9.898477157360405 Y51.23096446700508 I0.1979695431472081 J-0.7233502538071066
G1 X9.563451776649746 Y50.92893401015228
G3 X9.350253807106599 Y50.598984771573605 I0.5025380710659898 J-0.5583756345177665
G1 X9.256345177664974 Y50.296954314720814
G1 X9.218274111675127 Y50.22081218274111
G3 X9.144670050761421 Y49.89593908629441 I0.6776649746192893 J-0.3223350253807106
G3 X9.289340101522843 Y49.454314720812185 I0.748730964467005 J0
G1 X9.418781725888325 Y49.276649746192895
G1 X9.50761421319797 Y49.09390862944163
G1 X9.560913705583756 Y48.90862944162436
G1 X9.576142131979696 Y48.72842639593909
G1 X9.560913705583756 Y48.55837563451777
G1 X9.51269035532995 Y48.40862944162437
G1 X9.436548223350254 Y48.276649746192895
G1 X9.33756345177665 Y48.16497461928934
G1 X9.215736040609137 Y48.0736040609137
G1 X9.071065989847716 Y48.007614213197975
G1 X8.906091370558375 Y47.972081218274106
G1 X8.725888324873097 Y47.964467005076145
G1 X8.535532994923859 Y47.994923857868024
G1 X8.342639593908629 Y48.06091370558376
G1 X8.152284263959391 Y48.16751269035534
G3 X7.383248730964467 Y48.14720812182741 I-0.3654822335025381 J-0.6548223350253807
G1 X7.312182741116752 Y48.101522842639596
G1 X7.007614213197969 Y47.961928934010146
G3 X6.743654822335026 Y47.76142131979696 I0.30964467005076146 J-0.6827411167512689
G1 X6.5126903553299496 Y47.48984771573604
G3 X6.345177664974619 Y47.11421319796954 I0.5736040609137056 J-0.48223350253807107
G1 X6.291878172588833 Y46.74365482233503
G1 X6.269035532994924 Y46.66243654822335
G3 X6.238578680203045 Y46.45177664974619 I0.7208121827411168 J-0.21065989847715735
G3 X6.461928934010153 Y45.91878172588832 I0.748730964467005 J0
G1 X6.616751269035533 Y45.76395939086295
G1 X6.733502538071066 Y45.598984771573605
G1 X6.817258883248732 Y45.4238578680203
G1 X6.8604060913705585 Y45.24873096446701
G1 X6.870558375634518 Y45.07868020304569
G1 X6.847715736040609 Y44.92131979695431
G1 X6.7944162436548226 Y44.77918781725889
G1 X6.715736040609137 Y44.65482233502538
G1 X6.609137055837564 Y44.545685279187815
G1 X6.477157360406092 Y44.45685279187817
G1 X6.31979695431472 Y44.39340101522842
G1 X6.1421319796954315 Y44.36040609137056
G1 X5.949238578680203 Y44.357868020304565
G1 X5.748730964467005 Y44.39340101522842
G1 X5.543147208121827 Y44.46700507614213
G3 X4.789340101522843 Y44.3248730964467 I-0.2563451776649746 J-0.7055837563451777
G1 X4.725888324873097 Y44.266497461928935
G1 X4.383248730964467 Y44.03807106598984
G3 X4.114213197969542 Y43.72081218274111 I0.416243654822335 J-0.6243654822335025
G1 X3.99492385786802 Y43.45431472081218
G3 X3.9289340101522843 Y43.14720812182741 I0.6852791878172588 J-0.30456852791878175
G1 X3.9289340101522843 Y43.13705583756345
G1 X3.9365482233502536 Y42.76395939086294
G1 X3.9263959390862944 Y42.680203045685275
G3 X3.918781725888325 Y42.588832487309645 I0.7436548223350253 J-0.09137055837563453
G3 X4.2360406091370555 Y41.977157360406096 I0.751269035532995 J0
G1 X4.413705583756345 Y41.8502538071066
G1 X4.555837563451776 Y41.70558375634518
G1 X4.66497461928934 Y41.54568527918782
G1 X4.738578680203045 Y41.37817258883249
G1 X4.774111675126903 Y41.213197969543145
G1 X4.776649746192893 Y41.05329949238579
G1 X4.748730964467005 Y40.90609137055837
G1 X4.690355329949238 Y40.76903553299492
G1 X4.601522842639594 Y40.64467005076142
G1 X4.4873096446700504 Y40.535532994923855
G1 X4.342639593908629 Y40.4492385786802
G1 X4.1725888324873095 Y40.38578680203046
G1 X3.982233502538071 Y40.35279187817259
G1 X3.779187817258883 Y40.35532994923858
G1 X3.5634517766497464 Y40.39593908629442
G3 X2.8401015228426396 Y40.13197969543147 I-0.13959390862944163 J-0.7360406091370558
G1 X2.786802030456853 Y40.06598984771574
G1 X2.535532994923858 Y39.83248730964467
G3 X2.3248730964467006 Y39.48984771573604 I0.5101522842639594 J-0.5482233502538071
G1 X2.213197969543147 Y39.09644670050761
G3 X2.182741116751269 Y38.890862944162436 I0.7208121827411168 J-0.20558375634517764
G3 X2.1954314720812182 Y38.75888324873097 I0.751269035532995 J0
G1 X2.248730964467005 Y38.45685279187818
G1 X2.253807106598985 Y38.37309644670051
G3 X2.67258883248731 Y37.72842639593909 I0.748730964467005 J0.027918781725888325
G1 X2.868020304568528 Y37.629441624365484
G1 X3.032994923857868 Y37.51015228426396
G1 X3.16497461928934 Y37.370558375634516
G1 X3.2639593908629445 Y37.21827411167513
G1 X3.3248730964467006 Y37.06091370558376
G1 X3.352791878172589 Y36.90355329949239
G1 X3.350253807106599 Y36.753807106598984
G1 X3.314720812182741 Y36.609137055837564
G1 X3.246192893401015 Y36.47208121827411
G1 X3.149746192893401 Y36.34771573604061
G1 X3.020304568527919 Y36.236040609137056
G1 X2.8629441624365484 Y36.14720812182741
G1 X2.6802030456852792 Y36.08375634517766
G1 X2.479695431472081 Y36.055837563451774
G1 X2.261421319796954 Y36.06091370558376
G3 X1.5913705583756346 Y35.68527918781726 I-0.020304568527918784 J-0.748730964467005
G1 X1.548223350253807 Y35.61167512690355
G1 X1.3654822335025378 Y35.378172588832484
G3 X1.215736040609137 Y35.022842639593904 I0.5913705583756345 J-0.4593908629441624
G1 X1.1497461928934012 Y34.54822335025381
G3 X1.1421319796954315 Y34.444162436548226 I0.7436548223350253 J-0.10406091370558375
G3 X1.1852791878172588 Y34.192893401015226 I0.751269035532995 J0
G1 X1.2766497461928932 Y33.93654822335026
G1 X1.2918781725888326 Y33.85279187817259
G3 X1.8096446700507616 Y33.28426395939086 I0.7360406091370558 J0.14720812182741116
G1 X2.020304568527919 Y33.21827411167513
G1 X2.200507614213198 Y33.12690355329949
G1 X2.3527918781725887 Y33.01015228426396
G1 X2.4746192893401013 Y32.8756345177665
G1 X2.563451776649746 Y32.73096446700507
G1 X2.6142131979695433 Y32.58121827411168
G1 X2.6345177664974617 Y32.42893401015229
G1 X2.6218274111675126 Y32.28172588832487
G1 X2.578680203045685 Y32.13705583756345
G1 X2.50253807106599 Y31.99746192893401
G1 X2.3934010152284264 Y31.868020304568528
G1 X2.251269035532995 Y31.753807106598984
G1 X2.0812182741116754 Y31.66243654822335
G1 X1.8883248730964466 Y31.601522842639596
G1 X1.6700507614213198 Y31.571065989847718
G3 X1.0685279187817258 Y31.09390862944162 I0.10152284263959391 J-0.7436548223350253
G1 X1.0406091370558377 Y31.01269035532995
G1 X0.9086294416243655 Y30.774111675126903
G3 X0.817258883248731 Y30.416243654822335 I0.6573604060913706 J-0.3604060913705584
G1 X0.817258883248731 Y29.913705583756347
G3 X0.9086294416243655 Y29.555837563451774 I0.751269035532995 J0
G1 X1.0406091370558377 Y29.31725888324873
G1 X1.0685279187817258 Y29.236040609137056
G3 X1.6700507614213198 Y28.758883248730967 I0.7030456852791878 J0.2639593908629442
G1 X1.8883248730964466 Y28.72842639593909
G1 X2.0812182741116754 Y28.667512690355327
G1 X2.251269035532995 Y28.576142131979694
G1 X2.3934010152284264 Y28.461928934010153
G1 X2.50253807106599 Y28.33248730964467
G1 X2.578680203045685 Y28.19289340101523
G1 X2.6218274111675126 Y28.04822335025381
G1 X2.6345177664974617 Y27.898477157360407
G1 X2.6142131979695433 Y27.748730964467004
G1 X2.563451776649746 Y27.598984771573605
G1 X2.4746192893401013 Y27.45431472081218
G1 X2.3527918781725887 Y27.319796954314718
G1 X2.200507614213198 Y27.203045685279186
G1 X2.020304568527919 Y27.111675126903553
G1 X1.8096446700507616 Y27.045685279187815
G3 X1.2918781725888326 Y26.477157360406093 I0.2182741116751269 J-0.7182741116751269
G1 X1.2766497461928932 Y26.393401015228427
G1 X1.1852791878172588 Y26.134517766497463
G3 X1.1421319796954315 Y25.885786802030456 I0.7081218274111676 J-0.24873096446700507
G3 X1.1497461928934012 Y25.78172588832487 I0.751269035532995 J0
G1 X1.215736040609137 Y25.307106598984774
G3 X1.3654822335025378 Y24.951776649746193 I0.7436548223350253 J0.10406091370558375
G1 X1.548223350253807 Y24.71827411167513
G1 X1.5913705583756346 Y24.64467005076142
G3 X2.261421319796954 Y24.269035532994923 I0.6497461928934011 J0.3730964467005076
G1 X2.479695431472081 Y24.274111675126903
G1 X2.6802030456852792 Y24.243654822335024
G1 X2.8629441624365484 Y24.182741116751266
G1 X3.020304568527919 Y24.093908629441625
G1 X3.149746192893401 Y23.982233502538072
G1 X3.246192893401015 Y23.857868020304565
G1 X3.314720812182741 Y23.720812182741117
G1 X3.350253807106599 Y23.576142131979694
G1 X3.352791878172589 Y23.423857868020303
G1 X3.3248730964467006 Y23.26903553299492
G1 X3.2639593908629445 Y23.111675126903553
G1 X3.16497461928934 Y22.95939086294416
G1 X3.032994923857868 Y22.81979695431472
G1 X2.868020304568528 Y22.69796954314721
G1 X2.67258883248731 Y22.601522842639593
G3 X2.253807106598985 Y21.956852791878173 I0.3299492385786802 J-0.6725888324873096
G1 X2.248730964467005 Y21.873096446700508
G1 X2.1954314720812182 Y21.571065989847718
G3 X2.182741116751269 Y21.439086294416242 I0.7385786802030457 J-0.1319796954314721
G3 X2.213197969543147 Y21.230964467005077 I0.751269035532995 J0
G1 X2.3248730964467006 Y20.83756345177665
G3 X2.535532994923858 Y20.497461928934012 I0.7208121827411168 J0.20558375634517764
G1 X2.786802030456853 Y20.263959390862944
G1 X2.8401015228426396 Y20.19796954314721
G3 X3.5634517766497464 Y19.934010152284266 I0.5812182741116751 J0.47208121827411165
G1 X3.779187817258883 Y19.9746192893401
G1 X3.982233502538071 Y19.97715736040609
G1 X4.1725888324873095 Y19.944162436548222
G1 X4.342639593908629 Y19.880710659898476
G1 X4.4873096446700504 Y19.794416243654823
G1 X4.601522842639594 Y19.685279187817258
G1 X4.690355329949238 Y19.560913705583754
G1 X4.748730964467005 Y19.423857868020306
G1 X4.776649746192893 Y19.274111675126903
G1 X4.774111675126903 Y19.116751269035532
G1 X4.738578680203045 Y18.951776649746193
G1 X4.66497461928934 Y18.784263959390863
G1 X4.555837563451776 Y18.624365482233504
G1 X4.413705583756345 Y18.47969543147208
G1 X4.2360406091370555 Y18.35279187817259
G3 X3.918781725888325 Y17.741116751269036 I0.434010152284264 J-0.6116751269035533
G3 X3.9263959390862944 Y17.6497461928934 I0.751269035532995 J0
G1 X3.9365482233502536 Y17.565989847715734
G1 X3.9289340101522843 Y17.192893401015226
G1 X3.9289340101522843 Y17.18020304568528
G3 X3.99492385786802 Y16.8756345177665 I0.751269035532995 J0
G1 X4.114213197969542 Y16.609137055837564
G3 X4.383248730964467 Y16.29187817258883 I0.6852791878172588 J0.30456852791878175
G1 X4.725888324873097 Y16.063451776649746
G1 X4.789340101522843 Y16.007614213197968
G3 X5.543147208121827 Y15.862944162436548 I0.5 J0.5609137055837563
G1 X5.748730964467005 Y15.936548223350254
G1 X5.949238578680203 Y15.972081218274113
G1 X6.1421319796954315 Y15.969543147208123
G1 X6.31979695431472 Y15.936548223350254
G1 X6.477157360406092 Y15.873096446700508
G1 X6.609137055837564 Y15.784263959390863
G1 X6.715736040609137 Y15.6751269035533
G1 X6.7944162436548226 Y15.550761421319796
G1 X6.847715736040609 Y15.408629441624367
G1 X6.870558375634518 Y15.251269035532996
G1 X6.8604060913705585 Y15.081218274111674
G1 X6.817258883248732 Y14.906091370558377
G1 X6.733502538071066 Y14.730964467005077
G1 X6.616751269035533 Y14.565989847715738
G1 X6.461928934010153 Y14.411167512690355
G3 X6.238578680203045 Y13.878172588832488 I0.5279187817258884 J-0.5329949238578681
G3 X6.269035532994924 Y13.66751269035533 I0.748730964467005 J0
G1 X6.291878172588833 Y13.586294416243653
G1 X6.345177664974619 Y13.213197969543147
G3 X6.5126903553299496 Y12.84010152284264 I0.7411167512690355 J0.10913705583756345
G1 X6.743654822335026 Y12.568527918781726
G3 X7.007614213197969 Y12.368020304568528 I0.5736040609137056 J0.48223350253807107
G1 X7.312182741116752 Y12.228426395939087
G1 X7.383248730964467 Y12.18274111675127
G3 X8.152284263959391 Y12.15989847715736 I0.4035532994923858 J0.6319796954314721
G1 X8.342639593908629 Y12.269035532994923
G1 X8.535532994923859 Y12.335025380710661
G1 X8.725888324873097 Y12.365482233502538
G1 X8.906091370558375 Y12.357868020304569
G1 X9.071065989847716 Y12.32233502538071
G1 X9.215736040609137 Y12.256345177664976
G1 X9.33756345177665 Y12.164974619289339
G1 X9.436548223350254 Y12.053299492385786
G1 X9.51269035532995 Y11.921319796954315
G1 X9.560913705583756 Y11.771573604060915
G1 X9.576142131979696 Y11.601522842639593
G1 X9.560913705583756 Y11.421319796954315
G1 X9.50761421319797 Y11.236040609137056
G1 X9.418781725888325 Y11.053299492385786
G1 X9.289340101522843 Y10.875634517766496
G3 X9.144670050761421 Y10.434010152284262 I0.6065989847715736 J-0.4416243654822335
G3 X9.218274111675127 Y10.109137055837563 I0.748730964467005 J0
G1 X9.256345177664974 Y10.032994923857867
G1 X9.350253807106599 Y9.730964467005077
G3 X9.563451776649746 Y9.401015228426395 I0.7157360406091371 J0.22588832487309643
G1 X9.898477157360405 Y9.098984771573605
G3 X10.20304568527919 Y8.934010152284264 I0.5025380710659898 J0.5583756345177665
G1 X10.47969543147208 Y8.857868020304569
G1 X10.558375634517766 Y8.8248730964467
G3 X11.31979695431472 Y8.926395939086294 I0.2969543147208122 J0.6903553299492386
G1 X11.49238578680203 Y9.063451776649746
G1 X11.67005076142132 Y9.159898477157359
G1 X11.852791878172589 Y9.220812182741117
G1 X12.032994923857867 Y9.243654822335026
G1 X12.203045685279188 Y9.233502538071065
G1 X12.355329949238579 Y9.19035532994924
G1 X12.48984771573604 Y9.121827411167512
G1 X12.606598984771573 Y9.027918781725889
G1 X12.7005076142132 Y8.908629441624365
G1 X12.771573604060913 Y8.766497461928934
G1 X12.81725888324873 Y8.604060913705583
G1 X12.82994923857868 Y8.423857868020304
G1 X12.807106598984772 Y8.230964467005077
G1 X12.748730964467006 Y8.035532994923857
G1 X12.649746192893401 Y7.840101522842639
G3 X12.568527918781726 Y7.50253807106599 I0.6675126903553299 J-0.3401015228426396
G3 X12.70304568527919 Y7.073604060913706 I0.748730964467005 J0
G1 X12.751269035532996 Y7.00507614213198
G1 X12.875634517766496 Y6.753807106598985
G3 X13.126903553299492 Y6.469543147208122 I0.6700507614213198 J0.3375634517766497
G1 X13.538071065989847 Y6.192893401015228
G3 X13.878172588832488 Y6.068527918781726 I0.41878172588832485 J0.6218274111675127
G1 X14.147208121827411 Y6.040609137055838
G1 X14.228426395939087 Y6.020304568527919
G3 X14.964467005076143 Y6.241116751269036 I0.1802030456852792 J0.7284263959390863
G1 X15.114213197969544 Y6.403553299492386
G1 X15.274111675126905 Y6.527918781725889
G1 X15.444162436548224 Y6.616751269035533
G1 X15.619289340101524 Y6.6700507614213205
G1 X15.786802030456853 Y6.685279187817259
G1 X15.944162436548224 Y6.6700507614213205
G1 X16.088832487309645 Y6.621827411167512
G1 X16.218274111675125 Y6.5482233502538065
G1 X16.32994923857868 Y6.446700507614214
G1 X16.423857868020303 Y6.317258883248731
G1 X16.49492385786802 Y6.16243654822335
G1 X16.53553299492386 Y5.9873096446700504
G1 X16.545685279187815 Y5.794416243654822
G1 X16.51776649746193 Y5.593908629441624
G1 X16.451776649746193 Y5.383248730964468
G3 X16.416243654822335 Y5.15736040609137 I0.7157360406091371 J-0.22842639593908629
G3 X16.626903553299492 Y4.634517766497462 I0.748730964467005 J0
G1 X16.685279187817258 Y4.573604060913706
G1 X16.84517766497462 Y4.355329949238579
G3 X17.121827411167512 Y4.121827411167513 I0.6065989847715736 J0.4416243654822335
G1 X17.568527918781726 Y3.9060913705583755
G3 X17.939086294416246 Y3.8299492385786804 I0.3299492385786802 J0.6751269035532994
G1 X18.21827411167513 Y3.847715736040609
G1 X18.304568527918782 Y3.840101522842639
G3 X18.99492385786802 Y4.177664974619289 I0.06345177664974619 J0.7461928934010152
G1 X19.114213197969544 Y4.3604060913705585
G1 X19.253807106598984 Y4.51015228426396
G1 X19.408629441624367 Y4.624365482233502
G1 X19.571065989847718 Y4.7030456852791875
G1 X19.736040609137056 Y4.746192893401015
G1 X19.893401015228427 Y4.756345177664975
G1 X20.043147208121827 Y4.7335025380710665
G1 X20.182741116751266 Y4.680203045685279
G1 X20.30964467005076 Y4.598984771573605
G1 X20.423857868020306 Y4.4873096446700504
G1 X20.51776649746193 Y4.345177664974619
G1 X20.586294416243653 Y4.177664974619289
G1 X20.626903553299492 Y3.989847715736041
G1 X20.631979695431472 Y3.786802030456853
G1 X20.598984771573605 Y3.568527918781726
G3 X20.591370558375633 Y3.4593908629441623 I0.7411167512690355 J-0.10913705583756345
G3 X20.893401015228427 Y2.8578680203045685 I0.751269035532995 J0
G1 X20.95939086294416 Y2.8071065989847717
G1 X21.162436548223347 Y2.6065989847715736
G3 X21.45939086294416 Y2.4238578680203045 I0.5279187817258884 J0.5329949238578681
G1 X21.888324873096447 Y2.286802030456853
G3 X22.281725888324875 Y2.266497461928934 I0.23096446700507614 J0.7131979695431472
G1 X22.591370558375633 Y2.33502538071066
G1 X22.6751269035533 Y2.3426395939086295
G3 X23.30203045685279 Y2.786802030456853 I-0.05837563451776649 J0.748730964467005
G1 X23.39086294416244 Y2.987309644670051
G1 X23.50507614213198 Y3.1548223350253806
G1 X23.639593908629443 Y3.2944162436548226
G1 X23.786802030456855 Y3.3984771573604062
G1 X23.941624365482234 Y3.4670050761421316
G1 X24.096446700507613 Y3.5
G1 X24.248730964467008 Y3.50253807106599
G1 X24.39593908629442 Y3.472081218274112
G1 X24.532994923857867 Y3.411167512690355
G1 X24.66243654822335 Y3.3197969543147208
G1 X24.779187817258883 Y3.1954314720812182
G1 X24.873096446700508 Y3.0406091370558377
G1 X24.944162436548222 Y2.860406091370558
G1 X24.982233502538072 Y2.6624365482233503
G1 X24.984771573604057 Y2.4416243654822334
G3 X25.388324873096447 Y1.7868020304568528 I0.748730964467005 J0.010152284263959392
G1 X25.461928934010153 Y1.748730964467005
G1 X25.736040609137056 Y1.5532994923857868
G3 X26.04060913705584 Y1.4263959390862944 I0.4365482233502538 J0.6091370558375635
G1 X26.390862944162436 Y1.3629441624365481
G3 X26.7994923857868 Y1.4060913705583755 I0.12944162436548223 J0.7385786802030457
G1 X27.14720812182741 Y1.5431472081218276
G1 X27.230964467005077 Y1.5634517766497464
G3 X27.77918781725888 Y2.1040609137055837 I-0.17766497461928935 J0.7284263959390863
G1 X27.83248730964467 Y2.314720812182741
G1 X27.918781725888326 Y2.5
G1 X28.027918781725887 Y2.657360406091371
G1 X28.15736040609137 Y2.784263959390863
G1 X28.299492385786806 Y2.878172588832487
G1 X28.44670050761421 Y2.936548223350254
G1 X28.596446700507613 Y2.9619289340101522
G1 X28.746192893401016 Y2.956852791878173
G1 X28.893401015228427 Y2.9187817258883246
G1 X29.035532994923855 Y2.847715736040609
G1 X29.17005076142132 Y2.7436548223350252
G1 X29.289340101522843 Y2.6065989847715736
G1 X29.385786802030456 Y2.4416243654822334
G1 X29.45431472081218 Y2.251269035532995
G1 X29.492385786802032 Y2.032994923857868
G3 X29.99746192893401 Y1.4517766497461928 I0.7385786802030457 J0.12944162436548223
G1 X30.076142131979697 Y1.4263959390862944
G1 X30.446700507614214 Y1.2436548223350254
G3 X30.855329949238577 Y1.1700507614213198 I0.33248730964467005 J0.6725888324873096
G1 X31.14720812182741 Y1.2005076142131978
G3 X31.454314720812185 Y1.3020304568527918 I-0.07868020304568528 J0.7461928934010152
G1 X31.771573604060915 Y1.4949238578680202
G1 X31.850253807106597 Y1.5279187817258881
G3 X32.30456852791878 Y2.1472081218274113 I-0.2918781725888325 J0.6903553299492386
G1 X32.3248730964467 Y2.365482233502538
G1 X32.380710659898476 Y2.560913705583756
G1 X32.464467005076145 Y2.736040609137056
G1 X32.57106598984771 Y2.8807106598984773
G1 X32.69543147208122 Y2.99492385786802
G1 X32.83248730964467 Y3.0761421319796955
G1 X32.97715736040609 Y3.126903553299493
G1 X33.1243654822335 Y3.1446700507614214
G1 X33.2741116751269 Y3.1319796954314723
G1 X33.4263959390863 Y3.0837563451776653
G1 X33.576142131979694 Y3.00253807106599
G1 X33.71573604060914 Y2.8883248730964466
G1 X33.83756345177665 Y2.738578680203046
G1 X33.93654822335026 Y2.560913705583756
G1 X34.01015228426396 Y2.3553299492385786
G3 X34.598984771573605 Y1.8604060913705585 I0.7081218274111676 J0.24619289340101522
G1 X34.682741116751274 Y1.8477157360406091
G1 X35.01015228426396 Y1.7461928934010151
G3 X35.41370558375634 Y1.736040609137056 I0.22081218274111675 J0.7157360406091371
G1 X35.80964467005076 Y1.8350253807106598
G3 X36.111675126903556 Y1.9898477157360406 I-0.1802030456852792 J0.7284263959390863
G1 X36.345177664974614 Y2.1878172588832485
G1 X36.41878172588832 Y2.230964467005076
G3 X36.76903553299492 Y2.868020304568528 I-0.3984771573604061 J0.6345177664974619
G3 X36.766497461928935 Y2.916243654822335 I-0.751269035532995 J0
G1 X36.75126903553299 Y3.1370558375634516
G1 X36.7741116751269 Y3.3375634517766493
G1 X36.82994923857868 Y3.5228426395939088
G1 X36.911167512690355 Y3.6852791878172586
G1 X37.01776649746193 Y3.817258883248731
G1 X37.13705583756345 Y3.918781725888325
G1 X37.27157360406091 Y3.9923857868020307
G1 X37.41370558375635 Y4.032994923857868
G1 X37.565989847715734 Y4.043147208121828
G1 X37.72335025380711 Y4.022842639593909
G1 X37.88324873096447 Y3.967005076142132
G1 X38.04060913705584 Y3.8730964467005076
G1 X38.18527918781726 Y3.746192893401015
G1 X38.31218274111675 Y3.588832487309644
G1 X38.41624365482233 Y3.3959390862944163
G3 X39.076142131979694 Y3.00253807106599 I0.6598984771573604 J0.35786802030456855
G1 X39.162436548223354 Y3.00253807106599
G1 X39.454314720812185 Y2.9619289340101522
G3 X39.83756345177665 Y3.0101522842639596 I0.10152284263959391 J0.7436548223350253
G1 X40.28172588832487 Y3.190355329949239
G3 X40.57106598984771 Y3.3959390862944163 I-0.2817258883248731 J0.6954314720812182
G1 X40.74873096446701 Y3.604060913705584
G1 X40.81218274111676 Y3.659898477157361
G3 X41.065989847715734 Y4.223350253807107 I-0.49492385786802034 J0.5634517766497462
G3 X41.04822335025381 Y4.393401015228426 I-0.751269035532995 J0
G1 X40.997461928934015 Y4.606598984771574
G1 X40.98730964467005 Y4.809644670050762
G1 X41.01015228426397 Y5
G1 X41.065989847715734 Y5.1725888324873095
G1 X41.1497461928934 Y5.322335025380712
G1 X41.253807106598984 Y5.441624365482234
G1 X41.37309644670051 Y5.532994923857868
G1 X41.50761421319797 Y5.598984771573604
G1 X41.65482233502538 Y5.631979695431472
G1 X41.81472081218274 Y5.637055837563452
G1 X41.97969543147208 Y5.606598984771574
G1 X42.1497461928934 Y5.540609137055838
G1 X42.31218274111675 Y5.439086294416243
G1 X42.464467005076145 Y5.302030456852792
G1 X42.598984771573605 Y5.129441624365483
G3 X43.31472081218274 Y4.847715736040609 I0.5939086294416244 J0.4593908629441624
G1 X43.39847715736041 Y4.8604060913705585
G1 X43.66751269035533 Y4.868020304568528
G3 X44.0253807106599 Y4.967005076142132 I-0.017766497461928935 J0.748730964467005
G1 X44.45939086294416 Y5.218274111675127
G3 X44.7258883248731 Y5.477157360406092 I-0.3756345177664975 J0.6497461928934011
G1 X44.86802030456853 Y5.710659898477157
G1 X44.92131979695431 Y5.774111675126904
G3 X45.09137055837564 Y6.251269035532995 I-0.5786802030456852 J0.47715736040609136
G3 X45.035532994923855 Y6.535532994923859 I-0.751269035532995 J0
G1 X44.95177664974619 Y6.738578680203045
G1 X44.90862944162436 Y6.936548223350254
G1 X44.901015228426395 Y7.129441624365482
G1 X44.92893401015229 Y7.309644670050761
G1 X44.98730964467005 Y7.469543147208122
G1 X45.07106598984771 Y7.604060913705584
G1 X45.175126903553306 Y7.715736040609137
G1 X45.296954314720814 Y7.7994923857868015
G1 X45.43654822335025 Y7.8578680203045685
G1 X45.59390862944163 Y7.885786802030457
G1 X45.76142131979695 Y7.883248730964468
G1 X45.93908629441624 Y7.84517766497462
G1 X46.11675126903553 Y7.771573604060914
G1 X46.286802030456855 Y7.659898477157361
G1 X46.44923857868021 Y7.510152284263959
G3 X47.200507614213194 Y7.347715736040609 I0.5126903553299492 J0.5482233502538071
G1 X47.27918781725889 Y7.375634517766497
G1 X47.54822335025381 Y7.426395939086294
G3 X47.873096446700515 Y7.571065989847716 I-0.13705583756345177 J0.7360406091370558
G1 X48.24873096446701 Y7.865482233502537
G3 X48.48223350253807 Y8.175126903553299 I-0.4619289340101523 J0.5913705583756345
G1 X48.59390862944163 Y8.449238578680202
G1 X48.63705583756345 Y8.522842639593907
G3 X48.73857868020305 Y8.898477157360405 I-0.6497461928934011 J0.3756345177664975
G3 X48.62690355329949 Y9.291878172588833 I-0.751269035532995 J0
G1 X48.512690355329944 Y9.47715736040609
G1 X48.43908629441624 Y9.66751269035533
G1 X48.40101522842639 Y9.855329949238579
G1 X48.39847715736041 Y10.038071065989849
G1 X48.431472081218274 Y10.20304568527919
G1 X48.48984771573604 Y10.3502538071066
G1 X48.576142131979694 Y10.47715736040609
G1 X48.68274111675127 Y10.578680203045685
G1 X48.81218274111675 Y10.65989847715736
G1 X48.96192893401015 Y10.713197969543147
G1 X49.129441624365484 Y10.738578680203046
G1 X49.30964467005076 Y10.728426395939085
G1 X49.49746192893401 Y10.685279187817258
G1 X49.682741116751274 Y10.601522842639595
G1 X49.86548223350254 Y10.47969543147208
G3 X50.63451776649746 Y10.439086294416244 I0.41878172588832485 J0.6218274111675127
G1 X50.70812182741116 Y10.47969543147208
G1 X50.997461928934015 Y10.583756345177664
G3 X51.28172588832487 Y10.769035532994923 I-0.25380710659898476 J0.7055837563451777
G1 X51.565989847715734 Y11.063451776649746
G3 X51.756345177664976 Y11.416243654822335 I-0.5406091370558376 J0.5203045685279188
G1 X51.83502538071066 Y11.748730964467004
G1 X51.86548223350254 Y11.829949238578681
G3 X51.91370558375635 Y12.096446700507615 I-0.7005076142131981 J0.2690355329949239
G3 X51.73096446700508 Y12.586294416243655 I-0.751269035532995 J0
G1 X51.588832487309645 Y12.753807106598984
G1 X51.484771573604064 Y12.926395939086294
G1 X51.41878172588832 Y13.109137055837563
G1 X51.38578680203046 Y13.286802030456853
G1 X51.39086294416244 Y13.456852791878173
G1 X51.4263959390863 Y13.611675126903553
G1 X51.48984771573603 Y13.748730964467004
G1 X51.578680203045685 Y13.868020304568526
G1 X51.692893401015226 Y13.967005076142131
G1 X51.83248730964466 Y14.043147208121827
G1 X51.99492385786802 Y14.096446700507615
G1 X52.175126903553306 Y14.116751269035532
G1 X52.36802030456853 Y14.101522842639593
G1 X52.56345177664975 Y14.050761421319798
G1 X52.76395939086294 Y13.959390862944163
G3 X53.52791878172589 Y14.043147208121827 I0.31218274111675126 J0.6827411167512689
G1 X53.59644670050762 Y14.093908629441625
G1 X53.921319796954315 Y14.274111675126903
G3 X54.16243654822335 Y14.489847715736042 I-0.3654822335025381 J0.6548223350253807
G1 X54.33502538071066 Y14.723350253807105
G3 X54.474619289340104 Y15.116751269035532 I-0.6065989847715736 J0.4416243654822335
G1 X54.50253807106599 Y15.527918781725889
G1 X54.52030456852792 Y15.611675126903553
G3 X54.535532994923855 Y15.763959390862945 I-0.7335025380710659 J0.15228426395939088
G3 X54.266497461928935 Y16.33756345177665 I-0.751269035532995 J0
G1 X54.09898477157361 Y16.47969543147208
G1 X53.96954314720812 Y16.63451776649746
G1 X53.87309644670051 Y16.80203045685279
G1 X53.81472081218274 Y16.972081218274113
G1 X53.79187817258884 Y17.14213197969543
G1 X53.80203045685279 Y17.299492385786802
G1 X53.84263959390863 Y17.446700507614214
G1 X53.911167512690355 Y17.578680203045685
G1 X54.00761421319797 Y17.69289340101523
G1 X54.131979695431475 Y17.791878172588834
G1 X54.284263959390856 Y17.868020304568528
G1 X54.45939086294416 Y17.918781725888323
G1 X54.65228426395939 Y17.934010152284262
G1 X54.85279187817259 Y17.916243654822335
G1 X55.06345177664975 Y17.85786802030457
G3 X55.804568527918775 Y18.060913705583758 I0.1979695431472081 J0.7233502538071066
G1 X55.86548223350253 Y18.1243654822335
G1 X56.159898477157356 Y18.35532994923858
G3 X56.398477157360404 Y18.68781725888325 I-0.46446700507614214 J0.5888324873096447
G1 X56.52030456852792 Y19.022842639593907
G3 X56.565989847715734 Y19.279187817258883 I-0.7055837563451777 J0.2563451776649746
G3 X56.56345177664974 Y19.35279187817259 I-0.751269035532995 J0
G1 X56.53045685279188 Y19.685279187817258
G1 X56.53299492385787 Y19.769035532994923
G3 X56.53553299492386 Y19.802030456852794 I-0.748730964467005 J0.03299492385786802
G3 X56.16751269035533 Y20.446700507614214 I-0.751269035532995 J0
G1 X55.97969543147208 Y20.558375634517766
G1 X55.8248730964467 Y20.690355329949238
G1 X55.70558375634518 Y20.84263959390863
G1 X55.61928934010152 Y21.002538071065988
G1 X55.568527918781726 Y21.162436548223347
G1 X55.55329949238579 Y21.32233502538071
G1 X55.57106598984771 Y21.472081218274113
G1 X55.61675126903553 Y21.614213197969544
G1 X55.69543147208122 Y21.743654822335024
G1 X55.8020304568528 Y21.860406091370557
G1 X55.93908629441624 Y21.961928934010153
G1 X56.10406091370558 Y22.038071065989847
G1 X56.29187817258884 Y22.083756345177665
G1 X56.49238578680203 Y22.0989847715736
G1 X56.710659898477154 Y22.07360406091371
G3 X57.411167512690355 Y22.395939086294415 I0.08121827411167513 J0.7461928934010152
G1 X57.45939086294416 Y22.46700507614213
G1 X57.67258883248731 Y22.700507614213198
G3 X57.85279187817259 Y23.050761421319798 I-0.5532994923857868 J0.5076142131979695
G1 X57.94670050761422 Y23.48984771573604
G3 X57.961928934010146 Y23.64467005076142 I-0.7335025380710659 J0.15482233502538073
G3 X57.93654822335025 Y23.837563451776653 I-0.751269035532995 J0
G1 X57.86548223350253 Y24.114213197969544
G1 X57.85532994923858 Y24.19796954314721
G3 X57.38578680203045 Y24.80710659898477 I-0.7436548223350253 J-0.08883248730964467
G1 X57.180203045685275 Y24.888324873096444
G1 X57.00761421319797 Y24.99492385786802
G1 X56.86548223350254 Y25.121827411167512
G1 X56.753807106598984 Y25.266497461928935
G1 X56.68020304568528 Y25.418781725888326
G1 X56.639593908629436 Y25.571065989847718
G1 X56.631979695431475 Y25.723350253807105
G1 X56.65482233502538 Y25.870558375634516
G1 X56.710659898477154 Y26.01269035532995
G1 X56.79695431472081 Y26.14467005076142
G1 X56.91624365482234 Y26.263959390862944
G1 X57.065989847715734 Y26.368020304568528
G1 X57.243654822335024 Y26.444162436548222
G1 X57.441624365482234 Y26.48984771573604
G1 X57.65989847715736 Y26.50253807106599
G1 Z-0.9 F125
G3 X58.299492385786806 Y26.931472081218274 I-0.04060913705583757 J0.748730964467005 F125
G1 X58.33502538071066 Y27.007614213197968
G1 X58.48730964467005 Y27.241116751269033
G3 X58.60913705583756 Y27.601522842639593 I-0.6269035532994924 J0.4111675126903553
G1 X58.64467005076143 Y28.096446700507617
G3 X58.64467005076143 Y28.14720812182741 I-0.748730964467005 J0.053299492385786795
G3 X58.58121827411168 Y28.451776649746193 I-0.751269035532995 J0
G1 X58.47208121827411 Y28.700507614213198
G1 X58.44670050761422 Y28.781725888324875
G3 X57.88578680203046 Y29.30710659898477 I-0.7208121827411168 J-0.2081218274111675
G1 X57.67258883248731 Y29.35279187817259
G1 X57.48477157360406 Y29.431472081218274
G1 X57.32233502538071 Y29.53553299492386
G1 X57.190355329949234 Y29.659898477157363
G1 X57.09137055837563 Y29.79695431472081
G1 X57.027918781725894 Y29.941624365482234
G1 X56.99492385786802 Y30.091370558375633
G1 X56.99492385786802 Y30.238578680203045
G1 X57.027918781725894 Y30.388324873096447
G1 X57.09137055837563 Y30.532994923857867
G1 X57.190355329949234 Y30.670050761421322
G1 X57.32233502538071 Y30.794416243654823
G1 X57.48477157360406 Y30.898477157360404
G1 X57.67258883248731 Y30.977157360406093
G1 X57.88578680203046 Y31.022842639593907
G3 X58.44670050761422 Y31.548223350253807 I-0.1598984771573604 J0.7335025380710659
G1 X58.47208121827411 Y31.629441624365484
G1 X58.58121827411168 Y31.8756345177665
G3 X58.64467005076143 Y32.182741116751274 I-0.6852791878172588 J0.30456852791878175
G3 X58.64467005076143 Y32.233502538071065 I-0.751269035532995 J0
G1 X58.60913705583756 Y32.72842639593909
G3 X58.48730964467005 Y33.088832487309645 I-0.748730964467005 J-0.053299492385786795
G1 X58.33502538071066 Y33.32233502538071
G1 X58.299492385786806 Y33.398477157360404
G3 X57.65989847715736 Y33.827411167512686 I-0.6802030456852792 J-0.31725888324873097
G1 X57.441624365482234 Y33.84010152284264
G1 X57.243654822335024 Y33.88578680203046
G1 X57.065989847715734 Y33.96192893401015
G1 X56.91624365482234 Y34.06345177664975
G1 X56.79695431472081 Y34.18527918781726
G1 X56.710659898477154 Y34.317258883248726
G1 X56.65482233502538 Y34.45939086294416
G1 X56.631979695431475 Y34.60659898477157
G1 X56.639593908629436 Y34.75888324873096
